;FLAVOR:Marlin
;TIME:6252
;Filament used: 5.45554m
;Layer height: 0.28
;MINX:94.324
;MINY:94.338
;MINZ:0.28
;MAXX:140.678
;MAXY:140.667
;MAXZ:88.76
;Generated with Cura_SteamEngine 4.6.1
M140 S60
M105
M190 S60
M104 S215
M105
M109 S215
M82 ;absolute extrusion mode
; Ender 3 Custom Start G-code
G92 E0 ; Reset Extruder
G28 ; Home all axes
G1 Z2.0 F3000 ; Move Z Axis up little to prevent scratching of Heat Bed
G1 X0.1 Y20 Z0.3 F5000.0 ; Move to start position
G1 X0.1 Y200.0 Z0.3 F1500.0 E15 ; Draw the first line
G1 X0.4 Y200.0 Z0.3 F5000.0 ; Move to side a little
G1 X0.4 Y20 Z0.3 F1500.0 E30 ; Draw the second line
G92 E0 ; Reset Extruder
G1 Z2.0 F3000 ; Move Z Axis up little to prevent scratching of Heat Bed
G1 X5 Y20 Z0.3 F5000.0 ; Move over to prevent blob squish
G92 E0
G92 E0
G1 F1500 E-6.5
;LAYER_COUNT:317
;LAYER:0
M107
G0 F6000 X119.247 Y95.196 Z0.28
;TYPE:SKIRT
G1 F1500 E0
G1 F1200 X119.711 Y95.241 E0.02171
G1 X120.711 Y95.363 E0.06862
G1 X121.418 Y95.463 E0.10187
G1 X122.306 Y95.628 E0.14392
G1 X122.788 Y95.753 E0.16711
G1 X123.599 Y95.986 E0.2064
G1 X124.527 Y96.268 E0.25156
G1 X125.092 Y96.448 E0.27917
G1 X125.94 Y96.76 E0.32125
G1 X126.476 Y97.004 E0.34867
G1 X127.605 Y97.558 E0.40723
G1 X127.994 Y97.758 E0.4276
G1 X128.606 Y98.083 E0.45986
G1 X129.555 Y98.656 E0.51148
G1 X129.988 Y98.954 E0.53596
G1 X130.296 Y99.177 E0.55367
G1 X131.154 Y99.809 E0.60329
G1 X131.711 Y100.231 E0.63583
G1 X132.406 Y100.808 E0.67789
G1 X132.819 Y101.204 E0.70453
G1 X133.596 Y101.995 E0.75616
G1 X133.986 Y102.408 E0.78261
G1 X134.425 Y102.883 E0.81273
G1 X135.146 Y103.755 E0.86541
G1 X135.432 Y104.15 E0.88812
G1 X135.699 Y104.534 E0.9099
G1 X136.285 Y105.398 E0.95851
G1 X136.658 Y105.963 E0.99004
G1 X137.122 Y106.738 E1.0321
G1 X137.397 Y107.288 E1.06073
G1 X138.003 Y108.598 E1.12794
G1 X138.32 Y109.325 E1.16487
G1 X138.644 Y110.168 E1.20692
G1 X138.811 Y110.719 E1.23373
G1 X139.062 Y111.643 E1.27832
G1 X139.239 Y112.338 E1.31171
G1 X139.418 Y113.08 E1.34725
G1 X139.646 Y114.401 E1.40967
G1 X139.719 Y115.11 E1.44286
G1 X139.802 Y116.075 E1.48796
G1 X139.852 Y116.756 E1.51976
G1 X139.878 Y117.659 E1.56182
G1 X139.856 Y118.188 E1.58648
G1 X139.799 Y119.017 E1.62517
G1 X139.741 Y119.723 E1.65816
G1 X139.668 Y120.475 E1.69334
G1 X139.541 Y121.369 E1.73538
G1 X139.431 Y121.885 E1.75995
G1 X139.236 Y122.686 E1.79834
G1 X139.009 Y123.566 E1.84066
G1 X138.822 Y124.255 E1.8739
G1 X138.547 Y125.115 E1.91594
G1 X138.342 Y125.627 E1.94162
G1 X137.979 Y126.465 E1.98415
G1 X137.693 Y127.096 E2.01641
G1 X137.404 Y127.715 E2.04822
G1 X136.986 Y128.516 E2.09029
G1 X136.695 Y128.988 E2.11611
G1 X136.199 Y129.744 E2.15821
G1 X135.769 Y130.376 E2.1938
G1 X135.362 Y130.961 E2.22699
G1 X134.814 Y131.679 E2.26905
G1 X134.489 Y132.049 E2.29198
G1 X133.908 Y132.677 E2.33181
G1 X133.344 Y133.267 E2.36982
G1 X132.837 Y133.783 E2.4035
G1 X132.176 Y134.398 E2.44555
G1 X131.751 Y134.741 E2.47098
G1 X130.961 Y135.342 E2.5172
G1 X130.418 Y135.742 E2.5486
G1 X129.879 Y136.129 E2.5795
G1 X129.123 Y136.622 E2.62152
G1 X128.66 Y136.88 E2.64621
G1 X127.81 Y137.323 E2.69084
G1 X127.13 Y137.662 E2.72622
G1 X126.458 Y137.988 E2.761
G1 X125.629 Y138.346 E2.80304
G1 X125.094 Y138.532 E2.82942
G1 X124.336 Y138.772 E2.86644
G1 X123.603 Y138.994 E2.9021
G1 X122.873 Y139.206 E2.9375
G1 X121.573 Y139.493 E2.99949
G1 X120.907 Y139.594 E3.03086
G1 X120.044 Y139.709 E3.0714
G1 X119.295 Y139.798 E3.10652
G1 X118.394 Y139.865 E3.14859
G1 X117.885 Y139.867 E3.17229
G1 X117.077 Y139.849 E3.20992
G1 X116.105 Y139.813 E3.25522
G1 X115.408 Y139.778 E3.28771
G1 X114.509 Y139.693 E3.32976
G1 X114.006 Y139.61 E3.3535
G1 X113.671 Y139.546 E3.36938
G1 X113.355 Y139.48 E3.38441
G1 X112.245 Y139.23 E3.43739
G1 X111.563 Y139.066 E3.47005
G1 X110.396 Y138.71 E3.52687
G1 X109.381 Y138.329 E3.57735
G1 X108.773 Y138.084 E3.60787
G1 X108.096 Y137.801 E3.64204
G1 X107.279 Y137.416 E3.6841
G1 X106.792 Y137.143 E3.71009
G1 X106.041 Y136.692 E3.75088
G1 X105.425 Y136.31 E3.78463
G1 X104.804 Y135.916 E3.81888
G1 X104.063 Y135.399 E3.86095
G1 X103.639 Y135.055 E3.88638
G1 X103.017 Y134.522 E3.92452
G1 X102.355 Y133.938 E3.96562
G1 X101.864 Y133.493 E3.99648
G1 X101.223 Y132.857 E4.03853
G1 X100.868 Y132.452 E4.0636
G1 X100.251 Y131.708 E4.10861
G1 X99.826 Y131.177 E4.14028
G1 X99.375 Y130.6 E4.17438
G1 X98.851 Y129.865 E4.21641
G1 X98.575 Y129.415 E4.24099
G1 X98.209 Y128.778 E4.2752
G1 X97.775 Y128.001 E4.31664
G1 X97.468 Y127.44 E4.34642
G1 X97.07 Y126.629 E4.38849
G1 X96.862 Y126.114 E4.41435
G1 X96.487 Y125.107 E4.46439
G1 X96.265 Y124.474 E4.49562
G1 X96.052 Y123.841 E4.52672
G1 X95.802 Y122.973 E4.56878
G1 X95.686 Y122.425 E4.59487
G1 X95.481 Y121.296 E4.6483
G1 X95.376 Y120.645 E4.679
G1 X95.281 Y120.006 E4.70908
G1 X95.188 Y119.105 E4.75126
G1 X95.133 Y118.098 E4.79822
G1 X95.124 Y117.781 E4.81299
G1 X95.125 Y117.172 E4.84134
G1 X95.16 Y116.2 E4.88663
G1 X95.18 Y115.873 E4.90189
G1 X95.279 Y114.946 E4.9453
G1 X95.481 Y113.652 E5.00628
G1 X95.565 Y113.179 E5.02865
G1 X95.683 Y112.557 E5.05813
G1 X96.015 Y111.269 E5.12007
G1 X96.268 Y110.508 E5.15741
G1 X96.613 Y109.531 E5.20566
G1 X96.826 Y108.954 E5.2343
G1 X97.176 Y108.121 E5.27637
G1 X97.412 Y107.655 E5.30069
G1 X97.855 Y106.832 E5.34421
G1 X98.218 Y106.185 E5.37876
G1 X98.572 Y105.573 E5.41168
G1 X99.058 Y104.812 E5.45372
G1 X99.37 Y104.392 E5.47809
G1 X99.901 Y103.716 E5.51811
G1 X100.373 Y103.132 E5.55308
G1 X100.835 Y102.574 E5.58681
G1 X101.442 Y101.905 E5.62887
G1 X101.869 Y101.497 E5.65637
G1 X102.621 Y100.822 E5.70343
G1 X103.137 Y100.373 E5.73528
G1 X103.668 Y99.923 E5.76769
G1 X104.605 Y99.218 E5.82229
G1 X105.299 Y98.77 E5.86075
G1 X106.116 Y98.263 E5.90553
G1 X106.72 Y97.9 E5.93834
G1 X107.719 Y97.373 E5.99093
G1 X107.902 Y97.289 E6.00031
G1 X108.344 Y97.098 E6.02273
G1 X109.535 Y96.62 E6.08249
G1 X110.198 Y96.364 E6.11558
G1 X111.465 Y95.967 E6.17741
G1 X112.624 Y95.689 E6.2329
G1 X113.243 Y95.556 E6.26239
G1 X113.797 Y95.445 E6.28869
G1 X114.695 Y95.306 E6.33101
G1 X114.915 Y95.282 E6.34131
G1 X115.354 Y95.244 E6.36183
G1 X116.712 Y95.16 E6.42519
G1 X117.387 Y95.138 E6.45663
G1 X118.027 Y95.138 E6.48643
G1 X118.524 Y95.153 E6.50959
G1 X119.247 Y95.196 E6.54331
G0 F6000 X119.277 Y94.797
G1 F1200 X119.758 Y94.844 E6.56582
G1 X120.768 Y94.966 E6.61319
G1 X121.475 Y95.066 E6.64644
G1 X122.38 Y95.235 E6.68931
G1 X122.898 Y95.369 E6.71422
G1 X123.715 Y95.603 E6.75379
G1 X124.649 Y95.887 E6.79925
G1 X125.214 Y96.067 E6.82686
G1 X126.078 Y96.384 E6.86971
G1 X126.652 Y96.644 E6.89906
G1 X127.788 Y97.202 E6.95799
G1 X128.182 Y97.405 E6.97863
G1 X128.794 Y97.73 E7.0109
G1 X129.78 Y98.325 E7.06452
G1 X130.222 Y98.63 E7.08952
G1 X130.533 Y98.855 E7.1074
G1 X131.395 Y99.49 E7.15725
G1 X131.952 Y99.912 E7.18979
G1 X132.661 Y100.499 E7.23265
G1 X133.104 Y100.923 E7.26121
G1 X133.886 Y101.72 E7.3132
G1 X134.28 Y102.136 E7.33988
G1 X134.719 Y102.611 E7.37
G1 X135.468 Y103.518 E7.42477
G1 X135.76 Y103.922 E7.44798
G1 X136.029 Y104.309 E7.46993
G1 X136.619 Y105.178 E7.51883
G1 X136.992 Y105.743 E7.55036
G1 X137.466 Y106.533 E7.59326
G1 X137.76 Y107.119 E7.62379
G1 X138.369 Y108.438 E7.69144
G1 X138.686 Y109.165 E7.72837
G1 X139.017 Y110.024 E7.77123
G1 X139.197 Y110.614 E7.79995
G1 X139.449 Y111.544 E7.84482
G1 X139.627 Y112.244 E7.87845
G1 X139.806 Y112.986 E7.91399
G1 X139.983 Y113.89 E7.95689
G1 X140.043 Y114.359 E7.9789
G1 X140.117 Y115.076 E8.01247
G1 X140.201 Y116.046 E8.0578
G1 X140.251 Y116.727 E8.0896
G1 X140.278 Y117.647 E8.13246
G1 X140.255 Y118.215 E8.15893
G1 X140.198 Y119.049 E8.19785
G1 X140.139 Y119.761 E8.23112
G1 X140.066 Y120.513 E8.2663
G1 X139.938 Y121.425 E8.30918
G1 X139.819 Y121.979 E8.33557
G1 X139.623 Y122.786 E8.37424
G1 X139.395 Y123.67 E8.41675
G1 X139.208 Y124.359 E8.44999
G1 X138.928 Y125.237 E8.4929
G1 X138.709 Y125.786 E8.52043
G1 X138.344 Y126.629 E8.5632
G1 X138.056 Y127.265 E8.59571
G1 X137.767 Y127.884 E8.62752
G1 X137.341 Y128.701 E8.67043
G1 X137.03 Y129.207 E8.69808
G1 X136.53 Y129.968 E8.74048
G1 X136.097 Y130.605 E8.77635
G1 X135.69 Y131.19 E8.80953
G1 X135.132 Y131.922 E8.85239
G1 X134.783 Y132.321 E8.87707
G1 X134.197 Y132.954 E8.91724
G1 X133.629 Y133.547 E8.95547
G1 X133.122 Y134.063 E8.98916
G1 X132.449 Y134.691 E9.03202
G1 X131.993 Y135.059 E9.05931
G1 X131.199 Y135.664 E9.10579
G1 X130.651 Y136.066 E9.13744
G1 X130.112 Y136.453 E9.16833
G1 X129.342 Y136.957 E9.21118
G1 X128.846 Y137.234 E9.23764
G1 X127.988 Y137.681 E9.28269
G1 X127.305 Y138.022 E9.31823
G1 X126.633 Y138.348 E9.35301
G1 X125.788 Y138.714 E9.39589
G1 X125.215 Y138.914 E9.42415
G1 X124.452 Y139.155 E9.46141
G1 X123.714 Y139.378 E9.49731
G1 X122.984 Y139.59 E9.53271
G1 X122.09 Y139.809 E9.57556
G1 X121.633 Y139.889 E9.59717
G1 X120.961 Y139.99 E9.62881
G1 X120.091 Y140.106 E9.66968
G1 X119.342 Y140.195 E9.7048
G1 X118.424 Y140.264 E9.74767
G1 X117.877 Y140.267 E9.77314
G1 X117.063 Y140.249 E9.81105
G1 X116.085 Y140.213 E9.85662
G1 X115.388 Y140.178 E9.88912
G1 X114.472 Y140.092 E9.93196
G1 X113.931 Y140.003 E9.95749
G1 X113.596 Y139.939 E9.97337
G1 X113.267 Y139.87 E9.98902
G1 X112.152 Y139.619 E10.04224
G1 X111.47 Y139.455 E10.0749
G1 X110.256 Y139.085 E10.134
G1 X109.231 Y138.7 E10.18498
G1 X108.619 Y138.453 E10.21571
G1 X107.942 Y138.17 E10.24988
G1 X107.109 Y137.778 E10.29275
G1 X106.587 Y137.486 E10.3206
G1 X105.831 Y137.032 E10.36166
G1 X105.21 Y136.648 E10.39566
G1 X104.589 Y136.254 E10.42991
G1 X103.834 Y135.727 E10.47278
G1 X103.379 Y135.359 E10.50003
G1 X102.752 Y134.822 E10.53847
G1 X102.087 Y134.234 E10.5798
G1 X101.596 Y133.789 E10.61066
G1 X100.941 Y133.142 E10.65353
G1 X100.56 Y132.708 E10.68042
G1 X99.939 Y131.958 E10.72576
G1 X99.51 Y131.424 E10.75766
G1 X99.059 Y130.847 E10.79176
G1 X98.525 Y130.097 E10.83463
G1 X98.229 Y129.615 E10.86097
G1 X97.86 Y128.973 E10.89545
G1 X97.424 Y128.193 E10.93706
G1 X97.117 Y127.632 E10.96683
G1 X96.711 Y126.806 E11.00969
G1 X96.487 Y126.254 E11.03743
G1 X96.11 Y125.24 E11.0878
G1 X95.886 Y124.602 E11.11929
G1 X95.673 Y123.969 E11.15039
G1 X95.417 Y123.084 E11.19329
G1 X95.292 Y122.497 E11.22123
G1 X95.086 Y121.36 E11.27504
G1 X94.98 Y120.704 E11.30598
G1 X94.885 Y120.065 E11.33606
G1 X94.788 Y119.128 E11.37993
G1 X94.733 Y118.11 E11.4274
G1 X94.724 Y117.793 E11.44217
G1 X94.725 Y117.159 E11.47169
G1 X94.746 Y116.49 E11.50285
G1 X94.781 Y115.849 E11.53275
G1 X94.884 Y114.886 E11.57784
G1 X95.087 Y113.583 E11.63925
G1 X95.172 Y113.104 E11.6619
G1 X95.29 Y112.482 E11.69138
G1 X95.5 Y111.586 E11.73423
G1 X95.636 Y111.143 E11.75581
G1 X95.891 Y110.375 E11.79349
G1 X96.238 Y109.392 E11.84203
G1 X96.451 Y108.815 E11.87067
G1 X96.807 Y107.966 E11.91354
G1 X97.059 Y107.465 E11.93965
G1 X97.506 Y106.638 E11.98343
G1 X97.871 Y105.985 E12.01826
G1 X98.225 Y105.373 E12.05118
G1 X98.721 Y104.596 E12.09411
G1 X99.055 Y104.145 E12.12024
G1 X99.59 Y103.464 E12.16056
G1 X100.065 Y102.877 E12.19572
G1 X100.527 Y102.319 E12.22946
G1 X101.145 Y101.636 E12.27235
G1 X101.602 Y101.199 E12.30179
G1 X102.359 Y100.52 E12.34914
G1 X102.879 Y100.068 E12.38122
G1 X103.41 Y99.618 E12.41363
G1 X104.383 Y98.885 E12.47036
G1 X105.088 Y98.43 E12.50943
G1 X105.91 Y97.921 E12.55445
G1 X106.514 Y97.558 E12.58726
G1 X107.552 Y97.009 E12.64194
G1 X107.735 Y96.925 E12.65132
G1 X108.194 Y96.727 E12.67459
G1 X109.391 Y96.247 E12.73464
G1 X110.054 Y95.991 E12.76774
G1 X111.37 Y95.578 E12.83196
G1 X112.539 Y95.298 E12.88794
G1 X113.165 Y95.164 E12.91775
G1 X113.719 Y95.053 E12.94406
G1 X114.651 Y94.909 E12.98797
G1 X114.871 Y94.885 E12.99827
G1 X115.328 Y94.845 E13.01963
G1 X116.351 Y94.778 E13.06737
G1 X116.699 Y94.761 E13.0836
G1 X117.374 Y94.739 E13.11504
G1 X118.039 Y94.738 E13.14601
G1 X118.536 Y94.753 E13.16916
G1 X119.277 Y94.797 E13.20373
G0 F6000 X119.306 Y94.398
G1 F1200 X119.805 Y94.446 E13.22707
G1 X120.824 Y94.57 E13.27487
G1 X121.531 Y94.67 E13.30812
G1 X122.453 Y94.841 E13.35178
G1 X123.008 Y94.984 E13.37847
G1 X123.831 Y95.22 E13.41833
G1 X124.77 Y95.506 E13.46404
G1 X125.335 Y95.686 E13.49165
G1 X126.216 Y96.009 E13.53535
G1 X126.828 Y96.285 E13.56661
G1 X127.97 Y96.846 E13.62585
G1 X128.369 Y97.052 E13.64676
G1 X128.981 Y97.377 E13.67903
G1 X130.005 Y97.994 E13.7347
G1 X130.455 Y98.305 E13.76017
G1 X130.77 Y98.533 E13.77828
G1 X131.637 Y99.171 E13.8284
G1 X132.194 Y99.593 E13.86094
G1 X132.916 Y100.191 E13.90459
G1 X133.389 Y100.643 E13.93506
G1 X134.176 Y101.445 E13.98738
G1 X134.573 Y101.865 E14.01429
G1 X135.012 Y102.34 E14.04441
G1 X135.79 Y103.281 E14.10126
G1 X136.089 Y103.694 E14.125
G1 X136.36 Y104.084 E14.14712
G1 X136.953 Y104.958 E14.1963
G1 X137.326 Y105.523 E14.22782
G1 X137.809 Y106.327 E14.27149
G1 X138.123 Y106.951 E14.30402
G1 X138.736 Y108.278 E14.37209
G1 X139.053 Y109.005 E14.40902
G1 X139.391 Y109.88 E14.4527
G1 X139.583 Y110.509 E14.48332
G1 X139.837 Y111.445 E14.52848
G1 X140.016 Y112.15 E14.56235
G1 X140.195 Y112.892 E14.59789
G1 X140.376 Y113.813 E14.6416
G1 X140.441 Y114.317 E14.66526
G1 X140.516 Y115.041 E14.69915
G1 X140.599 Y116.017 E14.74476
G1 X140.649 Y116.698 E14.77656
G1 X140.678 Y117.635 E14.82021
G1 X140.654 Y118.242 E14.8485
G1 X140.597 Y119.081 E14.88765
G1 X140.538 Y119.8 E14.92124
G1 X140.465 Y120.552 E14.95643
G1 X140.334 Y121.481 E15.00011
G1 X140.208 Y122.073 E15.0283
G1 X140.011 Y122.885 E15.0672
G1 X139.781 Y123.775 E15.11001
G1 X139.594 Y124.464 E15.14325
G1 X139.31 Y125.358 E15.18693
G1 X139.076 Y125.944 E15.21631
G1 X138.708 Y126.794 E15.25944
G1 X138.418 Y127.435 E15.2922
G1 X138.129 Y128.054 E15.32401
G1 X137.697 Y128.886 E15.36766
G1 X137.364 Y129.426 E15.3972
G1 X136.861 Y130.193 E15.43991
G1 X136.426 Y130.833 E15.47595
G1 X136.019 Y131.418 E15.50913
G1 X135.451 Y132.165 E15.55283
G1 X135.077 Y132.592 E15.57926
G1 X134.486 Y133.23 E15.61975
G1 X133.914 Y133.827 E15.65825
G1 X133.407 Y134.343 E15.69194
G1 X132.722 Y134.984 E15.73562
G1 X132.236 Y135.377 E15.76472
G1 X131.436 Y135.986 E15.81154
G1 X130.885 Y136.391 E15.84338
G1 X130.346 Y136.778 E15.87428
G1 X129.561 Y137.292 E15.91797
G1 X129.031 Y137.589 E15.94626
G1 X128.167 Y138.039 E15.99162
G1 X127.479 Y138.382 E16.02742
G1 X126.807 Y138.708 E16.0622
G1 X125.947 Y139.081 E16.10585
G1 X125.336 Y139.295 E16.13599
G1 X124.569 Y139.538 E16.17346
G1 X123.826 Y139.763 E16.20961
G1 X123.096 Y139.975 E16.245
G1 X122.185 Y140.197 E16.28866
G1 X121.694 Y140.284 E16.31188
G1 X121.014 Y140.386 E16.3439
G1 X120.138 Y140.503 E16.38505
G1 X119.389 Y140.592 E16.42018
G1 X118.454 Y140.663 E16.46384
G1 X117.869 Y140.667 E16.49108
G1 X117.048 Y140.649 E16.52932
G1 X116.065 Y140.612 E16.57512
G1 X115.368 Y140.577 E16.60762
G1 X114.434 Y140.49 E16.6513
G1 X113.856 Y140.396 E16.67857
G1 X113.521 Y140.332 E16.69445
G1 X113.18 Y140.261 E16.71067
G1 X112.058 Y140.008 E16.76422
G1 X111.376 Y139.844 E16.79688
G1 X110.117 Y139.46 E16.85817
G1 X109.082 Y139.071 E16.90966
G1 X108.465 Y138.822 E16.94064
G1 X107.788 Y138.539 E16.97481
G1 X106.938 Y138.141 E17.01851
G1 X106.382 Y137.829 E17.0482
G1 X105.621 Y137.372 E17.08953
G1 X104.996 Y136.985 E17.12376
G1 X104.375 Y136.591 E17.15801
G1 X103.605 Y136.056 E17.20167
G1 X103.119 Y135.663 E17.23077
G1 X102.488 Y135.122 E17.26947
G1 X101.818 Y134.531 E17.31108
G1 X101.327 Y134.086 E17.34193
G1 X100.66 Y133.427 E17.38559
G1 X100.252 Y132.964 E17.41433
G1 X99.627 Y132.209 E17.45997
G1 X99.195 Y131.67 E17.49213
G1 X98.744 Y131.093 E17.52623
G1 X98.199 Y130.33 E17.56989
G1 X97.882 Y129.814 E17.59809
G1 X97.511 Y129.168 E17.63278
G1 X97.073 Y128.385 E17.67456
G1 X96.766 Y127.824 E17.70433
G1 X96.352 Y126.982 E17.74802
G1 X96.112 Y126.394 E17.7776
G1 X95.732 Y125.373 E17.82833
G1 X95.506 Y124.729 E17.86011
G1 X95.293 Y124.096 E17.8912
G1 X95.032 Y123.195 E17.93488
G1 X94.899 Y122.569 E17.96468
G1 X94.691 Y121.424 E18.01887
G1 X94.585 Y120.763 E18.05004
G1 X94.49 Y120.124 E18.08013
G1 X94.389 Y119.152 E18.12563
G1 X94.333 Y118.121 E18.17371
G1 X94.324 Y117.804 E18.18848
G1 X94.325 Y117.147 E18.21907
G1 X94.346 Y116.478 E18.25023
G1 X94.382 Y115.824 E18.28073
G1 X94.489 Y114.825 E18.32752
G1 X94.693 Y113.514 E18.3893
G1 X94.779 Y113.03 E18.41219
G1 X94.897 Y112.408 E18.44167
