;FLAVOR:Marlin
;TIME:5332
;Filament used: 4.08354m
;Layer height: 0.28
;MINX:95.084
;MINY:99.644
;MINZ:0.28
;MAXX:139.907
;MAXY:144.457
;MAXZ:72.8
;Generated with Cura_SteamEngine 4.6.1
M140 S60
M105
M190 S60
M104 S215
M105
M109 S215
M82 ;absolute extrusion mode
; Ender 3 Custom Start G-code
G92 E0 ; Reset Extruder
G28 ; Home all axes
G1 Z2.0 F3000 ; Move Z Axis up little to prevent scratching of Heat Bed
G1 X0.1 Y20 Z0.3 F5000.0 ; Move to start position
G1 X0.1 Y200.0 Z0.3 F1500.0 E15 ; Draw the first line
G1 X0.4 Y200.0 Z0.3 F5000.0 ; Move to side a little
G1 X0.4 Y20 Z0.3 F1500.0 E30 ; Draw the second line
G92 E0 ; Reset Extruder
G1 Z2.0 F3000 ; Move Z Axis up little to prevent scratching of Heat Bed
G1 X5 Y20 Z0.3 F5000.0 ; Move over to prevent blob squish
G92 E0
G92 E0
G1 F1500 E-6.5
;LAYER_COUNT:260
;LAYER:0
M107
G0 F6000 X118.732 Y100.491 Z0.28
;TYPE:SKIRT
G1 F1500 E0
G1 F1200 X119.39 Y100.526 E0.03068
G1 X120.419 Y100.634 E0.07886
G1 X120.65 Y100.67 E0.08975
G1 X121.355 Y100.8 E0.12313
G1 X122.187 Y100.97 E0.16267
G1 X122.833 Y101.111 E0.19346
G1 X123.884 Y101.399 E0.2442
G1 X124.356 Y101.561 E0.26744
G1 X124.733 Y101.7 E0.28615
G1 X125.502 Y101.992 E0.32445
G1 X126.147 Y102.248 E0.35676
G1 X127.122 Y102.696 E0.40673
G1 X127.595 Y102.949 E0.4317
G1 X127.895 Y103.119 E0.44776
G1 X128.612 Y103.534 E0.48634
G1 X129.185 Y103.875 E0.51738
G1 X130.082 Y104.475 E0.56764
G1 X130.261 Y104.609 E0.57805
G1 X130.534 Y104.82 E0.59411
G1 X131.425 Y105.546 E0.64763
G1 X131.951 Y105.987 E0.67959
G1 X132.745 Y106.728 E0.73016
G1 X132.901 Y106.89 E0.74064
G1 X133.169 Y107.179 E0.75899
G1 X133.903 Y108.005 E0.81044
G1 X134.356 Y108.532 E0.8428
G1 X135.015 Y109.385 E0.89299
G1 X135.131 Y109.553 E0.9025
G1 X135.336 Y109.862 E0.91977
G1 X135.93 Y110.796 E0.97131
G1 X136.3 Y111.399 E1.00425
G1 X136.849 Y112.421 E1.05827
G1 X137.083 Y112.934 E1.08453
G1 X137.509 Y113.929 E1.13493
G1 X137.757 Y114.532 E1.16529
G1 X138.13 Y115.604 E1.21814
G1 X138.344 Y116.397 E1.25638
G1 X138.545 Y117.212 E1.29547
G1 X138.705 Y117.901 E1.32841
G1 X138.896 Y118.991 E1.37994
G1 X138.953 Y119.504 E1.40397
G1 X138.982 Y119.825 E1.41898
G1 X139.049 Y120.652 E1.45761
G1 X139.096 Y121.345 E1.48996
G1 X139.108 Y122.516 E1.54449
G1 X139.077 Y123.071 E1.57037
G1 X138.993 Y124.147 E1.62062
G1 X138.931 Y124.811 E1.65168
G1 X138.77 Y125.9 E1.70294
G1 X138.727 Y126.111 E1.71296
G1 X138.576 Y126.77 E1.74445
G1 X138.386 Y127.536 E1.78119
G1 X138.207 Y128.225 E1.81434
G1 X137.858 Y129.315 E1.86764
G1 X137.536 Y130.115 E1.90779
G1 X137.233 Y130.823 E1.94365
G1 X136.946 Y131.472 E1.97669
G1 X136.447 Y132.452 E2.0279
G1 X136.182 Y132.902 E2.05222
G1 X136.007 Y133.185 E2.06771
G1 X135.561 Y133.889 E2.10652
G1 X135.181 Y134.472 E2.13892
G1 X134.508 Y135.388 E2.19185
G1 X134.2 Y135.757 E2.21423
G1 X133.941 Y136.055 E2.23262
G1 X133.419 Y136.643 E2.26923
G1 X132.967 Y137.138 E2.30044
G1 X132.263 Y137.837 E2.34664
G1 X132.081 Y138.001 E2.35804
G1 X131.783 Y138.26 E2.37643
G1 X131.493 Y138.501 E2.39399
G1 X130.854 Y139.022 E2.43238
G1 X130.363 Y139.413 E2.4616
G1 X129.424 Y140.078 E2.51518
G1 X129.048 Y140.31 E2.53576
G1 X128.626 Y140.561 E2.55862
G1 X127.969 Y140.938 E2.59389
G1 X127.38 Y141.267 E2.62531
G1 X126.379 Y141.757 E2.6772
G1 X126.178 Y141.842 E2.68736
G1 X125.849 Y141.974 E2.70387
G1 X124.846 Y142.356 E2.75385
G1 X124.191 Y142.595 E2.78631
G1 X123.123 Y142.92 E2.83829
G1 X122.919 Y142.97 E2.84807
G1 X122.568 Y143.049 E2.86483
G1 X121.459 Y143.279 E2.91757
G1 X120.838 Y143.398 E2.94701
G1 X119.737 Y143.547 E2.99874
G1 X119.439 Y143.571 E3.01266
G1 X119.066 Y143.594 E3.03007
G1 X118.026 Y143.638 E3.07854
G1 X117.321 Y143.657 E3.11138
G1 X116.008 Y143.608 E3.17256
G1 X115.232 Y143.527 E3.20889
G1 X114.618 Y143.451 E3.2377
G1 X113.857 Y143.348 E3.27345
G1 X112.762 Y143.138 E3.32537
G1 X112.28 Y143.015 E3.34853
G1 X111.925 Y142.916 E3.3657
G1 X111.189 Y142.702 E3.40139
G1 X110.503 Y142.494 E3.43476
G1 X109.266 Y142.029 E3.4963
G1 X108.582 Y141.718 E3.53129
G1 X107.981 Y141.432 E3.56228
G1 X107.299 Y141.097 E3.59766
G1 X106.309 Y140.54 E3.65055
G1 X105.89 Y140.269 E3.67379
G1 X105.61 Y140.08 E3.68952
G1 X104.911 Y139.597 E3.72908
G1 X104.395 Y139.231 E3.75854
G1 X103.404 Y138.431 E3.81785
G1 X102.857 Y137.925 E3.85254
G1 X102.313 Y137.403 E3.88765
G1 X101.788 Y136.884 E3.92202
G1 X100.917 Y135.905 E3.98304
G1 X100.462 Y135.319 E4.01759
G1 X100.049 Y134.768 E4.04965
G1 X99.614 Y134.172 E4.08401
G1 X98.997 Y133.22 E4.13683
G1 X98.774 Y132.824 E4.158
G1 X98.568 Y132.44 E4.17829
G1 X98.22 Y131.774 E4.21328
G1 X97.908 Y131.16 E4.24535
G1 X97.454 Y130.13 E4.29776
G1 X97.369 Y129.904 E4.309
G1 X97.249 Y129.568 E4.32562
G1 X96.902 Y128.534 E4.3764
G1 X96.712 Y127.941 E4.4054
G1 X96.453 Y126.969 E4.45224
G1 X96.403 Y126.736 E4.46333
G1 X96.324 Y126.325 E4.48282
G1 X96.138 Y125.199 E4.53596
G1 X96.039 Y124.533 E4.56732
G1 X95.946 Y123.646 E4.60885
G1 X95.909 Y123.031 E4.63753
G1 X95.895 Y122.691 E4.65338
G1 X95.885 Y122.318 E4.67075
G1 X95.884 Y121.817 E4.69408
G1 X95.904 Y121.103 E4.72734
G1 X95.927 Y120.668 E4.74763
G1 X96.02 Y119.73 E4.79152
G1 X96.196 Y118.527 E4.84813
G1 X96.246 Y118.224 E4.86243
G1 X96.363 Y117.564 E4.89364
G1 X96.605 Y116.518 E4.94364
G1 X96.759 Y116.001 E4.96875
G1 X96.901 Y115.564 E4.99015
G1 X97.13 Y114.881 E5.02369
G1 X97.356 Y114.232 E5.05569
G1 X97.803 Y113.152 E5.11012
G1 X98.009 Y112.733 E5.13186
G1 X98.529 Y111.734 E5.1843
G1 X98.88 Y111.087 E5.21858
G1 X99.573 Y109.984 E5.27923
G1 X100.004 Y109.391 E5.31337
G1 X100.448 Y108.801 E5.34775
G1 X100.861 Y108.265 E5.37926
G1 X101.643 Y107.365 E5.43478
G1 X102.253 Y106.758 E5.47485
G1 X102.76 Y106.272 E5.50755
G1 X103.281 Y105.783 E5.54082
G1 X104.141 Y105.06 E5.59314
G1 X104.325 Y104.922 E5.60385
G1 X104.62 Y104.709 E5.62079
G1 X105.453 Y104.131 E5.668
G1 X106.103 Y103.695 E5.70445
G1 X107.082 Y103.115 E5.75743
G1 X107.286 Y103.009 E5.76814
G1 X107.578 Y102.863 E5.78334
G1 X108.513 Y102.416 E5.8316
G1 X109.183 Y102.108 E5.86593
G1 X110.438 Y101.629 E5.92848
G1 X111.126 Y101.418 E5.96199
G1 X111.793 Y101.225 E5.99433
G1 X112.494 Y101.032 E6.02818
G1 X113.585 Y100.795 E6.08017
G1 X114.384 Y100.679 E6.11776
G1 X115.304 Y100.568 E6.16091
G1 X115.901 Y100.504 E6.18887
G1 X116.881 Y100.447 E6.23458
G1 X117.166 Y100.444 E6.24785
G1 X117.651 Y100.45 E6.27044
G1 X118.732 Y100.491 E6.32081
G0 F6000 X118.753 Y100.092
G1 F1200 X119.411 Y100.127 E6.35149
G1 X120.48 Y100.238 E6.40154
G1 X120.711 Y100.274 E6.41242
G1 X121.435 Y100.408 E6.44671
G1 X122.272 Y100.579 E6.48649
G1 X122.918 Y100.72 E6.51728
G1 X124.01 Y101.02 E6.57001
G1 X124.493 Y101.186 E6.59379
G1 X124.875 Y101.326 E6.61273
G1 X125.649 Y101.621 E6.6513
G1 X126.294 Y101.877 E6.68362
G1 X127.308 Y102.342 E6.73556
G1 X127.512 Y102.449 E6.74629
G1 X128.095 Y102.773 E6.77735
G1 X128.817 Y103.19 E6.81617
G1 X129.39 Y103.531 E6.84722
G1 X130.321 Y104.154 E6.89938
G1 X130.5 Y104.288 E6.90979
G1 X131.063 Y104.732 E6.94318
G1 X131.682 Y105.239 E6.98044
G1 X132.208 Y105.68 E7.0124
G1 X133.033 Y106.45 E7.06495
G1 X133.189 Y106.612 E7.07542
G1 X133.468 Y106.913 E7.09453
G1 X134.206 Y107.744 E7.14628
G1 X134.659 Y108.271 E7.17864
G1 X135.344 Y109.158 E7.23082
G1 X135.46 Y109.326 E7.24033
G1 X135.673 Y109.647 E7.25827
G1 X136.271 Y110.587 E7.31015
G1 X136.641 Y111.19 E7.34309
G1 X137.212 Y112.251 E7.39919
G1 X137.317 Y112.476 E7.41076
G1 X137.451 Y112.777 E7.4261
G1 X137.879 Y113.777 E7.47675
G1 X138.127 Y114.38 E7.50711
G1 X138.514 Y115.494 E7.56202
G1 X138.733 Y116.301 E7.60096
G1 X138.934 Y117.121 E7.64027
G1 X139.094 Y117.81 E7.67321
G1 X139.293 Y118.943 E7.72677
G1 X139.352 Y119.468 E7.75137
G1 X139.448 Y120.625 E7.80543
G1 X139.495 Y121.318 E7.83777
G1 X139.507 Y122.535 E7.89445
G1 X139.476 Y123.102 E7.92089
G1 X139.391 Y124.184 E7.97142
G1 X139.329 Y124.848 E8.00248
G1 X139.162 Y125.98 E8.05576
G1 X139.119 Y126.191 E8.06579
G1 X138.964 Y126.866 E8.09804
G1 X138.773 Y127.636 E8.13498
G1 X138.594 Y128.325 E8.16812
G1 X138.231 Y129.458 E8.22352
G1 X138.055 Y129.908 E8.24602
G1 X137.904 Y130.271 E8.26433
G1 X137.598 Y130.985 E8.3005
G1 X137.311 Y131.634 E8.33354
G1 X136.794 Y132.652 E8.38671
G1 X136.345 Y133.399 E8.42729
G1 X135.896 Y134.107 E8.46633
G1 X135.516 Y134.69 E8.49873
G1 X134.817 Y135.642 E8.55373
G1 X134.503 Y136.019 E8.57658
G1 X133.715 Y136.913 E8.63207
G1 X133.263 Y137.408 E8.66328
G1 X132.531 Y138.135 E8.71132
G1 X132.349 Y138.299 E8.72273
G1 X132.039 Y138.567 E8.74181
G1 X131.746 Y138.811 E8.75956
G1 X131.103 Y139.335 E8.79819
G1 X130.612 Y139.726 E8.82741
G1 X129.636 Y140.417 E8.8831
G1 X129.253 Y140.654 E8.90407
G1 X128.825 Y140.908 E8.92724
G1 X128.164 Y141.287 E8.96272
G1 X127.575 Y141.616 E8.99414
G1 X126.535 Y142.125 E9.04805
G1 X126.334 Y142.21 E9.05822
G1 X125.992 Y142.348 E9.07539
G1 X124.983 Y142.732 E9.12566
G1 X124.328 Y142.971 E9.15813
G1 X123.218 Y143.308 E9.21214
G1 X123.014 Y143.358 E9.22192
G1 X122.649 Y143.441 E9.23935
G1 X121.534 Y143.672 E9.29237
G1 X120.913 Y143.791 E9.32182
G1 X119.769 Y143.946 E9.37557
G1 X119.471 Y143.97 E9.38949
G1 X119.083 Y143.994 E9.40759
G1 X118.037 Y144.038 E9.45634
G1 X117.332 Y144.057 E9.48918
G1 X115.968 Y144.006 E9.55274
G1 X115.184 Y143.924 E9.58945
G1 X114.564 Y143.847 E9.61854
G1 X113.803 Y143.744 E9.6543
G1 X112.665 Y143.526 E9.70825
G1 X112.173 Y143.4 E9.7319
G1 X111.814 Y143.3 E9.74925
G1 X111.073 Y143.085 E9.78518
G1 X110.387 Y142.877 E9.81856
G1 X109.101 Y142.394 E9.88252
G1 X108.41 Y142.08 E9.91787
G1 X107.805 Y141.791 E9.94909
G1 X107.123 Y141.456 E9.98447
G1 X106.094 Y140.877 E10.03945
G1 X105.384 Y140.409 E10.07904
G1 X104.679 Y139.923 E10.11892
G1 X104.163 Y139.557 E10.14837
G1 X103.134 Y138.726 E10.20996
G1 X102.58 Y138.214 E10.24509
G1 X102.032 Y137.687 E10.28049
G1 X101.507 Y137.168 E10.31486
G1 X100.602 Y136.151 E10.37826
G1 X100.143 Y135.56 E10.4131
G1 X99.726 Y135.004 E10.44546
G1 X99.291 Y134.408 E10.47982
G1 X98.65 Y133.418 E10.53474
G1 X98.422 Y133.013 E10.55638
G1 X98.214 Y132.626 E10.57684
G1 X97.863 Y131.955 E10.6121
G1 X97.551 Y131.341 E10.64417
G1 X97.08 Y130.271 E10.69861
G1 X96.995 Y130.045 E10.70985
G1 X96.87 Y129.695 E10.72715
G1 X96.521 Y128.656 E10.77819
G1 X96.331 Y128.063 E10.80719
G1 X96.062 Y127.053 E10.85586
G1 X96.012 Y126.82 E10.86695
G1 X95.929 Y126.393 E10.88721
G1 X95.742 Y125.258 E10.94077
G1 X95.643 Y124.592 E10.97212
G1 X95.547 Y123.67 E11.01529
G1 X95.51 Y123.055 E11.04398
G1 X95.495 Y122.702 E11.06043
G1 X95.485 Y122.329 E11.0778
G1 X95.484 Y121.808 E11.10206
G1 X95.505 Y121.082 E11.13588
G1 X95.528 Y120.647 E11.15617
G1 X95.625 Y119.673 E11.20174
G1 X95.852 Y118.154 E11.27326
G1 X95.969 Y117.494 E11.30447
G1 X96.221 Y116.407 E11.35643
G1 X96.283 Y116.192 E11.36685
G1 X96.379 Y115.878 E11.38214
G1 X96.522 Y115.437 E11.40372
G1 X96.753 Y114.749 E11.43752
G1 X96.979 Y114.1 E11.46952
G1 X97.443 Y112.978 E11.52605
G1 X97.653 Y112.551 E11.54821
G1 X97.845 Y112.175 E11.56787
G1 X98.178 Y111.543 E11.60113
G1 X98.529 Y110.896 E11.63541
G1 X99.249 Y109.75 E11.69843
G1 X99.684 Y109.15 E11.73294
G1 X100.131 Y108.557 E11.76752
G1 X100.544 Y108.021 E11.79902
G1 X101.357 Y107.085 E11.85675
G1 X101.976 Y106.469 E11.89742
G1 X102.486 Y105.98 E11.93032
G1 X103.007 Y105.491 E11.96359
G1 X103.901 Y104.74 E12.01796
G1 X104.085 Y104.602 E12.02867
G1 X104.392 Y104.38 E12.04631
G1 X105.23 Y103.799 E12.09379
G1 X105.88 Y103.363 E12.13024
G1 X106.898 Y102.76 E12.18533
G1 X107.405 Y102.502 E12.21182
G1 X108.346 Y102.053 E12.26037
G1 X109.016 Y101.745 E12.2947
G1 X109.868 Y101.397 E12.33756
G1 X110.32 Y101.246 E12.35975
G1 X111.014 Y101.034 E12.39354
G1 X111.687 Y100.839 E12.42617
G1 X112.388 Y100.646 E12.46002
G1 X113.522 Y100.4 E12.51405
G1 X114.336 Y100.282 E12.55235
G1 X115.261 Y100.17 E12.59574
G1 X115.858 Y100.106 E12.6237
G1 X116.876 Y100.047 E12.67118
G1 X117.161 Y100.044 E12.68445
G1 X117.666 Y100.05 E12.70797
G1 X118.753 Y100.092 E12.75862
G0 F6000 X118.774 Y99.693
G1 F1200 X119.432 Y99.728 E12.7893
G1 X120.542 Y99.843 E12.84127
G1 X120.773 Y99.879 E12.85215
G1 X121.515 Y100.016 E12.88729
G1 X122.358 Y100.188 E12.92735
G1 X123.004 Y100.329 E12.95814
G1 X124.137 Y100.64 E13.01285
G1 X124.332 Y100.705 E13.02242
G1 X125.016 Y100.952 E13.05628
G1 X125.797 Y101.249 E13.09519
G1 X126.442 Y101.505 E13.1275
G1 X127.493 Y101.988 E13.18136
G1 X127.987 Y102.252 E13.20744
G1 X128.295 Y102.426 E13.22391
G1 X129.021 Y102.846 E13.26297
G1 X129.594 Y103.187 E13.29402
G1 X130.561 Y103.834 E13.34819
G1 X130.74 Y103.968 E13.35861
G1 X131.316 Y104.423 E13.39279
G1 X131.939 Y104.933 E13.43028
G1 X132.465 Y105.374 E13.46224
G1 X133.322 Y106.173 E13.5168
G1 X133.478 Y106.335 E13.52727
G1 X133.766 Y106.647 E13.54704
G1 X134.51 Y107.484 E13.59919
G1 X134.963 Y108.011 E13.63154
G1 X135.673 Y108.931 E13.68566
G1 X135.789 Y109.099 E13.69516
G1 X136.01 Y109.432 E13.71377
G1 X136.612 Y110.378 E13.76599
G1 X136.982 Y110.981 E13.79893
G1 X137.574 Y112.082 E13.85714
G1 X137.679 Y112.307 E13.8687
G1 X137.819 Y112.619 E13.88462
G1 X138.249 Y113.625 E13.93557
G1 X138.497 Y114.228 E13.96593
G1 X138.899 Y115.384 E14.02292
G1 X139.121 Y116.205 E14.06252
G1 X139.324 Y117.031 E14.10212
G1 X139.484 Y117.72 E14.13506
G1 X139.69 Y118.895 E14.19061
G1 X139.75 Y119.432 E14.21577
G1 X139.847 Y120.598 E14.27025
G1 X139.894 Y121.291 E14.30259
G1 X139.907 Y122.554 E14.36141
G1 X139.875 Y123.133 E14.38841
G1 X139.789 Y124.222 E14.43928
G1 X139.727 Y124.886 E14.47033
G1 X139.553 Y126.06 E14.52559
G1 X139.439 Y126.596 E14.55111
G1 X139.161 Y127.737 E14.60579
G1 X138.982 Y128.426 E14.63894
G1 X138.604 Y129.602 E14.69646
G1 X138.425 Y130.06 E14.71936
G1 X138.272 Y130.428 E14.73791
G1 X137.964 Y131.147 E14.77434
G1 X137.677 Y131.796 E14.80738
G1 X137.14 Y132.853 E14.86259
G1 X137.029 Y133.045 E14.87291
G1 X136.683 Y133.613 E14.90388
G1 X136.231 Y134.326 E14.94319
G1 X135.851 Y134.909 E14.9756
G1 X135.126 Y135.896 E15.03262
G1 X134.805 Y136.281 E15.05596
G1 X134.54 Y136.586 E15.07478
G1 X134.01 Y137.182 E15.11191
G1 X133.558 Y137.677 E15.14313
G1 X132.799 Y138.432 E15.19298
G1 X132.617 Y138.596 E15.20438
G1 X131.999 Y139.12 E15.24211
G1 X131.352 Y139.648 E15.281
G1 X130.861 Y140.039 E15.31023
G1 X129.848 Y140.756 E15.36801
G1 X129.458 Y140.998 E15.38939
G1 X129.025 Y141.254 E15.41281
G1 X128.359 Y141.636 E15.44856
G1 X127.77 Y141.965 E15.47998
G1 X126.69 Y142.493 E15.53595
G1 X126.489 Y142.578 E15.54611
G1 X126.134 Y142.721 E15.56394
G1 X125.121 Y143.108 E15.61443
G1 X124.466 Y143.347 E15.6469
G1 X123.314 Y143.697 E15.70296
G1 X123.11 Y143.747 E15.71274
G1 X122.731 Y143.833 E15.73084
G1 X121.609 Y144.064 E15.78418
G1 X120.988 Y144.183 E15.81362
G1 X119.801 Y144.344 E15.8694
G1 X119.503 Y144.368 E15.88332
G1 X119.101 Y144.393 E15.90207
G1 X118.047 Y144.438 E15.9512
G1 X117.342 Y144.457 E15.98404
G1 X116.405 Y144.442 E16.02767
G1 X115.927 Y144.404 E16.05
G1 X115.135 Y144.321 E16.08708
G1 X114.511 Y144.244 E16.11636
G1 X113.75 Y144.141 E16.15212
G1 X112.568 Y143.914 E16.20816
G1 X112.067 Y143.786 E16.23224
G1 X110.957 Y143.468 E16.286
G1 X110.271 Y143.26 E16.31938
G1 X109.386 Y142.95 E16.36305
G1 X108.937 Y142.759 E16.38577
G1 X108.238 Y142.441 E16.42153
G1 X107.628 Y142.15 E16.453
G1 X106.946 Y141.815 E16.48838
G1 X105.878 Y141.215 E16.54542
G1 X105.157 Y140.739 E16.58565
G1 X104.448 Y140.249 E16.62578
G1 X103.932 Y139.883 E16.65524
G1 X102.864 Y139.021 E16.71915
G1 X102.303 Y138.503 E16.7547
G1 X101.751 Y137.972 E16.79037
G1 X101.226 Y137.453 E16.82474
G1 X100.587 Y136.766 E16.86843
G1 X100.287 Y136.397 E16.89057
G1 X99.823 Y135.8 E16.92578
G1 X99.403 Y135.24 E16.95838
G1 X98.968 Y134.644 E16.99273
G1 X98.302 Y133.617 E17.04973
G1 X98.07 Y133.203 E17.07183
G1 X97.86 Y132.812 E17.0925
G1 X97.506 Y132.136 E17.12803
G1 X97.194 Y131.522 E17.1601
G1 X96.705 Y130.411 E17.21662
G1 X96.62 Y130.185 E17.22786
G1 X96.491 Y129.823 E17.24576
G1 X96.141 Y128.778 E17.29707
G1 X95.951 Y128.185 E17.32607
G1 X95.671 Y127.137 E17.37658
G1 X95.621 Y126.904 E17.38768
G1 X95.535 Y126.461 E17.40869
G1 X95.347 Y125.316 E17.46272
G1 X95.248 Y124.65 E17.49407
G1 X95.148 Y123.694 E17.53883
G1 X95.111 Y123.079 E17.56752
