;FLAVOR:Marlin
;TIME:6153
;Filament used: 5.30562m
;Layer height: 0.28
;MINX:94.326
;MINY:94.332
;MINZ:0.28
;MAXX:140.678
;MAXY:140.665
;MAXZ:88.76
;Generated with Cura_SteamEngine 4.6.1
M140 S60
M105
M190 S60
M104 S215
M105
M109 S215
M82 ;absolute extrusion mode
; Ender 3 Custom Start G-code
G92 E0 ; Reset Extruder
G28 ; Home all axes
G1 Z2.0 F3000 ; Move Z Axis up little to prevent scratching of Heat Bed
G1 X0.1 Y20 Z0.3 F5000.0 ; Move to start position
G1 X0.1 Y200.0 Z0.3 F1500.0 E15 ; Draw the first line
G1 X0.4 Y200.0 Z0.3 F5000.0 ; Move to side a little
G1 X0.4 Y20 Z0.3 F1500.0 E30 ; Draw the second line
G92 E0 ; Reset Extruder
G1 Z2.0 F3000 ; Move Z Axis up little to prevent scratching of Heat Bed
G1 X5 Y20 Z0.3 F5000.0 ; Move over to prevent blob squish
G92 E0
G92 E0
G1 F1500 E-6.5
;LAYER_COUNT:317
;LAYER:0
M107
G0 F6000 X119.139 Y95.191 Z0.28
;TYPE:SKIRT
G1 F1500 E0
G1 F1200 X119.781 Y95.262 E0.03008
G1 X119.998 Y95.288 E0.04025
G1 X121.393 Y95.477 E0.1058
G1 X121.671 Y95.522 E0.11892
G1 X122.822 Y95.777 E0.17381
G1 X123.795 Y96.055 E0.22093
G1 X124.432 Y96.249 E0.25194
G1 X125.062 Y96.447 E0.28269
G1 X125.911 Y96.756 E0.32476
G1 X126.471 Y97.008 E0.35335
G1 X127.285 Y97.406 E0.39554
G1 X127.98 Y97.756 E0.43178
G1 X128.599 Y98.079 E0.46429
G1 X129.38 Y98.532 E0.50633
G1 X129.83 Y98.837 E0.53164
G1 X130.596 Y99.389 E0.57561
G1 X131.159 Y99.809 E0.60832
G1 X131.715 Y100.234 E0.6409
G1 X132.408 Y100.814 E0.68298
G1 X132.744 Y101.136 E0.70465
G1 X133.544 Y101.941 E0.7575
G1 X133.899 Y102.312 E0.78141
G1 X134.393 Y102.841 E0.81511
G1 X134.979 Y103.528 E0.85716
G1 X135.272 Y103.922 E0.88002
G1 X135.933 Y104.862 E0.93353
G1 X136.238 Y105.313 E0.95888
G1 X136.652 Y105.942 E0.99395
G1 X137.115 Y106.718 E1.03602
G1 X137.373 Y107.231 E1.06276
G1 X137.813 Y108.177 E1.11134
G1 X138.041 Y108.689 E1.13744
G1 X138.33 Y109.357 E1.17133
G1 X138.779 Y110.612 E1.2334
G1 X138.981 Y111.33 E1.26813
G1 X139.203 Y112.171 E1.30863
G1 X139.38 Y112.878 E1.34257
G1 X139.56 Y113.763 E1.38462
G1 X139.633 Y114.324 E1.41096
G1 X139.724 Y115.23 E1.45336
G1 X139.803 Y116.155 E1.49659
G1 X139.853 Y116.853 E1.52917
G1 X139.878 Y117.756 E1.57124
G1 X139.86 Y118.212 E1.59249
G1 X139.806 Y119.044 E1.63131
G1 X139.75 Y119.725 E1.66313
G1 X139.696 Y120.288 E1.68946
G1 X139.618 Y120.906 E1.71847
G1 X139.56 Y121.273 E1.73577
G1 X139.396 Y122.092 E1.77466
G1 X139.241 Y122.726 E1.80505
G1 X139.038 Y123.503 E1.84245
G1 X138.846 Y124.204 E1.87629
G1 X138.569 Y125.064 E1.91836
G1 X138.363 Y125.575 E1.94402
G1 X138.023 Y126.354 E1.9836
G1 X137.677 Y127.117 E2.02261
G1 X137.371 Y127.77 E2.05619
G1 X136.952 Y128.57 E2.09824
G1 X136.66 Y129.042 E2.12408
G1 X136.197 Y129.746 E2.16332
G1 X135.733 Y130.427 E2.20169
G1 X135.34 Y130.989 E2.23362
G1 X134.501 Y132.036 E2.2961
G1 X133.955 Y132.628 E2.3336
G1 X133.386 Y133.223 E2.37193
G1 X132.872 Y133.748 E2.40614
G1 X132.213 Y134.364 E2.44815
G1 X131.804 Y134.696 E2.47268
G1 X131.125 Y135.217 E2.51253
G1 X130.494 Y135.686 E2.54914
G1 X129.903 Y136.113 E2.58309
G1 X129.148 Y136.609 E2.62515
G1 X128.695 Y136.863 E2.64934
G1 X127.708 Y137.382 E2.70126
G1 X127.16 Y137.657 E2.72981
G1 X126.519 Y137.969 E2.76301
G1 X125.69 Y138.328 E2.80507
G1 X125.201 Y138.501 E2.82923
G1 X124.332 Y138.781 E2.87174
G1 X123.601 Y139.003 E2.90731
G1 X122.931 Y139.198 E2.93981
G1 X122.054 Y139.411 E2.98183
G1 X121.557 Y139.497 E3.00532
G1 X120.72 Y139.618 E3.04469
G1 X119.935 Y139.719 E3.08155
G1 X119.233 Y139.8 E3.11445
G1 X118.332 Y139.863 E3.15651
G1 X117.847 Y139.865 E3.17909
G1 X117.03 Y139.846 E3.21715
G1 X116.169 Y139.813 E3.25727
G1 X115.481 Y139.777 E3.28935
G1 X114.582 Y139.69 E3.33141
G1 X114.008 Y139.592 E3.35852
G1 X112.835 Y139.354 E3.41425
G1 X112.188 Y139.21 E3.44512
G1 X111.535 Y139.055 E3.47637
G1 X110.295 Y138.676 E3.53674
G1 X109.603 Y138.413 E3.57122
G1 X108.719 Y138.057 E3.61559
G1 X108.104 Y137.8 E3.64663
G1 X107.287 Y137.416 E3.68866
G1 X106.824 Y137.156 E3.71339
G1 X105.979 Y136.652 E3.7592
G1 X105.398 Y136.292 E3.79103
G1 X104.776 Y135.896 E3.82536
G1 X104.036 Y135.378 E3.86743
G1 X103.621 Y135.041 E3.89232
G1 X102.984 Y134.494 E3.93142
G1 X102.419 Y133.994 E3.96655
G1 X101.859 Y133.487 E4.00172
G1 X101.217 Y132.852 E4.04377
G1 X100.85 Y132.433 E4.0697
G1 X100.289 Y131.755 E4.11068
G1 X99.862 Y131.222 E4.14248
G1 X99.388 Y130.616 E4.17831
G1 X98.863 Y129.881 E4.22037
G1 X98.605 Y129.46 E4.24336
G1 X98.207 Y128.773 E4.28033
G1 X97.773 Y127.999 E4.32165
G1 X97.436 Y127.379 E4.35451
G1 X97.041 Y126.567 E4.39655
G1 X96.834 Y126.053 E4.42235
G1 X96.485 Y125.107 E4.46931
G1 X96.266 Y124.482 E4.50014
G1 X96.047 Y123.83 E4.53217
G1 X95.797 Y122.962 E4.57423
G1 X95.687 Y122.443 E4.59894
G1 X95.53 Y121.587 E4.63946
G1 X95.374 Y120.657 E4.68337
G1 X95.292 Y120.122 E4.70857
G1 X95.195 Y119.231 E4.75031
G1 X95.146 Y118.468 E4.78591
G1 X95.126 Y117.648 E4.8241
G1 X95.14 Y116.787 E4.8642
G1 X95.157 Y116.348 E4.88465
G1 X95.18 Y115.961 E4.90271
G1 X95.276 Y115.046 E4.94555
G1 X95.509 Y113.531 E5.01692
G1 X95.675 Y112.623 E5.0599
G1 X95.877 Y111.742 E5.10199
G1 X96.022 Y111.263 E5.12529
G1 X96.267 Y110.525 E5.1615
G1 X96.594 Y109.597 E5.20732
G1 X96.814 Y108.996 E5.23712
G1 X97.161 Y108.162 E5.27918
G1 X97.413 Y107.663 E5.30521
G1 X97.923 Y106.719 E5.35517
G1 X98.243 Y106.153 E5.38545
G1 X98.584 Y105.568 E5.41698
G1 X99.313 Y104.484 E5.47781
G1 X99.802 Y103.852 E5.51502
G1 X100.369 Y103.145 E5.55722
G1 X100.83 Y102.587 E5.59092
G1 X101.436 Y101.917 E5.63299
G1 X101.815 Y101.553 E5.65745
G1 X102.513 Y100.918 E5.70139
G1 X103.091 Y100.411 E5.73719
G1 X103.603 Y99.972 E5.7686
G1 X104.314 Y99.415 E5.81066
G1 X104.777 Y99.103 E5.83665
G1 X105.557 Y98.609 E5.87964
G1 X106.246 Y98.187 E5.91727
G1 X106.805 Y97.856 E5.94752
G1 X107.988 Y97.256 E6.00928
G1 X108.749 Y96.933 E6.04778
G1 X109.587 Y96.597 E6.08982
G1 X110.234 Y96.346 E6.12213
G1 X111.089 Y96.056 E6.16417
G1 X111.648 Y95.912 E6.19105
G1 X112.562 Y95.704 E6.2347
G1 X113.318 Y95.543 E6.27069
G1 X114.017 Y95.404 E6.30388
G1 X114.909 Y95.267 E6.3459
G1 X115.457 Y95.223 E6.3715
G1 X116.324 Y95.177 E6.41193
G1 X117.033 Y95.15 E6.44496
G1 X117.769 Y95.132 E6.47925
G1 X118.672 Y95.15 E6.5213
G1 X119.139 Y95.191 E6.54313
G0 F6000 X119.183 Y94.793
G1 F1200 X119.825 Y94.864 E6.57321
G1 X120.051 Y94.892 E6.58381
G1 X121.457 Y95.082 E6.64988
G1 X121.735 Y95.127 E6.66299
G1 X122.931 Y95.393 E6.72004
G1 X123.911 Y95.672 E6.76749
G1 X124.552 Y95.868 E6.7987
G1 X125.182 Y96.066 E6.82945
G1 X126.048 Y96.38 E6.87234
G1 X126.646 Y96.649 E6.90288
G1 X127.465 Y97.048 E6.9453
G1 X128.165 Y97.401 E6.9818
G1 X128.784 Y97.724 E7.01431
G1 X129.581 Y98.185 E7.05719
G1 X130.063 Y98.512 E7.08431
G1 X130.835 Y99.068 E7.12861
G1 X131.402 Y99.492 E7.16157
G1 X131.958 Y99.917 E7.19416
G1 X132.665 Y100.507 E7.23704
G1 X133.028 Y100.854 E7.26042
G1 X133.833 Y101.665 E7.31363
G1 X134.191 Y102.039 E7.33774
G1 X134.685 Y102.568 E7.37144
G1 X135.284 Y103.268 E7.41434
G1 X135.599 Y103.692 E7.43894
G1 X136.264 Y104.638 E7.49278
G1 X136.572 Y105.093 E7.51837
G1 X136.986 Y105.722 E7.55343
G1 X137.459 Y106.513 E7.59634
G1 X137.735 Y107.062 E7.62496
G1 X138.178 Y108.014 E7.67385
G1 X138.409 Y108.53 E7.70018
G1 X138.698 Y109.198 E7.73407
G1 X139.026 Y110.058 E7.77693
G1 X139.163 Y110.503 E7.79861
G1 X139.368 Y111.227 E7.83364
G1 X139.591 Y112.074 E7.87443
G1 X139.768 Y112.781 E7.90837
G1 X139.952 Y113.683 E7.95123
G1 X140.031 Y114.284 E7.97946
G1 X140.122 Y115.195 E8.02209
G1 X140.202 Y116.127 E8.06565
G1 X140.252 Y116.825 E8.09823
G1 X140.278 Y117.745 E8.14109
G1 X140.259 Y118.237 E8.16401
G1 X140.205 Y119.077 E8.20321
G1 X140.149 Y119.763 E8.23526
G1 X140.095 Y120.326 E8.26159
G1 X140.013 Y120.969 E8.29178
G1 X139.955 Y121.336 E8.30908
G1 X139.785 Y122.186 E8.34944
G1 X139.628 Y122.826 E8.38013
G1 X139.423 Y123.609 E8.41781
G1 X139.231 Y124.31 E8.45166
G1 X138.95 Y125.187 E8.49454
G1 X138.73 Y125.735 E8.52204
G1 X138.388 Y126.519 E8.56187
G1 X138.039 Y127.287 E8.60115
G1 X137.733 Y127.94 E8.63473
G1 X137.307 Y128.756 E8.67759
G1 X136.995 Y129.261 E8.70523
G1 X136.528 Y129.971 E8.7448
G1 X136.061 Y130.657 E8.78344
G1 X135.668 Y131.219 E8.81537
G1 X135.108 Y131.949 E8.85822
G1 X134.796 Y132.306 E8.88029
G1 X134.245 Y132.904 E8.91816
G1 X133.672 Y133.503 E8.95676
G1 X133.158 Y134.028 E8.99097
G1 X132.486 Y134.657 E9.03383
G1 X132.048 Y135.013 E9.06011
G1 X131.364 Y135.538 E9.10026
G1 X130.728 Y136.01 E9.13714
G1 X130.137 Y136.437 E9.17109
G1 X129.368 Y136.943 E9.21395
G1 X128.882 Y137.217 E9.23993
G1 X127.888 Y137.74 E9.29223
G1 X127.335 Y138.017 E9.32103
G1 X126.694 Y138.329 E9.35423
G1 X125.85 Y138.696 E9.39708
G1 X125.324 Y138.881 E9.42305
G1 X124.448 Y139.164 E9.46591
G1 X123.713 Y139.387 E9.50168
G1 X123.043 Y139.582 E9.53417
G1 X122.149 Y139.8 E9.57702
G1 X121.615 Y139.892 E9.60225
G1 X120.771 Y140.014 E9.64196
G1 X119.981 Y140.116 E9.67905
G1 X119.279 Y140.197 E9.71196
G1 X118.361 Y140.263 E9.75481
G1 X117.839 Y140.265 E9.77912
G1 X117.015 Y140.246 E9.8175
G1 X116.148 Y140.213 E9.8579
G1 X115.46 Y140.177 E9.88998
G1 X114.544 Y140.089 E9.93283
G1 X113.929 Y139.984 E9.96188
G1 X112.749 Y139.745 E10.01794
G1 X112.096 Y139.599 E10.0491
G1 X111.443 Y139.444 E10.08035
G1 X110.154 Y139.05 E10.14311
G1 X109.454 Y138.784 E10.17798
G1 X108.565 Y138.426 E10.22261
G1 X107.95 Y138.169 E10.25364
G1 X107.117 Y137.778 E10.29649
G1 X106.62 Y137.5 E10.32301
G1 X105.768 Y136.992 E10.3692
G1 X105.183 Y136.63 E10.40123
G1 X104.561 Y136.234 E10.43557
G1 X103.807 Y135.706 E10.47843
G1 X103.361 Y135.344 E10.50517
G1 X102.719 Y134.794 E10.54454
G1 X102.151 Y134.291 E10.57987
G1 X101.591 Y133.784 E10.61504
G1 X100.936 Y133.137 E10.65791
G1 X100.542 Y132.688 E10.68573
G1 X99.978 Y132.006 E10.72694
G1 X99.547 Y131.469 E10.759
G1 X99.073 Y130.863 E10.79482
G1 X98.538 Y130.114 E10.83768
G1 X98.259 Y129.661 E10.86246
G1 X97.858 Y128.969 E10.8997
G1 X97.422 Y128.19 E10.94127
G1 X97.085 Y127.57 E10.97413
G1 X96.681 Y126.743 E11.01698
G1 X96.459 Y126.192 E11.04465
G1 X96.108 Y125.24 E11.09189
G1 X95.887 Y124.609 E11.12302
G1 X95.668 Y123.957 E11.15505
G1 X95.413 Y123.072 E11.19794
G1 X95.294 Y122.516 E11.22441
G1 X95.135 Y121.654 E11.26523
G1 X94.978 Y120.718 E11.30942
G1 X94.896 Y120.183 E11.33462
G1 X94.796 Y119.256 E11.37804
G1 X94.747 Y118.493 E11.41364
G1 X94.726 Y117.642 E11.45328
G1 X94.74 Y116.781 E11.49338
G1 X94.758 Y116.324 E11.51467
G1 X94.781 Y115.937 E11.53272
G1 X94.88 Y114.986 E11.57725
G1 X95.061 Y113.785 E11.6338
G1 X95.116 Y113.459 E11.6492
G1 X95.282 Y112.551 E11.69218
G1 X95.487 Y111.653 E11.73507
G1 X95.642 Y111.137 E11.76016
G1 X95.89 Y110.393 E11.79667
G1 X96.218 Y109.459 E11.84277
G1 X96.438 Y108.858 E11.87257
G1 X96.792 Y108.008 E11.91544
G1 X97.061 Y107.474 E11.94329
G1 X97.575 Y106.523 E11.99362
G1 X97.897 Y105.952 E12.02415
G1 X98.238 Y105.367 E12.05568
G1 X98.996 Y104.24 E12.11892
G1 X99.49 Y103.602 E12.15649
G1 X100.061 Y102.891 E12.19895
G1 X100.522 Y102.333 E12.23266
G1 X101.139 Y101.649 E12.27555
G1 X101.545 Y101.258 E12.3018
G1 X102.249 Y100.617 E12.34613
G1 X102.83 Y100.107 E12.38213
G1 X103.342 Y99.668 E12.41353
G1 X104.067 Y99.1 E12.45642
G1 X104.563 Y98.765 E12.48429
G1 X105.348 Y98.268 E12.52755
G1 X106.042 Y97.843 E12.56545
G1 X106.601 Y97.512 E12.5957
G1 X107.831 Y96.888 E12.65992
G1 X108.6 Y96.562 E12.69881
G1 X109.442 Y96.224 E12.74106
G1 X110.089 Y95.973 E12.77337
G1 X110.961 Y95.677 E12.81625
G1 X111.559 Y95.522 E12.84502
G1 X112.478 Y95.313 E12.8889
G1 X113.24 Y95.151 E12.92518
G1 X113.939 Y95.012 E12.95837
G1 X114.849 Y94.871 E13.00124
G1 X115.436 Y94.823 E13.02867
G1 X116.308 Y94.777 E13.06933
G1 X117.023 Y94.75 E13.10265
G1 X117.759 Y94.732 E13.13693
G1 X118.679 Y94.75 E13.17978
G1 X119.183 Y94.793 E13.20333
G0 F6000 X119.227 Y94.396
G1 F1200 X119.869 Y94.467 E13.23341
G1 X120.103 Y94.495 E13.24438
G1 X121.521 Y94.687 E13.31101
G1 X121.799 Y94.732 E13.32412
G1 X123.04 Y95.008 E13.38332
G1 X124.028 Y95.29 E13.43116
G1 X124.672 Y95.486 E13.46251
G1 X125.302 Y95.684 E13.49326
G1 X126.184 Y96.003 E13.53693
G1 X126.821 Y96.289 E13.56945
G1 X127.645 Y96.691 E13.61214
G1 X128.35 Y97.047 E13.64891
G1 X128.969 Y97.37 E13.68142
G1 X129.781 Y97.839 E13.72509
G1 X130.296 Y98.187 E13.75403
G1 X131.074 Y98.748 E13.79869
G1 X131.645 Y99.174 E13.83187
G1 X132.201 Y99.599 E13.86445
G1 X132.921 Y100.2 E13.90812
G1 X133.311 Y100.572 E13.93322
G1 X134.122 Y101.388 E13.98679
G1 X134.484 Y101.766 E14.01116
G1 X134.978 Y102.295 E14.04487
G1 X135.588 Y103.007 E14.08852
G1 X135.926 Y103.461 E14.11488
G1 X136.595 Y104.413 E14.16906
G1 X136.906 Y104.873 E14.19491
G1 X137.32 Y105.502 E14.22998
G1 X137.802 Y106.307 E14.27367
G1 X138.097 Y106.893 E14.30422
G1 X138.543 Y107.85 E14.35338
G1 X138.776 Y108.371 E14.37996
G1 X139.065 Y109.039 E14.41385
G1 X139.4 Y109.915 E14.45752
G1 X139.548 Y110.393 E14.48082
G1 X139.755 Y111.125 E14.51624
G1 X139.979 Y111.977 E14.55726
G1 X140.156 Y112.684 E14.5912
G1 X140.344 Y113.602 E14.63483
G1 X140.429 Y114.243 E14.66494
G1 X140.521 Y115.161 E14.7079
G1 X140.601 Y116.098 E14.75169
G1 X140.651 Y116.796 E14.78427
G1 X140.678 Y117.734 E14.82797
G1 X140.658 Y118.262 E14.85257
G1 X140.604 Y119.109 E14.89209
G1 X140.547 Y119.801 E14.92442
G1 X140.493 Y120.364 E14.95076
G1 X140.408 Y121.031 E14.98207
G1 X140.35 Y121.398 E14.99937
G1 X140.173 Y122.281 E15.0413
G1 X140.015 Y122.927 E15.07227
G1 X139.809 Y123.715 E15.1102
G1 X139.617 Y124.416 E15.14404
G1 X139.331 Y125.309 E15.1877
G1 X139.097 Y125.894 E15.21704
G1 X138.752 Y126.684 E15.25718
G1 X138.402 Y127.457 E15.29669
G1 X138.096 Y128.11 E15.33027
G1 X137.662 Y128.941 E15.37393
G1 X137.329 Y129.481 E15.40347
G1 X136.859 Y130.195 E15.44327
G1 X136.389 Y130.886 E15.48219
G1 X135.996 Y131.448 E15.51412
G1 X135.426 Y132.193 E15.5578
G1 X135.09 Y132.576 E15.58152
G1 X134.534 Y133.18 E15.61975
G1 X133.958 Y133.782 E15.65854
G1 X133.444 Y134.307 E15.69276
G1 X132.76 Y134.949 E15.73644
G1 X132.292 Y135.33 E15.76454
G1 X131.603 Y135.859 E15.80499
G1 X130.962 Y136.334 E15.84214
G1 X130.371 Y136.761 E15.87609
G1 X129.588 Y137.278 E15.91978
G1 X129.069 Y137.57 E15.94751
G1 X128.068 Y138.097 E16.00018
G1 X127.51 Y138.377 E16.02925
G1 X126.869 Y138.689 E16.06245
G1 X126.009 Y139.063 E16.10612
G1 X125.448 Y139.262 E16.13383
G1 X124.565 Y139.546 E16.17702
G1 X123.825 Y139.771 E16.21304
G1 X123.155 Y139.966 E16.24553
G1 X122.244 Y140.189 E16.2892
G1 X121.673 Y140.288 E16.31619
G1 X120.823 Y140.411 E16.35618
G1 X120.027 Y140.513 E16.39355
G1 X119.325 Y140.594 E16.42645
G1 X118.389 Y140.662 E16.47015
G1 X117.83 Y140.665 E16.49618
G1 X117 Y140.646 E16.53484
G1 X116.127 Y140.612 E16.57552
G1 X115.439 Y140.576 E16.6076
G1 X114.506 Y140.487 E16.65124
G1 X113.85 Y140.376 E16.68222
G1 X112.662 Y140.136 E16.73866
G1 X112.004 Y139.989 E16.77006
G1 X111.351 Y139.834 E16.80131
G1 X110.013 Y139.425 E16.86646
G1 X109.305 Y139.155 E16.90174
G1 X108.411 Y138.795 E16.94662
G1 X107.796 Y138.538 E16.97765
G1 X106.947 Y138.14 E17.02131
G1 X106.415 Y137.844 E17.04966
G1 X105.558 Y137.333 E17.09612
G1 X104.968 Y136.967 E17.12845
G1 X104.346 Y136.571 E17.16279
G1 X103.577 Y136.034 E17.20646
G1 X103.101 Y135.648 E17.235
G1 X102.455 Y135.094 E17.27462
G1 X101.882 Y134.587 E17.31025
G1 X101.322 Y134.08 E17.34543
G1 X100.654 Y133.422 E17.38909
G1 X100.234 Y132.943 E17.41875
G1 X99.667 Y132.257 E17.46019
G1 X99.232 Y131.715 E17.49255
G1 X98.758 Y131.109 E17.52838
G1 X98.212 Y130.346 E17.57207
G1 X97.913 Y129.862 E17.59856
G1 X97.509 Y129.164 E17.63611
G1 X97.07 Y128.381 E17.67791
G1 X96.733 Y127.761 E17.71077
G1 X96.321 Y126.919 E17.75442
G1 X96.084 Y126.331 E17.78394
G1 X95.73 Y125.373 E17.83149
G1 X95.508 Y124.736 E17.86291
G1 X95.289 Y124.084 E17.89493
G1 X95.028 Y123.184 E17.93857
G1 X94.901 Y122.589 E17.9669
G1 X94.741 Y121.72 E18.00804
G1 X94.583 Y120.779 E18.05247
G1 X94.501 Y120.244 E18.07767
G1 X94.397 Y119.282 E18.12273
G1 X94.348 Y118.519 E18.15833
G1 X94.326 Y117.635 E18.19951
G1 X94.34 Y116.774 E18.2396
G1 X94.358 Y116.3 E18.26169
G1 X94.381 Y115.913 E18.27974
G1 X94.485 Y114.927 E18.32591
G1 X94.722 Y113.387 E18.39846
G1 X94.888 Y112.479 E18.44144
