;FLAVOR:Marlin
;TIME:3726
;Filament used: 2.25057m
;Layer height: 0.28
;MINX:11.945
;MINY:19.945
;MINZ:0.28
;MAXX:223.055
;MAXY:221.055
;MAXZ:0.84
;Generated with Cura_SteamEngine 4.6.1
M140 S60
M105
M190 S60
M104 S215
M105
M109 S215
M82 ;absolute extrusion mode
; Ender 3 Custom Start G-code
G92 E0 ; Reset Extruder
G28 ; Home all axes
G1 Z2.0 F3000 ; Move Z Axis up little to prevent scratching of Heat Bed
G1 X0.1 Y20 Z0.3 F5000.0 ; Move to start position
G1 X0.1 Y200.0 Z0.3 F1500.0 E15 ; Draw the first line
G1 X0.4 Y200.0 Z0.3 F5000.0 ; Move to side a little
G1 X0.4 Y20 Z0.3 F1500.0 E30 ; Draw the second line
G92 E0 ; Reset Extruder
G1 Z2.0 F3000 ; Move Z Axis up little to prevent scratching of Heat Bed
G1 X5 Y20 Z0.3 F5000.0 ; Move over to prevent blob squish
G92 E0
G92 E0
G1 F1500 E-6.5
;LAYER_COUNT:3
;LAYER:0
M107
G0 F6000 X119.038 Y20.837 Z0.28
;TYPE:SKIRT
G1 F1500 E0
G1 F1200 X119.932 Y20.963 E0.04204
G1 X120.497 Y21.084 E0.06895
G1 X121.243 Y21.277 E0.10483
G1 X122.522 Y21.714 E0.16776
G1 X122.816 Y21.837 E0.1826
G1 X123.188 Y22.002 E0.20155
G1 X123.439 Y22.119 E0.21445
G1 X124.588 Y22.747 E0.27542
G1 X124.809 Y22.887 E0.2876
G1 X125.166 Y23.124 E0.30755
G1 X125.411 Y23.294 E0.32144
G1 X126.129 Y23.841 E0.36347
G1 X126.496 Y24.162 E0.38617
G1 X126.952 Y24.587 E0.4152
G1 X127.708 Y25.325 E0.46439
G1 X129.682 Y27.195 E0.59101
G1 X130.227 Y27.698 E0.62554
G1 X132.268 Y29.63 E0.7564
G1 X134.123 Y31.288 E0.87225
G1 X136.099 Y32.955 E0.99263
G1 X138.07 Y34.525 E1.10997
G1 X140.11 Y36.059 E1.22882
G1 X142.197 Y37.536 E1.34787
G1 X144.282 Y38.926 E1.46456
G1 X146.437 Y40.276 E1.58297
G1 X148.618 Y41.557 E1.70074
G1 X150.896 Y42.81 E1.82181
G1 X152.834 Y43.812 E1.92339
G1 X153.706 Y44.248 E1.96879
G1 X154.656 Y44.789 E2.0197
G1 X154.866 Y44.924 E2.03132
G1 X155.411 Y45.295 E2.06202
G1 X156.13 Y45.842 E2.10409
G1 X156.495 Y46.161 E2.12666
G1 X156.952 Y46.587 E2.15575
G1 X157.708 Y47.325 E2.20495
G1 X159.669 Y49.183 E2.33074
G1 X160.349 Y49.814 E2.37393
G1 X160.844 Y50.301 E2.40627
G1 X161.385 Y50.863 E2.44259
G1 X161.68 Y51.185 E2.46292
G1 X163.594 Y53.207 E2.59257
G1 X164.409 Y54.042 E2.6469
G1 X164.836 Y54.501 E2.67609
G1 X165.19 Y54.908 E2.70121
G1 X165.38 Y55.139 E2.71514
G1 X167.129 Y57.204 E2.84115
G1 X168.799 Y59.066 E2.95761
G1 X170.558 Y60.919 E3.07658
G1 X172.367 Y62.72 E3.19544
G1 X174.216 Y64.461 E3.3137
G1 X176.095 Y66.13 E3.43073
G1 X177.755 Y67.532 E3.5319
G1 X178.09 Y67.808 E3.55211
G1 X178.527 Y68.189 E3.57911
G1 X178.951 Y68.586 E3.60616
G1 X179.708 Y69.325 E3.65542
G1 X181.669 Y71.183 E3.78121
G1 X182.337 Y71.802 E3.82361
G1 X182.639 Y72.095 E3.84321
G1 X182.854 Y72.311 E3.8574
G1 X183.385 Y72.863 E3.89306
G1 X183.68 Y73.185 E3.9134
G1 X185.594 Y75.207 E4.04304
G1 X186.409 Y76.042 E4.09737
G1 X186.851 Y76.518 E4.12762
G1 X187.181 Y76.897 E4.15102
G1 X187.426 Y77.193 E4.16891
G1 X189.129 Y79.204 E4.29162
G1 X190.799 Y81.066 E4.40809
G1 X192.558 Y82.919 E4.52705
G1 X194.367 Y84.72 E4.64592
G1 X196.216 Y86.461 E4.76417
G1 X198.095 Y88.13 E4.8812
G1 X199.755 Y89.532 E4.98238
G1 X200.09 Y89.808 E5.00259
G1 X200.527 Y90.189 E5.02958
G1 X200.951 Y90.586 E5.05663
G1 X201.708 Y91.325 E5.10589
G1 X203.669 Y93.183 E5.23168
G1 X204.337 Y93.802 E5.27409
G1 X204.639 Y94.095 E5.29368
G1 X204.854 Y94.311 E5.30787
G1 X205.385 Y94.863 E5.34354
G1 X205.68 Y95.185 E5.36387
G1 X207.594 Y97.207 E5.49352
G1 X208.409 Y98.042 E5.54785
G1 X208.838 Y98.503 E5.57717
G1 X209.418 Y99.196 E5.61925
G1 X209.693 Y99.573 E5.64098
G1 X209.999 Y100.02 E5.6662
G1 X210.162 Y100.269 E5.68006
G1 X210.623 Y101.046 E5.72213
G1 X210.837 Y101.471 E5.74429
G1 X210.967 Y101.744 E5.75837
G1 X211.224 Y102.322 E5.78782
G1 X211.665 Y103.563 E5.84915
G1 X211.765 Y103.915 E5.86619
G1 X211.924 Y104.542 E5.89631
G1 X212.037 Y105.074 E5.92163
G1 X212.266 Y106.317 E5.98048
G1 X212.768 Y108.859 E6.10114
G1 X213.33 Y111.331 E6.21918
G1 X213.964 Y113.8 E6.33788
G1 X214.667 Y116.245 E6.45634
G1 X215.433 Y118.65 E6.57387
G1 X216.274 Y121.054 E6.69246
G1 X217.186 Y123.439 E6.81136
G1 X218.157 Y125.78 E6.92937
G1 X219.205 Y128.116 E7.04859
G1 X220.283 Y130.355 E7.1643
G1 X220.904 Y131.607 E7.22938
G1 X221.21 Y132.29 E7.26423
G1 X221.663 Y133.556 E7.32684
G1 X221.757 Y133.886 E7.34282
G1 X221.917 Y134.514 E7.37299
G1 X222.136 Y135.738 E7.43089
G1 X222.162 Y135.961 E7.44135
G1 X222.206 Y136.429 E7.46323
G1 X222.231 Y136.786 E7.4799
G1 X222.254 Y137.689 E7.52196
G1 X222.232 Y138.198 E7.54568
G1 X222.189 Y138.759 E7.57188
G1 X222.159 Y139.064 E7.58615
G1 X222.031 Y139.958 E7.6282
G1 X221.931 Y140.425 E7.65044
G1 X221.8 Y140.96 E7.67609
G1 X221.726 Y141.235 E7.68935
G1 X221.453 Y142.096 E7.73141
G1 X221.282 Y142.53 E7.75313
G1 X221.157 Y142.828 E7.76818
G1 X221.006 Y143.172 E7.78567
G1 X220.892 Y143.418 E7.7983
G1 X220.476 Y144.219 E7.84033
G1 X220.227 Y144.628 E7.86262
G1 X220.09 Y144.842 E7.87445
G1 X219.895 Y145.137 E7.89092
G1 X219.719 Y145.392 E7.90535
G1 X219.173 Y146.112 E7.94742
G1 X218.839 Y146.495 E7.97109
G1 X218.413 Y146.952 E8.00018
G1 X217.675 Y147.708 E8.04937
G1 X215.834 Y149.651 E8.17401
G1 X215.186 Y150.349 E8.21836
G1 X214.699 Y150.844 E8.25069
G1 X214.137 Y151.385 E8.28702
G1 X213.815 Y151.68 E8.30735
G1 X211.793 Y153.594 E8.437
G1 X210.737 Y154.618 E8.50549
G1 X210.514 Y154.823 E8.51959
G1 X209.823 Y155.404 E8.56163
G1 X209.431 Y155.69 E8.58423
G1 X208.956 Y156.015 E8.61103
G1 X208.699 Y156.182 E8.6253
G1 X207.522 Y156.84 E8.68809
G1 X207.255 Y156.967 E8.70185
G1 X206.922 Y157.118 E8.71888
G1 X206.335 Y157.372 E8.74866
G1 X203.903 Y158.464 E8.8728
G1 X201.596 Y159.58 E8.99213
G1 X199.36 Y160.74 E9.10943
G1 X197.147 Y161.969 E9.2273
G1 X194.962 Y163.266 E9.34561
G1 X192.809 Y164.625 E9.46417
G1 X190.696 Y166.046 E9.58274
G1 X188.626 Y167.524 E9.70117
G1 X186.621 Y169.044 E9.81833
G1 X184.629 Y170.644 E9.9373
G1 X182.697 Y172.287 E10.0554
G1 X180.815 Y173.981 E10.1733
G1 X178.971 Y175.74 E10.29197
G1 X177.172 Y177.555 E10.41096
G1 X175.453 Y179.389 E10.52801
G1 X173.772 Y181.29 E10.64617
G1 X172.116 Y183.272 E10.76644
G1 X170.57 Y185.232 E10.88268
G1 X169.045 Y187.282 E11.00165
G1 X167.578 Y189.376 E11.1207
G1 X166.186 Y191.486 E11.23841
G1 X164.863 Y193.622 E11.3554
G1 X163.559 Y195.868 E11.47633
G1 X162.369 Y198.055 E11.59227
G1 X161.221 Y200.319 E11.71047
G1 X160.112 Y202.663 E11.83121
G1 X159.401 Y204.266 E11.91287
G1 X158.998 Y205.188 E11.95972
G1 X158.879 Y205.443 E11.97283
G1 X158.238 Y206.611 E12.03486
G1 X158.101 Y206.826 E12.04674
G1 X157.888 Y207.147 E12.06467
G1 X157.713 Y207.4 E12.079
G1 X157.167 Y208.12 E12.12107
G1 X156.839 Y208.495 E12.14427
G1 X156.413 Y208.952 E12.17336
G1 X155.675 Y209.708 E12.22256
G1 X153.834 Y211.651 E12.3472
G1 X153.186 Y212.349 E12.39154
G1 X152.699 Y212.844 E12.42388
G1 X152.137 Y213.385 E12.4602
G1 X151.815 Y213.68 E12.48054
G1 X149.793 Y215.594 E12.61018
G1 X148.737 Y216.618 E12.67868
G1 X148.514 Y216.823 E12.69278
G1 X147.823 Y217.404 E12.73482
G1 X147.431 Y217.69 E12.75741
G1 X146.956 Y218.015 E12.78421
G1 X146.699 Y218.182 E12.79848
G1 X145.532 Y218.836 E12.86078
G1 X145.272 Y218.96 E12.87419
G1 X144.702 Y219.214 E12.90325
G1 X143.437 Y219.665 E12.96578
G1 X143.085 Y219.765 E12.98282
G1 X142.458 Y219.924 E13.01294
G1 X141.252 Y220.138 E13.06998
G1 X141.027 Y220.164 E13.08052
G1 X140.571 Y220.206 E13.10184
G1 X140.215 Y220.231 E13.11846
G1 X139.312 Y220.254 E13.16052
G1 X138.809 Y220.233 E13.18397
G1 X138.27 Y220.192 E13.20914
G1 X137.965 Y220.163 E13.2234
G1 X137.07 Y220.038 E13.26548
G1 X136.493 Y219.914 E13.29296
G1 X135.748 Y219.721 E13.3288
G1 X134.518 Y219.302 E13.3893
G1 X131.971 Y218.249 E13.51764
G1 X129.611 Y217.349 E13.63525
G1 X127.201 Y216.506 E13.75414
G1 X124.802 Y215.742 E13.87137
G1 X122.36 Y215.041 E13.98967
G1 X119.906 Y214.409 E14.10767
G1 X117.386 Y213.836 E14.22801
G1 X114.925 Y213.352 E14.3448
G1 X112.435 Y212.932 E14.46238
G1 X109.917 Y212.581 E14.58076
G1 X105.857 Y212.151 E14.77087
G1 X104.53 Y211.922 E14.83358
G1 X104.01 Y211.792 E14.85853
G1 X103.748 Y211.721 E14.87117
G1 X102.482 Y211.287 E14.93349
G1 X102.183 Y211.162 E14.94858
G1 X101.826 Y211.005 E14.96674
G1 X101.578 Y210.89 E14.97947
G1 X100.776 Y210.474 E15.02154
G1 X100.365 Y210.224 E15.04394
G1 X100.145 Y210.083 E15.05611
G1 X99.596 Y209.71 E15.08701
G1 X98.877 Y209.164 E15.12905
G1 X98.505 Y208.839 E15.15205
G1 X98.048 Y208.413 E15.18115
G1 X97.292 Y207.675 E15.23034
G1 X95.331 Y205.817 E15.35613
G1 X94.651 Y205.186 E15.39933
G1 X94.151 Y204.693 E15.43202
G1 X93.595 Y204.115 E15.46937
G1 X93.337 Y203.833 E15.48717
G1 X91.406 Y201.793 E15.61796
G1 X90.376 Y200.731 E15.68685
G1 X90.164 Y200.5 E15.70145
G1 X89.807 Y200.089 E15.7268
G1 X89.589 Y199.825 E15.74274
G1 X87.871 Y197.796 E15.86654
G1 X86.201 Y195.934 E15.98301
G1 X84.442 Y194.081 E16.10197
G1 X82.632 Y192.279 E16.2209
G1 X80.784 Y190.539 E16.33909
G1 X78.905 Y188.87 E16.45612
G1 X76.91 Y187.192 E16.57751
G1 X76.472 Y186.81 E16.60457
G1 X76.048 Y186.413 E16.63162
G1 X75.292 Y185.675 E16.68081
G1 X73.331 Y183.817 E16.8066
G1 X72.654 Y183.188 E16.84963
G1 X72.159 Y182.701 E16.88196
G1 X71.598 Y182.124 E16.91944
G1 X69.726 Y180.251 E17.04274
G1 X67.904 Y178.529 E17.15948
G1 X65.965 Y176.797 E17.28054
G1 X64.065 Y175.194 E17.3963
G1 X62.045 Y173.585 E17.51655
G1 X60.027 Y172.069 E17.63408
G1 X57.972 Y170.614 E17.75132
G1 X55.85 Y169.201 E17.87003
G1 X53.676 Y167.841 E17.98944
G1 X51.502 Y166.563 E18.10687
G1 X49.273 Y165.337 E18.22532
G1 X47.018 Y164.18 E18.34334
G1 X44.731 Y163.085 E18.46141
G1 X42.396 Y162.048 E18.58038
G1 X40.044 Y161.081 E18.69879
G1 X37.672 Y160.187 E18.81682
G1 X35.293 Y159.364 E18.93404
G1 X32.836 Y158.59 E19.05399
G1 X30.676 Y157.974 E19.15858
G1 X29.719 Y157.713 E19.20477
G1 X28.859 Y157.437 E19.24683
G1 X28.405 Y157.257 E19.26957
G1 X28.123 Y157.137 E19.28384
G1 X27.565 Y156.883 E19.31239
G1 X26.391 Y156.24 E19.37472
G1 X26.168 Y156.098 E19.38703
G1 X25.846 Y155.884 E19.40503
G1 X25.603 Y155.716 E19.41879
G1 X24.884 Y155.17 E19.46082
G1 X24.504 Y154.838 E19.48432
G1 X24.048 Y154.413 E19.51335
G1 X23.283 Y153.667 E19.5631
G1 X21.331 Y151.817 E19.68833
G1 X20.651 Y151.186 E19.73153
G1 X20.151 Y150.693 E19.76422
G1 X19.595 Y150.115 E19.80157
G1 X19.337 Y149.833 E19.81936
G1 X17.406 Y147.793 E19.95016
G1 X16.382 Y146.737 E20.01866
G1 X16.177 Y146.514 E20.03276
G1 X15.596 Y145.823 E20.0748
G1 X15.307 Y145.427 E20.09763
G1 X14.995 Y144.971 E20.12335
G1 X14.831 Y144.72 E20.13732
G1 X14.371 Y143.943 E20.17936
G1 X14.147 Y143.497 E20.2026
G1 X14.019 Y143.226 E20.21656
G1 X13.783 Y142.694 E20.24366
G1 X13.335 Y141.437 E20.30579
G1 X13.235 Y141.085 E20.32283
G1 X13.076 Y140.462 E20.35277
G1 X12.851 Y139.165 E20.41407
G1 X12.828 Y138.952 E20.42404
G1 X12.794 Y138.572 E20.44181
G1 X12.769 Y138.216 E20.45843
G1 X12.746 Y137.313 E20.50049
G1 X12.767 Y136.812 E20.52384
G1 X12.785 Y136.546 E20.53625
G1 X12.842 Y135.925 E20.56529
G1 X12.971 Y135.031 E20.60735
G1 X13.072 Y134.56 E20.62978
G1 X13.206 Y134.02 E20.65569
G1 X13.277 Y133.757 E20.66837
G1 X13.55 Y132.896 E20.71043
G1 X13.72 Y132.464 E20.73205
G1 X13.849 Y132.157 E20.74755
G1 X14.121 Y131.557 E20.77823
G1 X14.24 Y131.311 E20.79095
G1 X14.647 Y130.497 E20.83333
G1 X15.783 Y128.148 E20.95483
G1 X16.828 Y125.818 E21.07374
G1 X17.796 Y123.488 E21.19122
G1 X18.724 Y121.07 E21.31182
G1 X19.536 Y118.745 E21.4265
G1 X20.323 Y116.277 E21.54712
G1 X21.021 Y113.856 E21.66444
G1 X21.653 Y111.403 E21.78239
G1 X22.225 Y108.892 E21.90231
G1 X22.729 Y106.348 E22.02307
G1 X22.96 Y105.091 E22.08258
G1 X23.074 Y104.55 E22.10833
G1 X23.208 Y104.01 E22.13424
G1 X23.279 Y103.748 E22.14688
G1 X23.713 Y102.482 E22.20919
G1 X23.838 Y102.183 E22.22428
G1 X24.002 Y101.812 E22.24317
G1 X24.117 Y101.565 E22.25586
G1 X24.741 Y100.422 E22.3165
G1 X24.88 Y100.202 E22.32861
G1 X25.128 Y99.828 E22.34951
G1 X25.299 Y99.582 E22.36346
G1 X25.846 Y98.864 E22.40549
G1 X26.146 Y98.522 E22.42667
G1 X26.586 Y98.048 E22.45679
G1 X27.331 Y97.284 E22.50648
G1 X29.182 Y95.331 E22.63177
G1 X29.813 Y94.651 E22.67497
G1 X30.311 Y94.146 E22.70799
G1 X30.874 Y93.605 E22.74435
G1 X31.186 Y93.32 E22.76403
G1 X33.207 Y91.407 E22.89361
G1 X34.262 Y90.384 E22.96204
G1 X34.498 Y90.167 E22.97696
G1 X34.914 Y89.804 E23.00267
G1 X35.206 Y89.563 E23.0203
G1 X37.204 Y87.871 E23.14222
G1 X39.066 Y86.201 E23.25868
G1 X40.919 Y84.442 E23.37765
G1 X42.721 Y82.632 E23.49658
G1 X44.461 Y80.784 E23.61477
G1 X46.13 Y78.905 E23.73179
G1 X47.543 Y77.232 E23.83376
G1 X47.808 Y76.91 E23.85318
G1 X48.189 Y76.473 E23.88018
G1 X48.586 Y76.049 E23.90723
G1 X49.332 Y75.284 E23.95698
G1 X51.183 Y73.331 E24.08228
G1 X51.802 Y72.663 E24.12468
G1 X52.095 Y72.361 E24.14427
G1 X52.311 Y72.146 E24.15847
G1 X52.863 Y71.615 E24.19413
G1 X53.185 Y71.32 E24.21447
G1 X55.207 Y69.406 E24.34411
G1 X56.042 Y68.591 E24.39844
G1 X56.279 Y68.367 E24.41363
G1 X56.515 Y68.151 E24.42852
G1 X56.914 Y67.804 E24.45315
G1 X57.206 Y67.563 E24.47078
G1 X59.204 Y65.871 E24.59269
G1 X61.066 Y64.201 E24.70916
G1 X62.919 Y62.442 E24.82812
G1 X64.721 Y60.632 E24.94705
G1 X66.461 Y58.784 E25.06524
G1 X68.13 Y56.905 E25.18227
G1 X69.808 Y54.91 E25.30366
G1 X70.189 Y54.473 E25.33065
G1 X70.586 Y54.049 E25.3577
G1 X71.332 Y53.284 E25.40745
G1 X73.183 Y51.331 E25.53275
G1 X73.802 Y50.663 E25.57515
G1 X74.095 Y50.361 E25.59475
G1 X74.311 Y50.146 E25.60894
G1 X74.863 Y49.615 E25.6446
G1 X75.185 Y49.32 E25.66494
G1 X77.207 Y47.406 E25.79458
G1 X78.042 Y46.591 E25.84892
G1 X78.503 Y46.162 E25.87824
G1 X79.196 Y45.582 E25.92032
G1 X79.573 Y45.307 E25.94205
G1 X80.028 Y44.996 E25.96771
G1 X80.279 Y44.832 E25.98167
G1 X81.292 Y44.25 E26.03607
G1 X82.038 Y43.876 E26.07493
G1 X84.326 Y42.693 E26.19487
G1 X86.566 Y41.454 E26.31406
G1 X88.747 Y40.164 E26.43205
G1 X90.882 Y38.82 E26.54953
G1 X92.999 Y37.402 E26.66817
G1 X95.087 Y35.915 E26.78753
G1 X97.102 Y34.394 E26.90509
G1 X99.083 Y32.808 E27.02326
G1 X101.018 Y31.165 E27.14146
G1 X102.903 Y29.472 E27.25943
G1 X104.712 Y27.759 E27.37544
G1 X105.173 Y27.331 E27.40473
G1 X107.207 Y25.406 E27.53514
G1 X108.042 Y24.591 E27.58947
G1 X108.503 Y24.162 E27.61879
G1 X109.196 Y23.582 E27.66087
G1 X109.573 Y23.307 E27.6826
G1 X110.043 Y22.986 E27.7091
G1 X110.295 Y22.822 E27.7231
G1 X111.462 Y22.168 E27.78539
G1 X111.732 Y22.039 E27.79933
G1 X112.101 Y21.871 E27.81821
G1 X112.322 Y21.776 E27.82941
G1 X113.563 Y21.335 E27.89073
G1 X113.915 Y21.235 E27.90777
G1 X114.542 Y21.076 E27.93789
G1 X115.748 Y20.862 E27.99493
G1 X115.973 Y20.836 E28.00547
G1 X116.429 Y20.794 E28.0268
G1 X116.785 Y20.769 E28.04341
G1 X117.688 Y20.746 E28.08547
G1 X118.191 Y20.767 E28.10892
G1 X119.038 Y20.837 E28.14849
G0 F6000 X119.076 Y20.439
G1 F1200 X119.987 Y20.566 E28.19132
G1 X120.592 Y20.696 E28.22014
G1 X121.085 Y20.819 E28.2438
G1 X121.348 Y20.89 E28.25648
G1 X122.225 Y21.169 E28.29933
G1 X122.676 Y21.345 E28.32188
G1 X122.97 Y21.468 E28.33672
G1 X123.608 Y21.757 E28.36933
G1 X124.803 Y22.41 E28.43274
G1 X125.024 Y22.55 E28.44492
G1 X125.394 Y22.795 E28.46559
G1 X125.639 Y22.965 E28.47947
G1 X126.372 Y23.522 E28.52234
G1 X126.766 Y23.867 E28.54672
G1 X126.999 Y24.081 E28.56146
G1 X127.231 Y24.301 E28.57634
G1 X127.944 Y24.997 E28.62274
G1 X129.984 Y26.93 E28.7536
G1 X130.502 Y27.408 E28.78642
G1 X132.527 Y29.325 E28.91626
G1 X134.418 Y31.015 E29.03436
G1 X136.321 Y32.62 E29.15028
G1 X138.336 Y34.225 E29.27023
G1 X140.336 Y35.729 E29.38675
G1 X142.404 Y37.193 E29.50474
G1 X144.495 Y38.587 E29.62175
G1 X146.647 Y39.935 E29.74
G1 X148.835 Y41.22 E29.85815
G1 X151.049 Y42.438 E29.97581
G1 X153.05 Y43.472 E30.08069
G1 X153.885 Y43.89 E30.12417
G1 X154.872 Y44.453 E30.17708
G1 X155.082 Y44.588 E30.18871
G1 X155.391 Y44.794 E30.206
G1 X155.639 Y44.966 E30.22006
G1 X156.372 Y45.523 E30.26292
G1 X156.765 Y45.866 E30.28721
G1 X156.996 Y46.078 E30.30181
G1 X157.231 Y46.301 E30.3169
G1 X157.944 Y46.997 E30.36329
G1 X159.97 Y48.916 E30.49323
G1 X160.628 Y49.528 E30.53508
G1 X161.13 Y50.022 E30.56787
G1 X161.679 Y50.592 E30.60472
G1 X161.949 Y50.886 E30.62331
G1 X163.92 Y52.969 E30.75684
G1 X164.92 Y54 E30.82372
G1 X165.131 Y54.23 E30.83826
G1 X165.499 Y54.653 E30.86436
