;FLAVOR:Marlin
;TIME:645
;Filament used: 0.396503m
;Layer height: 0.28
;MINX:73.945
;MINY:95.945
;MINZ:0.28
;MAXX:161.055
;MAXY:183.055
;MAXZ:0.84
;Generated with Cura_SteamEngine 4.6.1
M140 S60
M105
M190 S60
M104 S215
M105
M109 S215
M82 ;absolute extrusion mode
; Ender 3 Custom Start G-code
G92 E0 ; Reset Extruder
G28 ; Home all axes
G1 Z2.0 F3000 ; Move Z Axis up little to prevent scratching of Heat Bed
G1 X0.1 Y20 Z0.3 F5000.0 ; Move to start position
G1 X0.1 Y200.0 Z0.3 F1500.0 E15 ; Draw the first line
G1 X0.4 Y200.0 Z0.3 F5000.0 ; Move to side a little
G1 X0.4 Y20 Z0.3 F1500.0 E30 ; Draw the second line
G92 E0 ; Reset Extruder
G1 Z2.0 F3000 ; Move Z Axis up little to prevent scratching of Heat Bed
G1 X5 Y20 Z0.3 F5000.0 ; Move over to prevent blob squish
G92 E0
G92 E0
G1 F1500 E-6.5
;LAYER_COUNT:3
;LAYER:0
M107
G0 F6000 X119.038 Y96.837 Z0.28
;TYPE:SKIRT
G1 F1500 E0
G1 F1200 X119.932 Y96.963 E0.04204
G1 X120.497 Y97.084 E0.06895
G1 X121.243 Y97.277 E0.10483
G1 X122.522 Y97.714 E0.16776
G1 X122.816 Y97.837 E0.1826
G1 X123.188 Y98.002 E0.20155
G1 X123.439 Y98.119 E0.21445
G1 X124.588 Y98.747 E0.27542
G1 X124.809 Y98.887 E0.2876
G1 X125.166 Y99.124 E0.30755
G1 X125.411 Y99.294 E0.32144
G1 X126.129 Y99.841 E0.36347
G1 X126.496 Y100.162 E0.38617
G1 X126.952 Y100.587 E0.4152
G1 X127.708 Y101.325 E0.46439
G1 X129.669 Y103.183 E0.59018
G1 X130.349 Y103.814 E0.63338
G1 X130.844 Y104.301 E0.66571
G1 X131.385 Y104.863 E0.70204
G1 X131.68 Y105.185 E0.72237
G1 X133.594 Y107.207 E0.85202
G1 X134.409 Y108.042 E0.90635
G1 X134.836 Y108.501 E0.93554
G1 X135.19 Y108.908 E0.96066
G1 X135.38 Y109.139 E0.97458
G1 X137.129 Y111.204 E1.10059
G1 X138.799 Y113.066 E1.21706
G1 X140.558 Y114.919 E1.33603
G1 X142.367 Y116.72 E1.45489
G1 X144.216 Y118.461 E1.57315
G1 X146.095 Y120.13 E1.69017
G1 X147.755 Y121.532 E1.79135
G1 X148.09 Y121.808 E1.81156
G1 X148.527 Y122.189 E1.83856
G1 X148.951 Y122.586 E1.8656
G1 X149.708 Y123.325 E1.91486
G1 X151.669 Y125.183 E2.04065
G1 X152.337 Y125.802 E2.08306
G1 X152.639 Y126.095 E2.10265
G1 X152.854 Y126.311 E2.11684
G1 X153.385 Y126.863 E2.15251
G1 X153.68 Y127.185 E2.17284
G1 X155.594 Y129.207 E2.30249
G1 X156.409 Y130.042 E2.35682
G1 X156.838 Y130.503 E2.38614
G1 X157.418 Y131.196 E2.42822
G1 X157.693 Y131.573 E2.44995
G1 X157.999 Y132.02 E2.47518
G1 X158.162 Y132.269 E2.48903
G1 X158.623 Y133.046 E2.5311
G1 X158.837 Y133.471 E2.55326
G1 X158.957 Y133.723 E2.56626
G1 X159.21 Y134.29 E2.59517
G1 X159.663 Y135.556 E2.65778
G1 X159.757 Y135.886 E2.67375
G1 X159.917 Y136.514 E2.70393
G1 X160.136 Y137.738 E2.76183
G1 X160.162 Y137.961 E2.77229
G1 X160.206 Y138.429 E2.79417
G1 X160.231 Y138.786 E2.81084
G1 X160.254 Y139.689 E2.8529
G1 X160.232 Y140.198 E2.87662
G1 X160.189 Y140.759 E2.90282
G1 X160.159 Y141.064 E2.91709
G1 X160.031 Y141.958 E2.95914
G1 X159.931 Y142.425 E2.98138
G1 X159.8 Y142.96 E3.00703
G1 X159.726 Y143.235 E3.02029
G1 X159.453 Y144.096 E3.06235
G1 X159.282 Y144.53 E3.08407
G1 X159.157 Y144.828 E3.09912
G1 X159.006 Y145.172 E3.11661
G1 X158.892 Y145.418 E3.12924
G1 X158.476 Y146.219 E3.17126
G1 X158.227 Y146.628 E3.19356
G1 X158.09 Y146.842 E3.20539
G1 X157.895 Y147.137 E3.22186
G1 X157.719 Y147.392 E3.23629
G1 X157.173 Y148.112 E3.27836
G1 X156.839 Y148.495 E3.30203
G1 X156.413 Y148.952 E3.33112
G1 X155.675 Y149.708 E3.38031
G1 X153.834 Y151.651 E3.50495
G1 X153.186 Y152.349 E3.5493
G1 X152.699 Y152.844 E3.58163
G1 X152.137 Y153.385 E3.61796
G1 X151.815 Y153.68 E3.63829
G1 X149.793 Y155.594 E3.76794
G1 X148.958 Y156.409 E3.82227
G1 X148.499 Y156.836 E3.85146
G1 X148.092 Y157.19 E3.87658
G1 X147.842 Y157.396 E3.89166
G1 X145.796 Y159.129 E4.01651
G1 X143.934 Y160.799 E4.13298
G1 X142.081 Y162.558 E4.25195
G1 X140.279 Y164.368 E4.37087
G1 X138.539 Y166.216 E4.48907
G1 X136.87 Y168.095 E4.60609
G1 X135.469 Y169.754 E4.7072
G1 X135.192 Y170.09 E4.72748
G1 X134.811 Y170.527 E4.75448
G1 X134.414 Y170.951 E4.78152
G1 X133.675 Y171.708 E4.83078
G1 X131.834 Y173.651 E4.95542
G1 X131.198 Y174.337 E4.99898
G1 X130.905 Y174.639 E5.01857
G1 X130.689 Y174.854 E5.03276
G1 X130.137 Y175.385 E5.06843
G1 X129.815 Y175.68 E5.08876
G1 X127.793 Y177.594 E5.21841
G1 X126.958 Y178.409 E5.27274
G1 X126.497 Y178.838 E5.30206
G1 X125.44 Y179.684 E5.3651
G1 X125.229 Y179.831 E5.37708
G1 X124.956 Y180.015 E5.39241
G1 X124.699 Y180.182 E5.40668
G1 X123.532 Y180.836 E5.46897
G1 X123.272 Y180.96 E5.48239
G1 X122.702 Y181.214 E5.51144
G1 X121.437 Y181.665 E5.57398
G1 X121.085 Y181.765 E5.59102
G1 X120.458 Y181.924 E5.62114
G1 X119.252 Y182.138 E5.67817
G1 X119.027 Y182.164 E5.68872
G1 X118.571 Y182.206 E5.71004
G1 X118.215 Y182.231 E5.72666
G1 X117.312 Y182.254 E5.76872
G1 X116.809 Y182.233 E5.79216
G1 X116.27 Y182.192 E5.81733
G1 X115.965 Y182.163 E5.8316
G1 X115.07 Y182.038 E5.87368
G1 X114.493 Y181.914 E5.90116
G1 X113.748 Y181.721 E5.93699
G1 X112.482 Y181.287 E5.99931
G1 X112.183 Y181.162 E6.0144
G1 X111.812 Y180.998 E6.03329
G1 X111.565 Y180.883 E6.04598
G1 X110.382 Y180.234 E6.10881
G1 X110.147 Y180.084 E6.12179
G1 X109.827 Y179.871 E6.13969
G1 X109.596 Y179.711 E6.15277
G1 X108.877 Y179.164 E6.19484
G1 X108.504 Y178.838 E6.21791
G1 X108.048 Y178.413 E6.24693
G1 X107.283 Y177.667 E6.29669
G1 X105.331 Y175.817 E6.42192
G1 X104.651 Y175.186 E6.46511
G1 X104.151 Y174.693 E6.49781
G1 X103.595 Y174.115 E6.53515
G1 X103.337 Y173.833 E6.55295
G1 X101.406 Y171.793 E6.68375
G1 X100.376 Y170.731 E6.75264
G1 X100.164 Y170.5 E6.76724
G1 X99.807 Y170.089 E6.79259
G1 X99.562 Y169.792 E6.81052
G1 X97.871 Y167.796 E6.93233
G1 X96.201 Y165.934 E7.04879
G1 X94.442 Y164.081 E7.16776
G1 X92.632 Y162.279 E7.28669
G1 X90.784 Y160.539 E7.40488
G1 X88.905 Y158.87 E7.52191
G1 X86.91 Y157.192 E7.64329
G1 X86.472 Y156.81 E7.67036
G1 X86.048 Y156.413 E7.6974
G1 X85.283 Y155.667 E7.74716
G1 X83.331 Y153.817 E7.87239
G1 X82.663 Y153.198 E7.91479
G1 X82.361 Y152.905 E7.93439
G1 X82.141 Y152.684 E7.94891
G1 X81.595 Y152.115 E7.98563
G1 X81.337 Y151.833 E8.00342
G1 X79.406 Y149.793 E8.13422
G1 X78.591 Y148.958 E8.18855
G1 X78.162 Y148.497 E8.21788
G1 X77.582 Y147.804 E8.25996
G1 X77.313 Y147.435 E8.28122
G1 X76.995 Y146.971 E8.30741
G1 X76.831 Y146.72 E8.32137
G1 X76.371 Y145.943 E8.36342
G1 X76.147 Y145.497 E8.38666
G1 X76.019 Y145.226 E8.40061
G1 X75.783 Y144.694 E8.42771
G1 X75.335 Y143.437 E8.48985
G1 X75.235 Y143.085 E8.50689
G1 X75.076 Y142.462 E8.53683
G1 X74.851 Y141.165 E8.59813
G1 X74.828 Y140.952 E8.6081
G1 X74.794 Y140.572 E8.62587
G1 X74.769 Y140.216 E8.64248
G1 X74.746 Y139.313 E8.68455
G1 X74.767 Y138.812 E8.70789
G1 X74.785 Y138.546 E8.72031
G1 X74.842 Y137.925 E8.74935
G1 X74.971 Y137.031 E8.79141
G1 X75.072 Y136.56 E8.81384
G1 X75.206 Y136.02 E8.83974
G1 X75.277 Y135.757 E8.85243
G1 X75.55 Y134.896 E8.89449
G1 X75.72 Y134.464 E8.9161
G1 X75.849 Y134.157 E8.93161
G1 X76.12 Y133.559 E8.96218
G1 X76.741 Y132.422 E9.02251
G1 X76.88 Y132.202 E9.03463
G1 X77.128 Y131.828 E9.05552
G1 X77.299 Y131.582 E9.06947
G1 X77.846 Y130.864 E9.1115
G1 X78.146 Y130.522 E9.13269
G1 X78.586 Y130.048 E9.1628
G1 X79.331 Y129.284 E9.21249
G1 X81.182 Y127.331 E9.33778
G1 X81.813 Y126.651 E9.38098
G1 X82.311 Y126.146 E9.41401
G1 X82.874 Y125.605 E9.45036
G1 X83.186 Y125.32 E9.47004
G1 X85.207 Y123.407 E9.59962
G1 X86.262 Y122.384 E9.66805
G1 X86.498 Y122.167 E9.68298
G1 X86.914 Y121.804 E9.70868
G1 X87.206 Y121.563 E9.72631
G1 X89.204 Y119.871 E9.84823
G1 X91.066 Y118.201 E9.96469
G1 X92.919 Y116.442 E10.08366
G1 X94.721 Y114.632 E10.20259
G1 X96.461 Y112.784 E10.32078
G1 X98.13 Y110.905 E10.43781
G1 X99.808 Y108.91 E10.55919
G1 X100.189 Y108.473 E10.58619
G1 X100.586 Y108.049 E10.61324
G1 X101.332 Y107.284 E10.66299
G1 X103.183 Y105.331 E10.78829
G1 X103.802 Y104.663 E10.83069
G1 X104.095 Y104.361 E10.85029
G1 X104.311 Y104.146 E10.86448
G1 X104.863 Y103.615 E10.90014
G1 X105.185 Y103.32 E10.92048
G1 X107.207 Y101.406 E11.05012
G1 X108.042 Y100.591 E11.10445
G1 X108.503 Y100.162 E11.13378
G1 X109.196 Y99.582 E11.17586
G1 X109.573 Y99.307 E11.19758
G1 X110.043 Y98.986 E11.22409
G1 X110.295 Y98.822 E11.23809
G1 X111.462 Y98.168 E11.30038
G1 X111.732 Y98.039 E11.31431
G1 X112.101 Y97.871 E11.33319
G1 X112.322 Y97.776 E11.34439
G1 X113.563 Y97.335 E11.40572
G1 X113.915 Y97.235 E11.42276
G1 X114.542 Y97.076 E11.45288
G1 X115.748 Y96.862 E11.50991
G1 X115.973 Y96.836 E11.52046
G1 X116.429 Y96.794 E11.54178
G1 X116.785 Y96.769 E11.5584
G1 X117.688 Y96.746 E11.60046
G1 X118.191 Y96.767 E11.6239
G1 X119.038 Y96.837 E11.66348
G0 F6000 X119.076 Y96.439
G1 F1200 X119.987 Y96.566 E11.70631
G1 X120.592 Y96.696 E11.73512
G1 X121.085 Y96.819 E11.75878
G1 X121.348 Y96.89 E11.77147
G1 X122.225 Y97.169 E11.81432
G1 X122.676 Y97.345 E11.83686
G1 X122.97 Y97.468 E11.8517
G1 X123.608 Y97.757 E11.88432
G1 X124.803 Y98.41 E11.94773
G1 X125.024 Y98.55 E11.95991
G1 X125.394 Y98.795 E11.98057
G1 X125.639 Y98.965 E11.99446
G1 X126.372 Y99.522 E12.03732
G1 X126.766 Y99.867 E12.06171
G1 X126.999 Y100.081 E12.07644
G1 X127.231 Y100.301 E12.09133
G1 X127.944 Y100.997 E12.13772
G1 X129.97 Y102.916 E12.26766
G1 X130.628 Y103.528 E12.30951
G1 X131.13 Y104.022 E12.3423
G1 X131.679 Y104.592 E12.37915
G1 X131.949 Y104.886 E12.39774
G1 X133.92 Y106.969 E12.53127
G1 X134.92 Y108 E12.59815
G1 X135.131 Y108.23 E12.61269
G1 X135.499 Y108.653 E12.63879
G1 X135.758 Y108.968 E12.65778
G1 X137.401 Y110.907 E12.77613
G1 X139.12 Y112.824 E12.89602
G1 X140.847 Y114.644 E13.01285
G1 X142.622 Y116.411 E13.12947
G1 X144.492 Y118.171 E13.24905
G1 X146.378 Y119.846 E13.3665
G1 X147.953 Y121.176 E13.46249
G1 X148.345 Y121.499 E13.48614
G1 X148.798 Y121.895 E13.51416
G1 X149.23 Y122.3 E13.54173
G1 X149.944 Y122.997 E13.5882
G1 X151.97 Y124.916 E13.71814
G1 X152.615 Y125.515 E13.75912
G1 X153.141 Y126.032 E13.79347
G1 X153.679 Y126.592 E13.82963
G1 X153.949 Y126.886 E13.84821
G1 X155.92 Y128.969 E13.98175
G1 X156.695 Y129.763 E14.03341
G1 X156.927 Y130.008 E14.04912
G1 X157.133 Y130.233 E14.06333
G1 X157.725 Y130.938 E14.10619
G1 X158.022 Y131.345 E14.12965
G1 X158.334 Y131.801 E14.15538
G1 X158.497 Y132.05 E14.16924
G1 X158.967 Y132.842 E14.21212
G1 X159.198 Y133.299 E14.23597
G1 X159.318 Y133.551 E14.24896
G1 X159.577 Y134.131 E14.27854
G1 X159.907 Y134.991 E14.32143
G1 X160.047 Y135.446 E14.3436
G1 X160.141 Y135.776 E14.35958
G1 X160.248 Y136.18 E14.37904
G1 X160.306 Y136.419 E14.39049
G1 X160.534 Y137.691 E14.45066
G1 X160.56 Y137.914 E14.46112
G1 X160.605 Y138.402 E14.48394
G1 X160.63 Y138.759 E14.5006
G1 X160.654 Y139.679 E14.54346
G1 X160.631 Y140.226 E14.56895
G1 X160.587 Y140.799 E14.59571
G1 X160.557 Y141.104 E14.60998
G1 X160.427 Y142.015 E14.65283
G1 X160.321 Y142.517 E14.67672
G1 X160.186 Y143.064 E14.70296
G1 X160.112 Y143.339 E14.71622
G1 X159.834 Y144.217 E14.7591
G1 X159.651 Y144.685 E14.7825
G1 X159.526 Y144.983 E14.79755
G1 X159.254 Y145.586 E14.82835
G1 X158.831 Y146.404 E14.87123
G1 X158.564 Y146.844 E14.89519
G1 X158.427 Y147.058 E14.90703
G1 X158.224 Y147.364 E14.92413
G1 X158.048 Y147.619 E14.93855
G1 X157.492 Y148.353 E14.98143
G1 X157.134 Y148.765 E15.00684
G1 X156.922 Y148.996 E15.02144
G1 X156.699 Y149.231 E15.03653
G1 X156.003 Y149.944 E15.08293
G1 X154.084 Y151.97 E15.21287
G1 X153.472 Y152.628 E15.25471
G1 X152.978 Y153.13 E15.2875
G1 X152.408 Y153.679 E15.32435
G1 X152.114 Y153.949 E15.34294
G1 X150.031 Y155.92 E15.47647
G1 X149 Y156.92 E15.54335
G1 X148.77 Y157.131 E15.55789
G1 X148.347 Y157.499 E15.584
G1 X148.052 Y157.742 E15.60179
G1 X146.093 Y159.401 E15.72133
G1 X144.176 Y161.12 E15.84122
G1 X142.356 Y162.847 E15.95805
G1 X140.602 Y164.609 E16.07382
G1 X138.829 Y166.492 E16.19425
G1 X137.154 Y168.378 E16.3117
G1 X135.824 Y169.953 E16.40769
G1 X135.501 Y170.345 E16.43134
G1 X135.105 Y170.798 E16.45936
G1 X134.7 Y171.23 E16.48693
G1 X134.003 Y171.944 E16.5334
G1 X132.084 Y173.97 E16.66334
G1 X131.485 Y174.615 E16.70432
G1 X130.968 Y175.141 E16.73867
G1 X130.408 Y175.679 E16.77483
G1 X130.114 Y175.949 E16.79341
G1 X128.031 Y177.92 E16.92695
G1 X127.237 Y178.695 E16.97861
G1 X126.992 Y178.927 E16.99432
G1 X126.767 Y179.133 E17.00853
G1 X126.062 Y179.725 E17.05139
G1 X125.668 Y180.012 E17.07409
G1 X125.457 Y180.159 E17.08607
G1 X125.174 Y180.35 E17.10196
G1 X124.917 Y180.517 E17.11624
G1 X124.124 Y180.985 E17.15911
G1 X123.704 Y181.197 E17.18102
G1 X123.444 Y181.321 E17.19443
G1 X122.861 Y181.581 E17.22416
G1 X122.001 Y181.909 E17.26702
G1 X121.547 Y182.05 E17.28915
G1 X121.195 Y182.15 E17.30619
G1 X120.551 Y182.313 E17.33712
G1 X119.298 Y182.535 E17.39638
G1 X119.073 Y182.561 E17.40692
G1 X118.599 Y182.605 E17.42909
G1 X118.243 Y182.63 E17.44571
G1 X117.322 Y182.655 E17.48861
G1 X116.782 Y182.632 E17.51378
G1 X116.232 Y182.59 E17.53946
G1 X115.927 Y182.561 E17.55373
G1 X115.015 Y182.435 E17.5966
G1 X114.398 Y182.302 E17.62599
G1 X113.643 Y182.107 E17.6623
G1 X112.766 Y181.828 E17.70515
G1 X112.327 Y181.656 E17.72711
G1 X112.028 Y181.531 E17.7422
G1 X111.643 Y181.361 E17.76179
G1 X111.396 Y181.246 E17.77448
G1 X110.579 Y180.821 E17.81736
G1 X110.167 Y180.571 E17.8398
G1 X109.932 Y180.421 E17.85278
G1 X109.599 Y180.2 E17.87139
G1 X109.368 Y180.04 E17.88448
G1 X108.635 Y179.483 E17.92735
G1 X108.234 Y179.133 E17.95213
G1 X108.001 Y178.919 E17.96686
G1 X107.769 Y178.699 E17.98175
G1 X107.056 Y178.003 E18.02815
G1 X105.03 Y176.084 E18.15809
G1 X104.372 Y175.472 E18.19993
G1 X103.864 Y174.972 E18.23312
G1 X103.3 Y174.386 E18.27099
G1 X103.035 Y174.097 E18.28925
G1 X101.08 Y172.031 E18.42169
G1 X100.081 Y171.001 E18.48851
G1 X99.869 Y170.77 E18.50311
G1 X99.498 Y170.343 E18.52945
G1 X99.257 Y170.05 E18.54711
G1 X97.599 Y168.093 E18.66655
G1 X95.88 Y166.176 E18.78644
G1 X94.153 Y164.356 E18.90327
G1 X92.377 Y162.589 E19.01993
G1 X90.508 Y160.829 E19.13947
G1 X88.622 Y159.154 E19.25692
G1 X87.047 Y157.824 E19.35291
G1 X86.655 Y157.501 E19.37656
G1 X86.2 Y157.104 E19.40468
G1 X85.769 Y156.699 E19.43222
G1 X85.056 Y156.003 E19.47862
G1 X83.03 Y154.084 E19.60856
G1 X82.385 Y153.485 E19.64955
G1 X82.083 Y153.192 E19.66914
G1 X81.854 Y152.962 E19.68425
G1 X81.3 Y152.386 E19.72146
G1 X81.035 Y152.097 E19.73972
G1 X79.08 Y150.031 E19.87217
G1 X78.305 Y149.237 E19.92383
G1 X78.073 Y148.992 E19.93954
G1 X77.867 Y148.767 E19.95375
G1 X77.275 Y148.062 E19.99662
G1 X76.984 Y147.663 E20.01961
G1 X76.66 Y147.19 E20.04631
G1 X76.496 Y146.939 E20.06027
G1 X76.027 Y146.147 E20.10313
G1 X75.785 Y145.668 E20.12812
G1 X75.657 Y145.397 E20.14207
G1 X75.416 Y144.852 E20.16982
G1 X75.088 Y143.992 E20.21268
G1 X74.95 Y143.547 E20.23437
G1 X74.85 Y143.195 E20.25141
G1 X74.688 Y142.556 E20.28211
G1 X74.453 Y141.208 E20.34582
G1 X74.43 Y140.995 E20.3558
G1 X74.395 Y140.6 E20.37427
G1 X74.37 Y140.244 E20.39088
G1 X74.345 Y139.323 E20.43378
G1 X74.368 Y138.785 E20.45886
G1 X74.386 Y138.519 E20.47127
G1 X74.444 Y137.885 E20.50092
G1 X74.575 Y136.974 E20.54377
G1 X74.683 Y136.467 E20.56791
G1 X74.819 Y135.915 E20.59438
G1 X74.89 Y135.652 E20.60707
G1 X75.169 Y134.775 E20.64992
G1 X75.352 Y134.309 E20.67324
G1 X75.481 Y134.002 E20.68874
G1 X75.646 Y133.628 E20.70778
G1 X75.757 Y133.39 E20.72
G1 X76.403 Y132.208 E20.78273
G1 X76.542 Y131.988 E20.79484
G1 X76.799 Y131.6 E20.81651
G1 X76.97 Y131.354 E20.83046
G1 X77.528 Y130.621 E20.87336
G1 X77.85 Y130.252 E20.89617
G1 X78.063 Y130.019 E20.91087
G1 X78.3 Y129.769 E20.92691
G1 X78.996 Y129.056 E20.9733
G1 X80.915 Y127.03 E21.10324
G1 X81.527 Y126.372 E21.14509
G1 X82.032 Y125.859 E21.1786
G1 X82.604 Y125.31 E21.21552
G1 X82.892 Y125.046 E21.23371
G1 X84.969 Y123.081 E21.36685
G1 X85.991 Y122.089 E21.43317
G1 X86.227 Y121.872 E21.4481
G1 X86.66 Y121.495 E21.47483
G1 X86.99 Y121.223 E21.49475
G1 X88.907 Y119.599 E21.61174
G1 X90.824 Y117.88 E21.73163
G1 X92.644 Y116.153 E21.84846
G1 X94.411 Y114.377 E21.96512
G1 X96.171 Y112.508 E22.08466
G1 X97.846 Y110.622 E22.20211
G1 X99.176 Y109.047 E22.2981
G1 X99.499 Y108.655 E22.32175
G1 X99.895 Y108.202 E22.34977
G1 X100.3 Y107.77 E22.37734
G1 X100.997 Y107.056 E22.42381
G1 X102.916 Y105.03 E22.55375
G1 X103.515 Y104.385 E22.59473
G1 X104.032 Y103.859 E22.62908
G1 X104.592 Y103.321 E22.66524
