;FLAVOR:Marlin
;TIME:3967
;Filament used: 3.1181m
;Layer height: 0.28
;MINX:10.842
;MINY:87.976
;MINZ:0.28
;MAXX:209.645
;MAXY:129.163
;MAXZ:11.76
;Generated with Cura_SteamEngine 4.8.0
M140 S80
M105
M190 S80
M104 S235
M105
M109 S235
M82 ;absolute extrusion mode
; Ender 3 Custom Start G-code
G92 E0 ; Reset Extruder
G28 ; Home all axes
G1 Z2.0 F3000 ; Move Z Axis up little to prevent scratching of Heat Bed
G1 X0.1 Y20 Z0.3 F5000.0 ; Move to start position
G1 X0.1 Y200.0 Z0.3 F1500.0 E15 ; Draw the first line
G1 X0.4 Y200.0 Z0.3 F5000.0 ; Move to side a little
G1 X0.4 Y20 Z0.3 F1500.0 E30 ; Draw the second line
G92 E0 ; Reset Extruder
G1 Z2.0 F3000 ; Move Z Axis up little to prevent scratching of Heat Bed
G1 X5 Y20 Z0.3 F5000.0 ; Move over to prevent blob squish
G92 E0
G92 E0
G1 F1500 E-6.5
;LAYER_COUNT:42
;LAYER:0
M107
G0 F6000 X21.721 Y101.309 Z0.28
;TYPE:SKIRT
G1 F1500 E0
G1 F1200 X22.594 Y101.164 E0.04121
G1 X23.282 Y101.08 E0.07348
G1 X23.625 Y101.044 E0.08954
G1 X23.87 Y101.021 E0.101
G1 X24.988 Y100.93 E0.15323
G1 X28.339 Y100.7 E0.30963
G1 X29.345 Y100.645 E0.35655
G1 X29.84 Y100.614 E0.37964
G1 X30.743 Y100.546 E0.42181
G1 X32.853 Y100.411 E0.52026
G1 X34.292 Y100.337 E0.58735
G1 X37.635 Y100.058 E0.74356
G1 X39.047 Y99.914 E0.80965
G1 X39.286 Y99.892 E0.82082
G1 X39.664 Y99.862 E0.83848
G1 X40.337 Y99.802 E0.86994
G1 X42.592 Y99.575 E0.97548
G1 X44.845 Y99.323 E1.08104
G1 X46.804 Y99.14 E1.17266
G1 X47.524 Y99.083 E1.20629
G1 X47.834 Y99.063 E1.22075
G1 X48.212 Y99.044 E1.23838
G1 X50.826 Y98.874 E1.36035
G1 X66.789 Y97.621 E2.10594
G1 X69.364 Y97.382 E2.22636
G1 X71.773 Y97.078 E2.33942
G1 X72.657 Y96.974 E2.38087
G1 X72.959 Y96.943 E2.39501
G1 X74.147 Y96.836 E2.45055
G1 X74.288 Y96.819 E2.45716
G1 X76.446 Y96.608 E2.55813
G1 X78.87 Y96.302 E2.67189
G1 X82.266 Y95.76 E2.83203
G1 X82.38 Y95.74 E2.83742
G1 X83.28 Y95.618 E2.87971
G1 X84.128 Y95.539 E2.91936
G1 X146.448 Y90.632 E5.83023
G1 X147.203 Y90.584 E5.86545
G1 X148.141 Y90.565 E5.90914
G1 X148.739 Y90.594 E5.93702
G1 X149.112 Y90.622 E5.95443
G1 X151.695 Y90.785 E6.07495
G1 X154.194 Y90.873 E6.19139
G1 X156.75 Y90.889 E6.31041
G1 X159.232 Y90.836 E6.426
G1 X161.809 Y90.706 E6.54615
G1 X163.04 Y90.619 E6.60362
G1 X195.782 Y88.042 E8.13294
G1 X196.475 Y87.997 E8.16527
G1 X197.413 Y87.976 E8.20896
G1 X198.814 Y88.095 E8.27443
G1 X198.901 Y88.108 E8.27853
G1 X199.62 Y88.24 E8.31257
G1 X199.84 Y88.288 E8.32305
G1 X200.747 Y88.527 E8.36673
G1 X201.63 Y88.842 E8.41038
G1 X202.483 Y89.231 E8.45404
G1 X203.3 Y89.692 E8.49772
G1 X204.075 Y90.22 E8.54138
G1 X204.545 Y90.591 E8.56927
G1 X204.751 Y90.763 E8.58176
G1 X205.445 Y91.395 E8.62547
G1 X206.082 Y92.083 E8.66913
G1 X206.658 Y92.822 E8.71276
G1 X207.17 Y93.609 E8.75648
G1 X207.572 Y94.352 E8.79581
G1 X207.663 Y94.537 E8.80541
G1 X208.091 Y95.528 E8.85568
G1 X208.584 Y96.842 E8.92103
G1 X208.663 Y97.058 E8.93174
G1 X208.792 Y97.425 E8.94985
G1 X209.065 Y98.323 E8.99356
G1 X209.301 Y99.504 E9.04964
G1 X209.362 Y99.938 E9.07004
G1 X209.457 Y100.705 E9.10603
G1 X209.531 Y101.261 E9.13215
G1 X209.596 Y101.884 E9.16132
G1 X209.608 Y102.043 E9.16874
G1 X209.634 Y102.543 E9.19205
G1 X209.645 Y102.912 E9.20924
G1 X209.64 Y103.704 E9.24612
G1 X209.63 Y103.941 E9.25717
G1 X209.551 Y104.875 E9.30081
G1 X209.288 Y106.238 E9.36545
G1 X209.246 Y106.4 E9.37325
G1 X209.11 Y106.879 E9.39643
G1 X209.012 Y107.197 E9.41193
G1 X208.698 Y108.08 E9.45556
G1 X208.31 Y108.934 E9.49924
G1 X207.85 Y109.752 E9.54294
G1 X207.322 Y110.527 E9.58661
G1 X206.9 Y111.059 E9.61823
G1 X206.796 Y111.182 E9.62573
G1 X206.441 Y111.582 E9.65063
G1 X206.289 Y111.745 E9.66101
G1 X205.621 Y112.403 E9.70467
G1 X204.899 Y113.002 E9.74835
G1 X204.128 Y113.537 E9.79205
G1 X203.315 Y114.004 E9.83571
G1 X202.465 Y114.401 E9.87939
G1 X201.81 Y114.649 E9.912
G1 X201.562 Y114.734 E9.92421
G1 X201.137 Y114.87 E9.94499
G1 X200.798 Y114.971 E9.96146
G1 X199.888 Y115.2 E10.00515
G1 X198.715 Y115.378 E10.0604
G1 X197.877 Y115.459 E10.0996
G1 X197.682 Y115.476 E10.10872
G1 X78.594 Y124.85 E15.67111
G1 X77.889 Y124.895 E15.704
G1 X77.55 Y124.911 E15.7198
G1 X76.937 Y124.92 E15.74835
G1 X75.442 Y124.898 E15.81797
G1 X74.758 Y124.879 E15.84983
G1 X72.237 Y124.883 E15.96722
G1 X69.74 Y124.956 E16.08354
G1 X66.536 Y125.152 E16.23301
G1 X62.639 Y125.46 E16.41504
G1 X60.018 Y125.703 E16.53761
G1 X57.538 Y126.005 E16.65394
G1 X55.068 Y126.377 E16.77025
G1 X53.57 Y126.646 E16.84112
G1 X52.566 Y126.814 E16.88852
G1 X52.348 Y126.848 E16.89879
G1 X51.728 Y126.939 E16.92797
G1 X51.464 Y126.975 E16.94038
G1 X49.793 Y127.179 E17.01877
G1 X49.546 Y127.206 E17.03034
G1 X49.132 Y127.247 E17.04971
G1 X48.332 Y127.338 E17.0872
G1 X47.308 Y127.438 E17.13511
G1 X46.566 Y127.519 E17.16986
G1 X46.059 Y127.567 E17.19358
G1 X45.679 Y127.607 E17.21137
G1 X43.634 Y127.798 E17.30701
G1 X42.126 Y127.93 E17.37749
G1 X41.476 Y127.99 E17.40789
G1 X38.473 Y128.228 E17.54816
G1 X37.373 Y128.318 E17.59955
G1 X37.25 Y128.323 E17.60528
G1 X33.724 Y128.6 E17.76998
G1 X32.795 Y128.66 E17.81332
G1 X32.137 Y128.707 E17.84404
G1 X29.628 Y128.868 E17.96111
G1 X29.419 Y128.878 E17.97085
G1 X28.275 Y128.951 E18.02423
G1 X28.047 Y128.962 E18.03486
G1 X27.327 Y129.008 E18.06846
G1 X26.714 Y129.039 E18.09704
G1 X25.231 Y129.093 E18.16614
G1 X24.148 Y129.14 E18.21661
G1 X23.851 Y129.149 E18.23045
G1 X23.075 Y129.162 E18.26659
G1 X22.728 Y129.163 E18.28275
G1 X22.12 Y129.154 E18.31106
G1 X21.184 Y129.1 E18.35472
G1 X20.256 Y128.967 E18.39837
G1 X19.342 Y128.755 E18.44206
G1 X18.45 Y128.465 E18.48573
G1 X17.585 Y128.101 E18.52943
G1 X16.755 Y127.665 E18.57309
G1 X15.965 Y127.16 E18.61675
G1 X15.487 Y126.805 E18.64447
G1 X15.361 Y126.706 E18.65193
G1 X14.649 Y126.095 E18.69562
G1 X13.991 Y125.426 E18.73932
G1 X13.393 Y124.704 E18.78297
G1 X12.859 Y123.933 E18.82664
G1 X12.392 Y123.12 E18.8703
G1 X11.996 Y122.27 E18.91396
G1 X11.674 Y121.389 E18.95764
G1 X11.428 Y120.484 E19.00131
G1 X11.274 Y119.655 E19.04057
G1 X11.141 Y118.739 E19.08367
G1 X11.073 Y118.21 E19.10851
G1 X10.996 Y117.548 E19.13954
G1 X10.927 Y116.615 E19.1831
G1 X10.885 Y115.688 E19.22631
G1 X10.842 Y114.367 E19.28786
G1 X10.851 Y113.429 E19.33154
G1 X10.911 Y112.728 E19.3643
G1 X10.943 Y112.455 E19.3771
G1 X11.092 Y111.529 E19.42077
G1 X11.208 Y111.023 E19.44494
G1 X11.236 Y110.913 E19.45023
G1 X11.336 Y110.548 E19.46785
G1 X11.408 Y110.301 E19.47983
G1 X11.708 Y109.412 E19.52352
G1 X12.007 Y108.712 E19.55896
G1 X12.156 Y108.394 E19.57531
G1 X12.825 Y107.173 E19.64014
G1 X12.953 Y106.971 E19.65128
G1 X13.489 Y106.201 E19.69497
G1 X13.904 Y105.688 E19.72569
G1 X14.002 Y105.574 E19.73269
G1 X14.371 Y105.166 E19.75831
G1 X14.583 Y104.943 E19.77263
G1 X15.257 Y104.291 E19.8163
G1 X15.761 Y103.871 E19.84685
G1 X15.98 Y103.699 E19.85981
G1 X16.741 Y103.152 E19.90345
G1 X17.547 Y102.671 E19.94716
G1 X18.39 Y102.261 E19.99081
G1 X19.684 Y101.793 E20.05488
G1 X19.766 Y101.769 E20.05886
G1 X20.398 Y101.604 E20.08928
G1 X21.24 Y101.411 E20.1295
G1 X21.721 Y101.309 E20.1524
G0 F6000 X21.802 Y101.7
G1 F1200 X22.643 Y101.561 E20.19209
G1 X23.115 Y101.502 E20.21424
G1 X23.667 Y101.442 E20.24009
G1 X23.903 Y101.42 E20.25113
G1 X25.015 Y101.329 E20.30308
G1 X28.207 Y101.109 E20.45207
G1 X29.281 Y101.05 E20.50215
G1 X29.812 Y101.017 E20.52693
G1 X30.768 Y100.945 E20.57157
G1 X32.874 Y100.81 E20.66983
G1 X34.344 Y100.734 E20.73837
G1 X37.652 Y100.458 E20.89294
G1 X39.087 Y100.312 E20.96011
G1 X39.317 Y100.291 E20.97086
G1 X39.744 Y100.257 E20.99081
G1 X40.322 Y100.205 E21.01783
G1 X42.582 Y99.978 E21.1236
G1 X44.693 Y99.741 E21.22251
G1 X46.679 Y99.553 E21.3154
G1 X47.555 Y99.482 E21.35632
G1 X47.855 Y99.463 E21.37032
G1 X48.185 Y99.446 E21.38571
G1 X50.887 Y99.271 E21.51179
G1 X66.784 Y98.023 E22.2543
G1 X69.42 Y97.779 E22.37756
G1 X71.819 Y97.476 E22.49016
G1 X72.703 Y97.372 E22.53161
G1 X72.995 Y97.341 E22.54528
G1 X74.253 Y97.228 E22.60409
G1 X74.326 Y97.217 E22.60753
G1 X76.466 Y97.008 E22.70765
G1 X78.952 Y96.694 E22.82433
G1 X82.351 Y96.152 E22.9846
G1 X82.451 Y96.134 E22.98933
G1 X83.318 Y96.016 E23.03008
G1 X84.16 Y95.938 E23.06945
G1 X146.473 Y91.031 E25.97999
G1 X147.228 Y90.983 E26.01521
G1 X148.149 Y90.965 E26.05811
G1 X148.708 Y90.993 E26.08417
G1 X149.052 Y91.019 E26.10023
G1 X151.657 Y91.184 E26.22178
G1 X154.212 Y91.273 E26.34082
G1 X156.72 Y91.289 E26.45761
G1 X159.261 Y91.234 E26.57595
G1 X161.856 Y91.104 E26.69694
G1 X163.099 Y91.015 E26.75497
G1 X195.808 Y88.441 E28.28274
G1 X196.501 Y88.396 E28.31508
G1 X197.422 Y88.377 E28.35797
G1 X198.755 Y88.49 E28.42027
G1 X198.842 Y88.503 E28.42436
G1 X199.535 Y88.631 E28.45718
G1 X199.755 Y88.679 E28.46766
G1 X200.645 Y88.914 E28.51053
G1 X201.511 Y89.225 E28.55337
G1 X202.347 Y89.611 E28.59625
G1 X203.147 Y90.067 E28.63913
G1 X203.903 Y90.592 E28.68198
G1 X204.289 Y90.898 E28.70492
G1 X204.495 Y91.07 E28.71742
G1 X205.175 Y91.691 E28.7603
G1 X205.799 Y92.367 E28.80314
G1 X206.362 Y93.096 E28.84603
G1 X206.86 Y93.871 E28.88892
G1 X207.213 Y94.528 E28.92365
G1 X207.304 Y94.713 E28.93325
G1 X207.716 Y95.668 E28.98168
G1 X208.209 Y96.982 E29.04703
G1 X208.285 Y97.191 E29.05739
G1 X208.414 Y97.558 E29.0755
G1 X208.682 Y98.439 E29.11838
G1 X208.906 Y99.561 E29.17166
G1 X208.965 Y99.988 E29.19173
G1 X209.067 Y100.81 E29.2303
G1 X209.134 Y101.314 E29.25397
G1 X209.197 Y101.914 E29.28206
G1 X209.209 Y102.073 E29.28949
G1 X209.234 Y102.555 E29.31196
G1 X209.245 Y102.924 E29.32915
G1 X209.241 Y103.687 E29.36468
G1 X209.231 Y103.924 E29.37573
G1 X209.152 Y104.841 E29.41858
G1 X208.901 Y106.137 E29.48005
G1 X208.859 Y106.299 E29.48785
G1 X208.728 Y106.761 E29.51021
G1 X208.63 Y107.079 E29.5257
G1 X208.321 Y107.946 E29.56856
G1 X207.938 Y108.783 E29.61142
G1 X207.483 Y109.584 E29.65432
G1 X206.961 Y110.342 E29.69717
G1 X206.594 Y110.801 E29.72454
G1 X206.49 Y110.924 E29.73204
G1 X206.148 Y111.309 E29.75602
G1 X205.996 Y111.472 E29.76639
G1 X205.34 Y112.118 E29.80926
G1 X204.63 Y112.704 E29.85213
G1 X203.872 Y113.226 E29.89499
G1 X203.071 Y113.68 E29.93786
G1 X202.234 Y114.063 E29.98072
G1 X201.681 Y114.27 E30.00821
G1 X201.433 Y114.355 E30.02042
G1 X201.023 Y114.487 E30.04048
G1 X200.684 Y114.588 E30.05695
G1 X199.791 Y114.812 E30.09982
G1 X198.677 Y114.98 E30.15228
G1 X197.839 Y115.061 E30.19148
G1 X78.725 Y124.439 E35.75509
G1 X77.863 Y124.495 E35.79531
G1 X77.533 Y124.512 E35.8107
G1 X76.943 Y124.52 E35.83818
G1 X75.453 Y124.498 E35.90756
G1 X74.769 Y124.479 E35.93943
G1 X72.224 Y124.483 E36.05793
G1 X69.737 Y124.556 E36.17379
G1 X66.481 Y124.755 E36.32568
G1 X62.569 Y125.064 E36.50841
G1 X60.004 Y125.302 E36.62836
G1 X57.497 Y125.608 E36.74596
G1 X54.974 Y125.987 E36.86476
G1 X53.504 Y126.252 E36.93431
G1 X52.5 Y126.42 E36.98172
G1 X52.29 Y126.453 E36.99161
G1 X51.67 Y126.544 E37.02079
G1 X51.416 Y126.578 E37.03273
G1 X49.745 Y126.782 E37.11111
G1 X49.507 Y126.808 E37.12226
G1 X49.046 Y126.854 E37.14383
G1 X48.115 Y126.958 E37.18745
G1 X47.229 Y127.044 E37.2289
G1 X46.528 Y127.121 E37.26174
G1 X45.788 Y127.194 E37.29637
G1 X43.668 Y127.394 E37.39552
G1 X42.017 Y127.538 E37.47269
G1 X41.444 Y127.591 E37.49949
G1 X38.441 Y127.829 E37.63976
G1 X37.34 Y127.919 E37.69119
G1 X37.22 Y127.924 E37.69679
G1 X33.698 Y128.201 E37.86129
G1 X32.745 Y128.263 E37.90576
G1 X32.111 Y128.308 E37.93536
G1 X29.609 Y128.468 E38.0521
G1 X29.441 Y128.476 E38.05993
G1 X28.255 Y128.552 E38.11527
G1 X27.999 Y128.565 E38.1272
G1 X27.306 Y128.609 E38.15954
G1 X26.7 Y128.639 E38.18779
G1 X25.273 Y128.691 E38.25428
G1 X24.131 Y128.741 E38.30751
G1 X23.845 Y128.75 E38.32083
G1 X23.069 Y128.763 E38.35697
G1 X22.734 Y128.763 E38.37257
G1 X22.126 Y128.754 E38.40089
G1 X21.207 Y128.7 E38.44375
G1 X20.296 Y128.567 E38.48662
G1 X19.4 Y128.355 E38.5295
G1 X18.526 Y128.067 E38.57234
G1 X17.68 Y127.703 E38.61523
G1 X16.869 Y127.268 E38.65808
G1 X15.734 Y126.49 E38.72216
G1 X15.608 Y126.391 E38.72962
G1 X14.91 Y125.791 E38.77248
G1 X14.266 Y125.133 E38.81535
G1 X13.681 Y124.422 E38.85822
G1 X13.161 Y123.662 E38.9011
G1 X12.708 Y122.861 E38.94395
G1 X12.327 Y122.023 E38.98682
G1 X12.02 Y121.155 E39.02969
G1 X11.789 Y120.263 E39.07259
G1 X11.67 Y119.597 E39.1041
G1 X11.537 Y118.687 E39.14692
G1 X11.47 Y118.164 E39.17147
G1 X11.393 Y117.502 E39.20251
G1 X11.327 Y116.603 E39.24448
G1 X11.285 Y115.675 E39.28773
G1 X11.242 Y114.354 E39.34928
G1 X11.252 Y113.433 E39.39217
G1 X11.308 Y112.775 E39.42292
G1 X11.34 Y112.502 E39.43572
G1 X11.487 Y111.593 E39.47859
G1 X11.596 Y111.121 E39.50115
G1 X11.624 Y111.011 E39.50643
G1 X11.72 Y110.66 E39.52338
G1 X11.792 Y110.413 E39.53536
G1 X12.087 Y109.541 E39.57822
G1 X12.369 Y108.882 E39.6116
G1 X12.518 Y108.564 E39.62795
G1 X13.163 Y107.387 E39.69045
G1 X13.291 Y107.185 E39.70158
G1 X13.817 Y106.43 E39.74443
G1 X14.207 Y105.949 E39.77327
G1 X14.305 Y105.835 E39.78027
G1 X14.661 Y105.442 E39.80496
G1 X14.873 Y105.219 E39.81928
G1 X15.535 Y104.579 E39.86216
G1 X16.008 Y104.186 E39.8908
G1 X16.227 Y104.014 E39.90376
G1 X16.975 Y103.477 E39.94664
G1 X17.767 Y103.007 E39.98952
G1 X18.596 Y102.608 E40.03236
G1 X19.796 Y102.177 E40.09173
G1 X19.878 Y102.153 E40.09571
G1 X20.488 Y101.994 E40.12507
G1 X21.542 Y101.754 E40.1754
G1 X21.802 Y101.7 E40.18777
G0 F6000 X21.884 Y102.092
G1 F1200 X22.693 Y101.958 E40.22595
G1 X23.365 Y101.876 E40.25747
G1 X23.935 Y101.818 E40.28415
G1 X25.043 Y101.728 E40.33591
G1 X28.382 Y101.499 E40.49176
G1 X29.331 Y101.447 E40.53601
G1 X29.872 Y101.413 E40.56125
G1 X30.794 Y101.344 E40.60431
G1 X32.762 Y101.217 E40.69614
G1 X34.336 Y101.136 E40.76952
G1 X37.675 Y100.857 E40.92554
G1 X39.128 Y100.709 E40.99355
G1 X39.349 Y100.689 E41.00388
G1 X39.805 Y100.653 E41.02518
G1 X40.409 Y100.599 E41.05342
G1 X42.661 Y100.372 E41.15881
G1 X44.92 Y100.12 E41.26466
G1 X46.867 Y99.938 E41.35571
G1 X47.587 Y99.881 E41.38934
G1 X47.875 Y99.862 E41.40278
G1 X48.233 Y99.844 E41.41947
G1 X50.868 Y99.673 E41.54243
G1 X66.924 Y98.412 E42.29236
G1 X69.417 Y98.181 E42.40895
G1 X71.866 Y97.873 E42.52388
G1 X72.75 Y97.769 E42.56533
G1 X73.031 Y97.74 E42.57848
G1 X74.252 Y97.63 E42.63557
G1 X74.365 Y97.615 E42.64087
G1 X76.519 Y97.405 E42.74165
G1 X79.005 Y97.091 E42.85833
G1 X82.427 Y96.545 E43.01969
G1 X82.521 Y96.528 E43.02413
G1 X83.355 Y96.414 E43.06333
G1 X84.191 Y96.336 E43.10243
G1 X146.345 Y91.441 E46.00554
G1 X147.254 Y91.383 E46.04795
G1 X148.157 Y91.365 E46.09001
G1 X148.678 Y91.392 E46.1143
G1 X148.998 Y91.416 E46.12924
G1 X151.654 Y91.584 E46.25316
G1 X154.195 Y91.673 E46.37156
G1 X156.727 Y91.689 E46.48946
G1 X159.289 Y91.634 E46.60878
G1 X161.855 Y91.505 E46.72842
G1 X163.099 Y91.416 E46.78649
G1 X195.834 Y88.84 E48.31548
G1 X196.527 Y88.795 E48.34782
G1 X197.43 Y88.777 E48.38988
G1 X198.695 Y88.886 E48.449
G1 X198.782 Y88.899 E48.45309
G1 X199.449 Y89.021 E48.48467
G1 X199.669 Y89.069 E48.49515
G1 X200.542 Y89.301 E48.53721
G1 X201.391 Y89.609 E48.57927
G1 X202.21 Y89.99 E48.62133
G1 X202.991 Y90.443 E48.66337
G1 X204.032 Y91.205 E48.72344
G1 X204.238 Y91.377 E48.73594
G1 X204.905 Y91.986 E48.77799
G1 X205.516 Y92.652 E48.82008
G1 X206.065 Y93.369 E48.86213
G1 X206.549 Y94.131 E48.90416
G1 X206.854 Y94.705 E48.93443
G1 X206.945 Y94.89 E48.94403
G1 X207.342 Y95.809 E48.99065
G1 X207.835 Y97.123 E49.056
G1 X207.908 Y97.324 E49.06595
G1 X208.037 Y97.691 E49.08407
G1 X208.298 Y98.555 E49.12609
G1 X208.51 Y99.618 E49.17657
G1 X208.568 Y100.037 E49.19626
G1 X208.664 Y100.81 E49.23253
G1 X208.738 Y101.366 E49.25865
G1 X208.798 Y101.944 E49.28571
G1 X208.81 Y102.103 E49.29314
G1 X208.834 Y102.567 E49.31477
G1 X208.845 Y102.936 E49.33196
G1 X208.841 Y103.67 E49.36614
G1 X208.831 Y103.907 E49.37718
G1 X208.753 Y104.807 E49.41925
G1 X208.514 Y106.037 E49.47759
G1 X208.472 Y106.199 E49.48539
G1 X208.346 Y106.643 E49.50688
G1 X208.248 Y106.961 E49.52237
G1 X207.944 Y107.811 E49.56441
G1 X207.566 Y108.632 E49.60649
G1 X207.117 Y109.415 E49.64852
G1 X206.6 Y110.156 E49.69059
G1 X206.289 Y110.543 E49.71371
G1 X206.185 Y110.666 E49.72121
G1 X205.856 Y111.036 E49.74427
G1 X205.704 Y111.199 E49.75465
G1 X205.059 Y111.832 E49.79673
G1 X204.361 Y112.405 E49.83878
G1 X203.615 Y112.914 E49.88083
