;FLAVOR:Marlin
;TIME:4481
;Filament used: 2.70878m
;Layer height: 0.2
;MINX:35.22
;MINY:35.865
;MINZ:0.2
;MAXX:185.447
;MAXY:184.759
;MAXZ:11.4
;Generated with Cura_SteamEngine 4.8.0
M140 S80
M105
M190 S80
M104 S235
M105
M109 S235
M82 ;absolute extrusion mode
; Ender 3 Custom Start G-code
G92 E0 ; Reset Extruder
G28 ; Home all axes
G1 Z2.0 F3000 ; Move Z Axis up little to prevent scratching of Heat Bed
G1 X0.1 Y20 Z0.3 F5000.0 ; Move to start position
G1 X0.1 Y200.0 Z0.3 F1500.0 E15 ; Draw the first line
G1 X0.4 Y200.0 Z0.3 F5000.0 ; Move to side a little
G1 X0.4 Y20 Z0.3 F1500.0 E30 ; Draw the second line
G92 E0 ; Reset Extruder
G1 Z2.0 F3000 ; Move Z Axis up little to prevent scratching of Heat Bed
G1 X5 Y20 Z0.3 F5000.0 ; Move over to prevent blob squish
G92 E0
G92 E0
G1 F1500 E-6.5
;LAYER_COUNT:57
;LAYER:0
M107
G0 F6000 X121.038 Y80.024 Z0.2
;TYPE:SKIRT
G1 F1500 E0
G1 F1200 X122.861 Y78.148 E0.087
G1 X124.596 Y76.26 E0.17229
G1 X125.697 Y75.004 E0.22784
G1 X126.345 Y74.326 E0.25903
G1 X126.721 Y73.981 E0.27601
G1 X126.892 Y73.831 E0.28357
G1 X128.848 Y72.071 E0.37109
G1 X131.39 Y69.624 E0.48844
G1 X139.582 Y61.432 E0.87377
G1 X141.43 Y59.53 E0.96197
G1 X143.228 Y57.572 E1.05039
G1 X143.581 Y57.184 E1.06783
G1 X144.026 Y56.721 E1.08919
G1 X144.325 Y56.43 E1.10307
G1 X145.939 Y54.895 E1.17715
G1 X146.772 Y54.059 E1.21641
G1 X147.635 Y53.204 E1.25681
G1 X148.654 Y52.189 E1.30465
G1 X148.796 Y52.051 E1.31123
G1 X149.538 Y51.313 E1.34604
G1 X149.767 Y51.091 E1.35665
G1 X150.645 Y50.22 E1.39778
G1 X151.356 Y49.496 E1.43153
G1 X153.021 Y47.827 E1.50994
G1 X153.67 Y47.192 E1.54014
G1 X154.477 Y46.375 E1.57834
G1 X155.028 Y45.829 E1.60414
G1 X156.499 Y44.336 E1.67385
G1 X156.727 Y44.11 E1.68453
G1 X157.453 Y43.375 E1.71889
G1 X157.753 Y43.08 E1.73288
G1 X158.163 Y42.668 E1.75221
G1 X159.386 Y41.468 E1.8092
G1 X159.742 Y41.115 E1.82588
G1 X160.078 Y40.791 E1.8414
G1 X160.542 Y40.368 E1.86228
G1 X160.882 Y40.079 E1.87713
G1 X161.627 Y39.464 E1.90926
G1 X162.54 Y38.697 E1.94892
G1 X163.284 Y38.125 E1.98013
G1 X164.073 Y37.618 E2.01132
G1 X164.902 Y37.18 E2.04251
G1 X165.458 Y36.935 E2.06272
G1 X165.814 Y36.793 E2.07546
G1 X166.359 Y36.585 E2.09487
G1 X167.248 Y36.288 E2.12604
G1 X168.16 Y36.068 E2.15724
G1 X169.087 Y35.927 E2.18843
G1 X170.023 Y35.865 E2.21963
G1 X170.558 Y35.865 E2.23743
G1 X170.836 Y35.872 E2.24667
G1 X171.772 Y35.936 E2.27788
G1 X172.887 Y36.118 E2.31545
G1 X173.321 Y36.212 E2.33022
G1 X174.229 Y36.45 E2.36144
G1 X174.968 Y36.706 E2.38746
G1 X175.097 Y36.756 E2.39206
G1 X176.167 Y37.238 E2.43109
G1 X176.446 Y37.382 E2.44153
G1 X177.26 Y37.847 E2.47271
G1 X178.105 Y38.436 E2.50697
G1 X178.944 Y39.081 E2.54217
G1 X179.485 Y39.513 E2.5652
G1 X180.044 Y39.975 E2.58932
G1 X180.744 Y40.606 E2.62066
G1 X181.289 Y41.143 E2.64611
G1 X181.838 Y41.697 E2.67205
G1 X182.357 Y42.234 E2.69689
G1 X182.979 Y42.935 E2.72806
G1 X183.539 Y43.687 E2.75925
G1 X184.034 Y44.484 E2.79045
G1 X184.458 Y45.32 E2.82163
G1 X184.81 Y46.19 E2.85284
G1 X185.087 Y47.086 E2.88404
G1 X185.286 Y48.002 E2.91521
G1 X185.406 Y48.933 E2.94643
G1 X185.447 Y49.878 E2.97789
G1 X185.447 Y50.03 E2.98295
G1 X185.407 Y50.967 E3.01414
G1 X185.287 Y51.897 E3.04533
G1 X185.089 Y52.814 E3.07653
G1 X184.813 Y53.71 E3.10772
G1 X184.462 Y54.58 E3.13892
G1 X184.038 Y55.416 E3.1701
G1 X183.544 Y56.214 E3.20131
G1 X182.984 Y56.966 E3.2325
G1 X182.513 Y57.509 E3.2564
G1 X182.172 Y57.872 E3.27297
G1 X181.907 Y58.141 E3.28553
G1 X175.81 Y64.236 E3.57227
G1 X174.038 Y66 E3.65543
G1 X173.591 Y66.456 E3.67667
G1 X170.801 Y69.245 E3.80788
G1 X170.682 Y69.361 E3.8134
G1 X169.096 Y70.942 E3.88789
G1 X168.535 Y71.513 E3.91451
G1 X162.529 Y77.521 E4.19706
G1 X162.359 Y77.687 E4.20496
G1 X161.931 Y78.097 E4.22468
G1 X161.262 Y78.689 E4.25439
G1 X160.486 Y79.32 E4.28765
G1 X159.82 Y79.846 E4.31588
G1 X157.867 Y81.478 E4.40053
G1 X155.987 Y83.144 E4.48408
G1 X154.136 Y84.877 E4.56842
G1 X153 Y85.992 E4.62136
G1 X150.294 Y88.697 E4.74862
G1 X148.488 Y90.555 E4.8348
G1 X146.779 Y92.415 E4.91881
G1 X145.968 Y93.319 E4.9592
G1 X145.079 Y94.202 E5.00088
G1 X144.078 Y95.09 E5.04538
G1 X142.154 Y96.846 E5.13202
G1 X140.074 Y98.86 E5.22832
G1 X57.875 Y181.061 E9.09475
G1 X57.38 Y181.541 E9.11769
G1 X56.679 Y182.165 E9.1489
G1 X55.928 Y182.726 E9.18008
G1 X55.211 Y183.177 E9.20825
G1 X55.013 Y183.291 E9.21585
G1 X54.181 Y183.724 E9.24705
G1 X53.315 Y184.084 E9.27824
G1 X52.421 Y184.37 E9.30946
G1 X51.507 Y184.578 E9.34064
G1 X50.578 Y184.707 E9.37183
G1 X49.943 Y184.75 E9.393
G1 X49.707 Y184.759 E9.40086
G1 X48.769 Y184.755 E9.43205
G1 X47.835 Y184.671 E9.46324
G1 X46.912 Y184.507 E9.49442
G1 X46.005 Y184.266 E9.52564
G1 X45.123 Y183.948 E9.55682
G1 X44.152 Y183.494 E9.59247
G1 X43.902 Y183.362 E9.60188
G1 X43.092 Y182.889 E9.63307
G1 X42.325 Y182.349 E9.66427
G1 X41.383 Y181.534 E9.7057
G1 X40.743 Y180.913 E9.73536
G1 X38.982 Y179.151 E9.81822
G1 X38.469 Y178.624 E9.84268
G1 X37.844 Y177.924 E9.87389
G1 X37.281 Y177.174 E9.90508
G1 X36.742 Y176.305 E9.93909
G1 X36.63 Y176.104 E9.94675
G1 X36.209 Y175.266 E9.97794
G1 X35.861 Y174.395 E10.00914
G1 X35.588 Y173.498 E10.04032
G1 X35.392 Y172.581 E10.07151
G1 X35.293 Y171.839 E10.09641
G1 X35.273 Y171.638 E10.10313
G1 X35.22 Y170.702 E10.13431
G1 X35.247 Y169.764 E10.16552
G1 X35.354 Y168.833 E10.19669
G1 X35.539 Y167.913 E10.2279
G1 X35.803 Y167.013 E10.25909
G1 X36.142 Y166.139 E10.29027
G1 X36.395 Y165.6 E10.31008
G1 X36.527 Y165.338 E10.31984
G1 X36.985 Y164.519 E10.35105
G1 X37.51 Y163.742 E10.38223
G1 X38.013 Y163.112 E10.40905
G1 X38.05 Y163.069 E10.41093
G1 X38.504 Y162.573 E10.4333
G1 X39.044 Y162.02 E10.45901
G1 X121.038 Y80.024 E14.3158
G0 F6000 X121.325 Y80.303
G1 F1200 X123.16 Y78.415 E14.40337
G1 X124.888 Y76.535 E14.4883
G1 X125.998 Y75.268 E14.54432
G1 X126.634 Y74.602 E14.57495
G1 X126.984 Y74.282 E14.59073
G1 X127.18 Y74.11 E14.5994
G1 X129.109 Y72.375 E14.68569
G1 X131.694 Y69.886 E14.80505
G1 X139.869 Y61.711 E15.18957
G1 X141.712 Y59.814 E15.27754
G1 X143.523 Y57.842 E15.36659
G1 X143.877 Y57.453 E15.38408
G1 X144.306 Y57.007 E15.40467
G1 X144.601 Y56.72 E15.41836
G1 X146.196 Y55.203 E15.49157
G1 X147.054 Y54.343 E15.53197
G1 X147.917 Y53.488 E15.57238
G1 X148.932 Y52.476 E15.62005
G1 X149.073 Y52.339 E15.62659
G1 X149.817 Y51.6 E15.66147
G1 X149.988 Y51.434 E15.66939
G1 X150.965 Y50.465 E15.71516
G1 X151.64 Y49.779 E15.74717
G1 X153.301 Y48.113 E15.82542
G1 X153.952 Y47.476 E15.85571
G1 X154.758 Y46.659 E15.89388
G1 X155.37 Y46.052 E15.92255
G1 X156.78 Y44.621 E15.98937
G1 X157.011 Y44.393 E16.00016
G1 X157.734 Y43.66 E16.03441
G1 X157.969 Y43.429 E16.04537
G1 X158.443 Y42.954 E16.06769
G1 X159.666 Y41.754 E16.12467
G1 X160.019 Y41.403 E16.14123
G1 X160.355 Y41.079 E16.15676
G1 X160.803 Y40.671 E16.17691
G1 X161.136 Y40.387 E16.19147
G1 X161.955 Y39.711 E16.22679
G1 X162.798 Y39.003 E16.2634
G1 X163.528 Y38.442 E16.29402
G1 X164.304 Y37.946 E16.32466
G1 X165.12 Y37.52 E16.35527
G1 X165.609 Y37.306 E16.37303
G1 X165.956 Y37.167 E16.38546
G1 X166.501 Y36.959 E16.40486
G1 X167.375 Y36.668 E16.4355
G1 X168.27 Y36.454 E16.46611
G1 X169.181 Y36.319 E16.49674
G1 X170.548 Y36.265 E16.54224
G1 X170.826 Y36.272 E16.55149
G1 X171.744 Y36.335 E16.58209
G1 X172.803 Y36.509 E16.61779
G1 X173.237 Y36.603 E16.63256
G1 X174.127 Y36.837 E16.66316
G1 X174.824 Y37.079 E16.6877
G1 X174.953 Y37.129 E16.69231
G1 X175.984 Y37.594 E16.72992
G1 X176.263 Y37.738 E16.74037
G1 X177.062 Y38.195 E16.77098
G1 X177.862 Y38.753 E16.80342
G1 X178.701 Y39.398 E16.83862
G1 X179.23 Y39.821 E16.86115
G1 X179.789 Y40.283 E16.88527
G1 X180.464 Y40.892 E16.91551
G1 X181.006 Y41.425 E16.94079
G1 X181.55 Y41.974 E16.9665
G1 X182.069 Y42.511 E16.99133
G1 X182.679 Y43.201 E17.02197
G1 X183.228 Y43.94 E17.05259
G1 X183.71 Y44.725 E17.08322
G1 X184.122 Y45.548 E17.11384
G1 X184.461 Y46.404 E17.14446
G1 X184.725 Y47.286 E17.17508
G1 X184.911 Y48.187 E17.20568
G1 X185.019 Y49.102 E17.23632
G1 X185.047 Y49.878 E17.26215
G1 X185.047 Y50.03 E17.2672
G1 X185.007 Y50.95 E17.29783
G1 X184.887 Y51.863 E17.32846
G1 X184.689 Y52.762 E17.35908
G1 X184.413 Y53.64 E17.38969
G1 X184.062 Y54.491 E17.42031
G1 X183.639 Y55.309 E17.45094
G1 X183.146 Y56.086 E17.48154
G1 X182.588 Y56.818 E17.51216
G1 X182.22 Y57.237 E17.5307
G1 X182.08 Y57.388 E17.53755
G1 X181.886 Y57.592 E17.54692
G1 X181.624 Y57.859 E17.55936
G1 X175.528 Y63.953 E17.84605
G1 X173.753 Y65.72 E17.92935
G1 X173.387 Y66.094 E17.94675
G1 X170.522 Y68.958 E18.08149
G1 X168.811 Y70.661 E18.16178
G1 X168.253 Y71.23 E18.18829
G1 X162.247 Y77.238 E18.47084
G1 X162.083 Y77.399 E18.47849
G1 X161.655 Y77.809 E18.4982
G1 X161.009 Y78.378 E18.52683
G1 X160.112 Y79.106 E18.56525
G1 X159.561 Y79.541 E18.5886
G1 X157.611 Y81.171 E18.67314
G1 X155.729 Y82.838 E18.75676
G1 X153.844 Y84.603 E18.84264
G1 X152.717 Y85.709 E18.89516
G1 X150.007 Y88.418 E19.02261
G1 X148.206 Y90.271 E19.10856
G1 X146.424 Y92.21 E19.19615
G1 X145.67 Y93.051 E19.23371
G1 X144.814 Y93.903 E19.27388
G1 X143.826 Y94.779 E19.3178
G1 X141.872 Y96.563 E19.4058
G1 X139.764 Y98.604 E19.50339
G1 X57.596 Y180.774 E23.36837
G1 X57.101 Y181.254 E23.39131
G1 X56.413 Y181.865 E23.42191
G1 X55.674 Y182.415 E23.45255
G1 X55.011 Y182.83 E23.47856
G1 X54.813 Y182.944 E23.48616
G1 X53.996 Y183.368 E23.51678
G1 X53.145 Y183.72 E23.54741
G1 X52.267 Y183.997 E23.57803
G1 X51.368 Y184.196 E23.60865
G1 X50.456 Y184.317 E23.63925
G1 X49.928 Y184.35 E23.65685
G1 X49.692 Y184.359 E23.6647
G1 X48.771 Y184.354 E23.69534
G1 X47.855 Y184.27 E23.72593
G1 X46.949 Y184.106 E23.75655
G1 X46.06 Y183.864 E23.7872
G1 X45.196 Y183.545 E23.81783
G1 X44.339 Y183.141 E23.84934
G1 X44.089 Y183.009 E23.85875
G1 X43.294 Y182.544 E23.88938
G1 X42.543 Y182.012 E23.91999
G1 X41.661 Y181.247 E23.95882
G1 X41.026 Y180.63 E23.98827
G1 X39.268 Y178.872 E24.07096
G1 X38.755 Y178.345 E24.09542
G1 X38.143 Y177.658 E24.12602
G1 X37.592 Y176.92 E24.15666
G1 X37.091 Y176.111 E24.18831
G1 X36.979 Y175.91 E24.19596
G1 X36.567 Y175.087 E24.22657
G1 X36.227 Y174.231 E24.25721
G1 X35.963 Y173.349 E24.28783
G1 X35.776 Y172.448 E24.31843
G1 X35.691 Y171.8 E24.34017
G1 X35.671 Y171.599 E24.34689
G1 X35.62 Y170.679 E24.37753
G1 X35.648 Y169.759 E24.40815
G1 X35.757 Y168.845 E24.43876
G1 X35.944 Y167.943 E24.4694
G1 X36.209 Y167.062 E24.5
G1 X36.549 Y166.206 E24.53063
G1 X36.753 Y165.78 E24.54634
G1 X36.885 Y165.518 E24.5561
G1 X37.334 Y164.714 E24.58673
G1 X37.852 Y163.953 E24.61735
G1 X38.316 Y163.373 E24.64205
G1 X38.353 Y163.33 E24.64394
G1 X38.791 Y162.852 E24.6655
G1 X39.327 Y162.303 E24.69102
G1 X121.325 Y80.303 E28.548
G0 F6000 X121.611 Y80.582
G1 F1200 X123.458 Y78.682 E28.63614
G1 X125.181 Y76.806 E28.72086
G1 X126.299 Y75.531 E28.77726
G1 X127.248 Y74.582 E28.8219
G1 X127.469 Y74.388 E28.83168
G1 X129.372 Y72.676 E28.91681
G1 X131.998 Y70.148 E29.03805
G1 X140.122 Y62.024 E29.42018
G1 X142.009 Y60.081 E29.51026
G1 X143.817 Y58.113 E29.59915
G1 X144.173 Y57.722 E29.61674
G1 X144.586 Y57.293 E29.63654
G1 X144.877 Y57.01 E29.65004
G1 X146.473 Y55.492 E29.7233
G1 X147.335 Y54.627 E29.76392
G1 X148.198 Y53.772 E29.80432
G1 X149.211 Y52.763 E29.85188
G1 X149.351 Y52.627 E29.85837
G1 X150.095 Y51.887 E29.89327
G1 X150.324 Y51.665 E29.90388
G1 X151.25 Y50.747 E29.94725
G1 X151.923 Y50.061 E29.97921
G1 X153.581 Y48.399 E30.05729
G1 X154.234 Y47.76 E30.08768
G1 X155.04 Y46.943 E30.12585
G1 X155.652 Y46.336 E30.15452
G1 X157.061 Y44.905 E30.22132
G1 X157.35 Y44.619 E30.23484
G1 X158.014 Y43.945 E30.26631
G1 X158.314 Y43.65 E30.2803
G1 X158.723 Y43.239 E30.29959
G1 X159.946 Y42.04 E30.35655
G1 X160.297 Y41.691 E30.37301
G1 X160.633 Y41.367 E30.38854
G1 X161.064 Y40.974 E30.40794
G1 X161.391 Y40.696 E30.42221
G1 X162.142 Y40.076 E30.4546
G1 X163.055 Y39.309 E30.49426
G1 X163.772 Y38.759 E30.52432
G1 X164.534 Y38.275 E30.55434
G1 X165.336 Y37.86 E30.58438
G1 X165.76 Y37.676 E30.59975
G1 X166.099 Y37.54 E30.6119
G1 X166.644 Y37.332 E30.6313
G1 X167.501 Y37.048 E30.66133
G1 X168.38 Y36.841 E30.69137
G1 X169.274 Y36.712 E30.72141
G1 X170.538 Y36.665 E30.76348
G1 X170.816 Y36.672 E30.77273
G1 X171.717 Y36.735 E30.80277
G1 X172.718 Y36.9 E30.83651
G1 X173.152 Y36.994 E30.85128
G1 X174.025 Y37.224 E30.88131
G1 X174.679 Y37.452 E30.90434
G1 X174.808 Y37.502 E30.90895
G1 X175.8 Y37.949 E30.94513
G1 X176.079 Y38.093 E30.95558
G1 X176.863 Y38.542 E30.98563
G1 X177.618 Y39.07 E31.01627
G1 X178.457 Y39.715 E31.05147
G1 X178.857 Y40.034 E31.06848
G1 X179.534 Y40.592 E31.09766
G1 X180.183 Y41.177 E31.12673
G1 X180.722 Y41.707 E31.15187
G1 X181.262 Y42.252 E31.17739
G1 X181.781 Y42.789 E31.20222
G1 X182.38 Y43.466 E31.23229
G1 X182.916 Y44.193 E31.26233
G1 X183.385 Y44.964 E31.29235
G1 X183.785 Y45.774 E31.32239
G1 X184.111 Y46.616 E31.35242
G1 X184.362 Y47.484 E31.38248
G1 X184.535 Y48.37 E31.4125
G1 X184.629 Y49.268 E31.44253
G1 X184.647 Y49.878 E31.46283
G1 X184.647 Y50.03 E31.46789
G1 X184.607 Y50.932 E31.49792
G1 X184.487 Y51.827 E31.52795
G1 X184.289 Y52.708 E31.55798
G1 X184.014 Y53.568 E31.58801
G1 X183.663 Y54.401 E31.61808
G1 X183.24 Y55.199 E31.64812
G1 X182.749 Y55.956 E31.67813
G1 X181.927 Y56.965 E31.72142
G1 X181.787 Y57.116 E31.72826
G1 X181.6 Y57.312 E31.73727
G1 X181.341 Y57.576 E31.74957
G1 X175.246 Y63.669 E32.03622
G1 X173.468 Y65.439 E32.11966
G1 X173.101 Y65.814 E32.13711
G1 X170.243 Y68.672 E32.27154
G1 X170.124 Y68.787 E32.27705
G1 X168.526 Y70.38 E32.3521
G1 X167.97 Y70.947 E32.37851
G1 X161.964 Y76.955 E32.66106
G1 X161.806 Y77.11 E32.66842
G1 X161.378 Y77.52 E32.68813
G1 X160.757 Y78.068 E32.71568
G1 X159.981 Y78.699 E32.74895
G1 X159.319 Y79.222 E32.77701
G1 X157.335 Y80.88 E32.863
G1 X155.456 Y82.545 E32.94651
G1 X153.595 Y84.288 E33.03131
G1 X152.368 Y85.492 E33.08849
G1 X149.72 Y88.139 E33.21302
G1 X147.926 Y89.985 E33.29863
G1 X146.102 Y91.97 E33.3883
G1 X145.372 Y92.784 E33.42466
G1 X144.549 Y93.604 E33.4633
G1 X143.501 Y94.534 E33.5099
G1 X141.607 Y96.263 E33.5952
G1 X139.518 Y98.285 E33.6919
G1 X57.318 Y180.487 E37.55838
G1 X56.823 Y180.967 E37.58131
G1 X56.147 Y181.566 E37.61135
G1 X55.421 Y182.103 E37.64139
G1 X54.811 Y182.484 E37.66531
G1 X54.613 Y182.598 E37.67291
G1 X53.812 Y183.013 E37.70291
G1 X52.976 Y183.356 E37.73297
G1 X52.114 Y183.624 E37.76299
G1 X51.231 Y183.814 E37.79303
G1 X49.913 Y183.951 E37.83711
G1 X49.677 Y183.96 E37.84496
G1 X48.774 Y183.954 E37.875
G1 X47.875 Y183.869 E37.90503
G1 X46.987 Y183.704 E37.93507
G1 X46.117 Y183.461 E37.96511
G1 X45.272 Y183.143 E37.99514
G1 X44.525 Y182.787 E38.02267
G1 X44.275 Y182.655 E38.03207
G1 X43.496 Y182.198 E38.06211
G1 X42.761 Y181.675 E38.09211
G1 X41.939 Y180.96 E38.12835
G1 X41.42 Y180.457 E38.15239
G1 X39.555 Y178.593 E38.24009
G1 X39.042 Y178.066 E38.26455
G1 X38.441 Y177.391 E38.29461
G1 X37.903 Y176.666 E38.32464
G1 X37.441 Y175.916 E38.35393
G1 X37.329 Y175.715 E38.36159
G1 X36.925 Y174.907 E38.39163
G1 X36.593 Y174.067 E38.42167
G1 X36.338 Y173.201 E38.4517
G1 X36.16 Y172.316 E38.48173
G1 X36.089 Y171.76 E38.50037
G1 X36.069 Y171.559 E38.50709
G1 X36.02 Y170.657 E38.53713
G1 X36.05 Y169.755 E38.56715
G1 X36.16 Y168.858 E38.59721
G1 X36.349 Y167.975 E38.62724
G1 X36.615 Y167.112 E38.65728
G1 X37.11 Y165.96 E38.69898
G1 X37.242 Y165.698 E38.70874
G1 X37.683 Y164.91 E38.73877
G1 X38.193 Y164.164 E38.76883
G1 X38.619 Y163.634 E38.79144
G1 X38.656 Y163.591 E38.79333
G1 X39.078 Y163.131 E38.81409
G1 X39.609 Y162.586 E38.8394
G1 X121.611 Y80.582 E42.69657
G1 F1500 E36.19657
G0 F6000 X152.57 Y67.675
G1 F1500 E42.69657
G1 F1200 X153.365 Y66.88 E42.73396
G1 X153.657 Y66.531 E42.7491
G1 X153.711 Y66.432 E42.75285
G1 X154.048 Y66.769 E42.7687
G1 X153.251 Y67.568 E42.80624
G1 X152.785 Y67.614 E42.82181
G1 X152.57 Y67.675 E42.82924
G0 F6000 X152.827 Y68.013
G1 F1200 X152.426 Y68.136 E42.8432
G1 X152.056 Y68.333 E42.85714
G1 X151.715 Y68.612 E42.87179
G1 X137.15 Y83.173 E43.55679
G1 X137.129 Y83.196 E43.55783
G1 X136.801 Y83.069 E43.56952
G1 X136.702 Y82.969 E43.57421
G1 X136.848 Y82.834 E43.58082
G1 X153.082 Y66.597 E44.34449
G1 X153.348 Y66.274 E44.3584
G1 X153.483 Y66.084 E44.36616
G1 X153.726 Y65.881 E44.37669
