;FLAVOR:Marlin
;TIME:14213
;Filament used: 12.8354m
;Layer height: 0.28
;MINX:54.55
;MINY:48.2
;MINZ:0.28
;MAXX:165.45
;MAXY:171.8
;MAXZ:27.72
;Generated with Cura_SteamEngine 4.8.0
M140 S60
M105
M190 S60
M104 S215
M105
M109 S215
M82 ;absolute extrusion mode
; Ender 3 Custom Start G-code
G92 E0 ; Reset Extruder
G28 ; Home all axes
G1 Z2.0 F3000 ; Move Z Axis up little to prevent scratching of Heat Bed
G1 X0.1 Y20 Z0.3 F5000.0 ; Move to start position
G1 X0.1 Y200.0 Z0.3 F1500.0 E15 ; Draw the first line
G1 X0.4 Y200.0 Z0.3 F5000.0 ; Move to side a little
G1 X0.4 Y20 Z0.3 F1500.0 E30 ; Draw the second line
G92 E0 ; Reset Extruder
G1 Z2.0 F3000 ; Move Z Axis up little to prevent scratching of Heat Bed
G1 X5 Y20 Z0.3 F5000.0 ; Move over to prevent blob squish
G92 E0
G92 E0
G1 F1500 E-6.5
;LAYER_COUNT:99
;LAYER:0
M107
G0 F6000 X57.116 Y52.158 Z0.28
;TYPE:SKIRT
G1 F1500 E0
G1 F1200 X57.748 Y51.464 E0.04371
G1 X58.436 Y50.827 E0.08737
G1 X59.176 Y50.251 E0.13103
G1 X59.962 Y49.739 E0.17471
G1 X60.789 Y49.297 E0.21838
G1 X61.651 Y48.927 E0.26205
G1 X62.541 Y48.631 E0.30573
G1 X63.453 Y48.413 E0.34939
G1 X64.38 Y48.272 E0.39305
G1 X65.251 Y48.213 E0.4337
G1 X65.572 Y48.204 E0.44866
G1 X65.88 Y48.2 E0.463
G1 X153.743 Y48.2 E4.55427
G1 X154.599 Y48.211 E4.59413
G1 X155.535 Y48.265 E4.63779
G1 X156.463 Y48.397 E4.68143
G1 X157.377 Y48.609 E4.72512
G1 X158.269 Y48.898 E4.76878
G1 X159.134 Y49.261 E4.81247
G1 X159.964 Y49.697 E4.85612
G1 X160.755 Y50.202 E4.89982
G1 X161.499 Y50.773 E4.94349
G1 X162.192 Y51.405 E4.98716
G1 X162.829 Y52.093 E5.03082
G1 X163.404 Y52.834 E5.0745
G1 X163.915 Y53.62 E5.11815
G1 X164.357 Y54.448 E5.16186
G1 X164.726 Y55.31 E5.20552
G1 X165.021 Y56.2 E5.24918
G1 X165.239 Y57.112 E5.29284
G1 X165.379 Y58.04 E5.33654
G1 X165.437 Y58.901 E5.37672
G1 X165.446 Y59.221 E5.39163
G1 X165.45 Y59.53 E5.40602
G1 X165.449 Y160.2 E10.09364
G1 X165.44 Y160.927 E10.12749
G1 X165.389 Y161.864 E10.17119
G1 X165.257 Y162.792 E10.21483
G1 X165.048 Y163.706 E10.25849
G1 X164.761 Y164.599 E10.30217
G1 X164.399 Y165.465 E10.34587
G1 X163.965 Y166.296 E10.38953
G1 X163.461 Y167.087 E10.4332
G1 X162.892 Y167.832 E10.47685
G1 X162.261 Y168.527 E10.52056
G1 X161.574 Y169.165 E10.56422
G1 X160.835 Y169.742 E10.60788
G1 X160.049 Y170.254 E10.65156
G1 X159.223 Y170.697 E10.6952
G1 X158.361 Y171.069 E10.73892
G1 X157.472 Y171.365 E10.78255
G1 X156.56 Y171.585 E10.82623
G1 X155.633 Y171.726 E10.86989
G1 X154.749 Y171.787 E10.91115
G1 X154.428 Y171.796 E10.92611
G1 X154.12 Y171.8 E10.94045
G1 X66.115 Y171.799 E15.03833
G1 X65.417 Y171.79 E15.07083
G1 X64.481 Y171.738 E15.11449
G1 X63.552 Y171.606 E15.15818
G1 X62.638 Y171.396 E15.20185
G1 X61.745 Y171.109 E15.24552
G1 X60.88 Y170.746 E15.2892
G1 X60.049 Y170.312 E15.33286
G1 X59.258 Y169.808 E15.37653
G1 X58.513 Y169.238 E15.42021
G1 X57.819 Y168.607 E15.46389
G1 X57.182 Y167.92 E15.50751
G1 X56.605 Y167.18 E15.55121
G1 X56.093 Y166.394 E15.59489
G1 X55.65 Y165.567 E15.63857
G1 X55.279 Y164.706 E15.68223
G1 X54.983 Y163.816 E15.7259
G1 X54.764 Y162.904 E15.76957
G1 X54.623 Y161.977 E15.81324
G1 X54.563 Y161.088 E15.85473
G1 X54.554 Y160.755 E15.87024
G1 X54.55 Y160.458 E15.88407
G1 X54.551 Y59.725 E20.57462
G1 X54.56 Y59.06 E20.60559
G1 X54.613 Y58.124 E20.64924
G1 X54.745 Y57.195 E20.69293
G1 X54.956 Y56.281 E20.73661
G1 X55.244 Y55.389 E20.78026
G1 X55.607 Y54.524 E20.82394
G1 X56.042 Y53.693 E20.86762
G1 X56.546 Y52.903 E20.91125
G1 X57.116 Y52.158 E20.95493
G0 F6000 X57.511 Y52.311
G1 F1200 X58.139 Y51.639 E20.99776
G1 X58.824 Y51.023 E21.04065
G1 X59.56 Y50.47 E21.08352
G1 X60.341 Y49.982 E21.1264
G1 X61.161 Y49.564 E21.16926
G1 X62.015 Y49.219 E21.21215
G1 X62.895 Y48.949 E21.25501
G1 X63.795 Y48.757 E21.29786
G1 X64.709 Y48.643 E21.34075
G1 X65.262 Y48.613 E21.36654
G1 X65.583 Y48.604 E21.38149
G1 X65.88 Y48.6 E21.39532
G1 X153.743 Y48.6 E25.48659
G1 X154.593 Y48.611 E25.52617
G1 X155.512 Y48.664 E25.56904
G1 X156.423 Y48.797 E25.61191
G1 X157.319 Y49.008 E25.65477
G1 X158.193 Y49.296 E25.69762
G1 X159.04 Y49.659 E25.74053
G1 X159.851 Y50.094 E25.78338
G1 X160.621 Y50.598 E25.82623
G1 X161.345 Y51.167 E25.86911
G1 X162.017 Y51.797 E25.912
G1 X162.632 Y52.482 E25.95487
G1 X163.185 Y53.218 E25.99774
G1 X163.672 Y53.999 E26.04059
G1 X164.089 Y54.82 E26.08347
G1 X164.434 Y55.674 E26.12636
G1 X164.703 Y56.554 E26.16921
G1 X164.895 Y57.455 E26.2121
G1 X165.008 Y58.368 E26.25494
G1 X165.037 Y58.912 E26.28031
G1 X165.046 Y59.232 E26.29522
G1 X165.05 Y59.53 E26.30909
G1 X165.049 Y160.195 E30.99648
G1 X165.04 Y160.922 E31.03033
G1 X164.989 Y161.841 E31.07319
G1 X164.858 Y162.753 E31.11609
G1 X164.648 Y163.649 E31.15894
G1 X164.362 Y164.524 E31.20181
G1 X164.001 Y165.371 E31.24468
G1 X163.567 Y166.183 E31.28755
G1 X163.065 Y166.955 E31.33043
G1 X162.497 Y167.68 E31.37332
G1 X161.869 Y168.353 E31.41618
G1 X161.185 Y168.969 E31.45904
G1 X160.45 Y169.523 E31.5019
G1 X159.67 Y170.012 E31.54477
G1 X158.85 Y170.431 E31.58765
G1 X157.997 Y170.777 E31.63051
G1 X157.117 Y171.048 E31.67339
G1 X156.217 Y171.241 E31.71625
G1 X155.303 Y171.356 E31.75914
G1 X154.738 Y171.387 E31.78549
G1 X154.417 Y171.396 E31.80044
G1 X154.12 Y171.4 E31.81427
G1 X66.12 Y171.399 E35.91192
G1 X65.422 Y171.39 E35.94443
G1 X64.503 Y171.338 E35.98729
G1 X63.592 Y171.207 E36.03014
G1 X62.696 Y170.997 E36.073
G1 X61.821 Y170.71 E36.11588
G1 X60.974 Y170.348 E36.15877
G1 X60.162 Y169.914 E36.20164
G1 X59.391 Y169.412 E36.24448
G1 X58.666 Y168.844 E36.28736
G1 X57.993 Y168.215 E36.33026
G1 X57.378 Y167.531 E36.37309
G1 X56.824 Y166.796 E36.41595
G1 X56.336 Y166.015 E36.45883
G1 X55.917 Y165.195 E36.50171
G1 X55.571 Y164.342 E36.54457
G1 X55.301 Y163.462 E36.58743
G1 X55.108 Y162.561 E36.63034
G1 X54.994 Y161.648 E36.67318
G1 X54.963 Y161.077 E36.69981
G1 X54.954 Y160.744 E36.71532
G1 X54.95 Y160.458 E36.72864
G1 X54.951 Y59.731 E41.41891
G1 X54.96 Y59.066 E41.44988
G1 X55.012 Y58.146 E41.49279
G1 X55.144 Y57.235 E41.53565
G1 X55.355 Y56.339 E41.57851
G1 X55.642 Y55.464 E41.62139
G1 X56.005 Y54.618 E41.66426
G1 X56.439 Y53.806 E41.70713
G1 X56.942 Y53.035 E41.74999
G1 X57.511 Y52.311 E41.79287
G0 F6000 X57.905 Y52.467
G1 F1200 X58.531 Y51.817 E41.83489
G1 X59.212 Y51.224 E41.87694
G1 X59.944 Y50.694 E41.91902
G1 X60.719 Y50.231 E41.96106
G1 X61.532 Y49.838 E42.00311
G1 X62.377 Y49.518 E42.04518
G1 X63.246 Y49.275 E42.0872
G1 X64.134 Y49.109 E42.12926
G1 X65.273 Y49.013 E42.18249
G1 X65.594 Y49.004 E42.19744
G1 X65.88 Y49 E42.21076
G1 X153.743 Y49 E46.30203
G1 X154.587 Y49.011 E46.34133
G1 X155.489 Y49.064 E46.3834
G1 X156.382 Y49.196 E46.42544
G1 X157.26 Y49.407 E46.46749
G1 X158.116 Y49.695 E46.50954
G1 X158.943 Y50.057 E46.55158
G1 X159.735 Y50.492 E46.59365
G1 X160.486 Y50.994 E46.63571
G1 X161.189 Y51.561 E46.67777
G1 X161.839 Y52.188 E46.71982
G1 X162.431 Y52.87 E46.76187
G1 X162.961 Y53.601 E46.80392
G1 X163.423 Y54.377 E46.84597
G1 X163.816 Y55.19 E46.88802
G1 X164.134 Y56.035 E46.93006
G1 X164.377 Y56.905 E46.97212
G1 X164.542 Y57.793 E47.01418
G1 X164.637 Y58.923 E47.06698
G1 X164.646 Y59.243 E47.08189
G1 X164.65 Y59.53 E47.09525
G1 X164.649 Y160.19 E51.7824
G1 X164.64 Y160.917 E51.81626
G1 X164.589 Y161.819 E51.85833
G1 X164.458 Y162.713 E51.9004
G1 X164.249 Y163.591 E51.94242
G1 X163.963 Y164.448 E51.98449
G1 X163.602 Y165.276 E52.02655
G1 X163.17 Y166.068 E52.06856
G1 X162.669 Y166.82 E52.11064
G1 X162.103 Y167.524 E52.1527
G1 X161.478 Y168.175 E52.19472
G1 X160.797 Y168.769 E52.2368
G1 X160.066 Y169.3 E52.27887
G1 X159.292 Y169.764 E52.32089
G1 X158.479 Y170.158 E52.36296
G1 X157.635 Y170.478 E52.40499
G1 X156.765 Y170.723 E52.44708
G1 X155.878 Y170.889 E52.4891
G1 X154.727 Y170.987 E52.54289
G1 X154.406 Y170.996 E52.55784
G1 X154.12 Y171 E52.57116
G1 X66.125 Y170.999 E56.66857
G1 X65.427 Y170.99 E56.70108
G1 X64.526 Y170.939 E56.7431
G1 X63.632 Y170.807 E56.78518
G1 X62.754 Y170.598 E56.8272
G1 X61.897 Y170.311 E56.86929
G1 X61.07 Y169.95 E56.91131
G1 X60.277 Y169.517 E56.95338
G1 X59.526 Y169.016 E56.99541
G1 X58.822 Y168.45 E57.03748
G1 X58.171 Y167.824 E57.07953
G1 X57.578 Y167.143 E57.12158
G1 X57.048 Y166.412 E57.16362
G1 X56.584 Y165.637 E57.20568
G1 X56.19 Y164.824 E57.24775
G1 X55.87 Y163.98 E57.28978
G1 X55.626 Y163.11 E57.33185
G1 X55.46 Y162.222 E57.37392
G1 X55.363 Y161.067 E57.42789
G1 X55.354 Y160.734 E57.4434
G1 X55.35 Y160.458 E57.45625
G1 X55.351 Y59.736 E62.14629
G1 X55.36 Y59.071 E62.17726
G1 X55.412 Y58.169 E62.21933
G1 X55.544 Y57.276 E62.26137
G1 X55.754 Y56.398 E62.3034
G1 X56.041 Y55.541 E62.34549
G1 X56.403 Y54.714 E62.38752
G1 X56.836 Y53.922 E62.42955
G1 X57.338 Y53.171 E62.47162
G1 X57.905 Y52.467 E62.51371
G1 F1500 E56.01371
;MESH:Case.STL
G0 F6000 X108.696 Y74.757
G0 X107.299 Y75.179
G0 X108.616 Y76.399
G0 X109.776 Y76.975
;TYPE:WALL-INNER
G1 F1500 E62.51371
G1 F1200 X110.224 Y76.975 E62.53457
G1 X110.664 Y76.898 E62.55537
G1 X111.084 Y76.751 E62.57609
G1 X111.475 Y76.533 E62.59693
G1 X111.823 Y76.252 E62.61776
G1 X112.118 Y75.915 E62.63861
G1 X112.351 Y75.536 E62.65933
G1 X112.519 Y75.122 E62.68014
G1 X112.613 Y74.684 E62.70099
G1 X112.632 Y74.237 E62.72183
G1 X112.574 Y73.795 E62.74259
G1 X112.444 Y73.367 E62.76341
G1 X112.243 Y72.969 E62.78418
G1 X111.978 Y72.611 E62.80492
G1 X111.656 Y72.301 E62.82573
G1 X111.285 Y72.051 E62.84656
G1 X110.878 Y71.867 E62.86736
G1 X110.445 Y71.753 E62.88821
G1 X110 Y71.716 E62.909
G1 X109.555 Y71.753 E62.92979
G1 X109.122 Y71.867 E62.95064
G1 X108.715 Y72.051 E62.97144
G1 X108.344 Y72.301 E62.99227
G1 X108.022 Y72.611 E63.01309
G1 X107.757 Y72.969 E63.03383
G1 X107.556 Y73.367 E63.05459
G1 X107.426 Y73.795 E63.07542
G1 X107.368 Y74.237 E63.09617
G1 X107.387 Y74.684 E63.11701
G1 X107.481 Y75.122 E63.13787
G1 X107.649 Y75.536 E63.15867
G1 X107.882 Y75.915 E63.17939
G1 X108.177 Y76.252 E63.20024
G1 X108.525 Y76.533 E63.22107
G1 X108.916 Y76.751 E63.24191
G1 X109.336 Y76.898 E63.26263
G1 X109.776 Y76.975 E63.28343
G0 F6000 X109.811 Y76.575
;TYPE:WALL-OUTER
G1 F1200 X110.189 Y76.575 E63.30104
G1 X110.563 Y76.51 E63.31871
G1 X110.919 Y76.385 E63.33628
G1 X111.25 Y76.2 E63.35394
G1 X111.545 Y75.962 E63.37159
G1 X111.795 Y75.677 E63.38924
G1 X111.993 Y75.355 E63.40684
G1 X112.135 Y75.004 E63.42447
G1 X112.215 Y74.633 E63.44214
G1 X112.231 Y74.255 E63.45976
G1 X112.182 Y73.88 E63.47737
G1 X112.071 Y73.517 E63.49505
G1 X111.901 Y73.18 E63.51262
G1 X111.676 Y72.876 E63.53023
G1 X111.403 Y72.613 E63.54788
G1 X111.089 Y72.401 E63.56553
G1 X110.744 Y72.245 E63.58316
G1 X110.377 Y72.149 E63.60082
G1 X110 Y72.117 E63.61844
G1 X109.623 Y72.149 E63.63606
G1 X109.256 Y72.245 E63.65372
G1 X108.911 Y72.401 E63.67135
G1 X108.597 Y72.613 E63.68899
G1 X108.324 Y72.876 E63.70664
G1 X108.099 Y73.18 E63.72426
G1 X107.929 Y73.517 E63.74183
G1 X107.818 Y73.88 E63.75951
G1 X107.769 Y74.255 E63.77712
G1 X107.785 Y74.633 E63.79473
G1 X107.865 Y75.004 E63.81241
G1 X108.007 Y75.355 E63.83004
G1 X108.205 Y75.677 E63.84764
G1 X108.455 Y75.962 E63.86529
G1 X108.75 Y76.2 E63.88294
G1 X109.081 Y76.385 E63.9006
G1 X109.437 Y76.51 E63.91817
G1 X109.811 Y76.575 E63.93584
G0 F6000 X109.774 Y77.013
G1 F1500 E57.43584
G0 F6000 X110.241 Y77.166
G0 X110.114 Y75.711
G0 X123.739 Y153.104
G0 X123.492 Y151.664
G0 X122.113 Y152.818
G0 X121.676 Y153.528
G0 X121.499 Y154.345
G0 X121.605 Y155.174
G0 X121.981 Y155.919
G0 X122.47 Y156.388
G0 X123.306 Y156.998
;TYPE:WALL-INNER
G1 F1500 E63.93584
G1 F1200 X123.746 Y157.075 E63.95664
G1 X124.194 Y157.075 E63.9775
G1 X124.634 Y156.998 E63.9983
G1 X125.054 Y156.851 E64.01902
G1 X125.445 Y156.633 E64.03987
G1 X125.793 Y156.352 E64.0607
G1 X126.088 Y156.015 E64.08155
G1 X126.321 Y155.636 E64.10227
G1 X126.489 Y155.222 E64.12307
G1 X126.583 Y154.784 E64.14393
G1 X126.602 Y154.337 E64.16476
G1 X126.544 Y153.895 E64.18552
G1 X126.414 Y153.467 E64.20635
G1 X126.213 Y153.069 E64.22711
G1 X125.948 Y152.711 E64.24785
G1 X125.626 Y152.401 E64.26866
G1 X125.255 Y152.151 E64.2895
G1 X124.848 Y151.967 E64.31029
G1 X124.415 Y151.853 E64.33114
G1 X123.97 Y151.816 E64.35194
G1 X123.525 Y151.853 E64.37273
G1 X123.092 Y151.967 E64.39358
G1 X122.685 Y152.151 E64.41438
G1 X122.314 Y152.401 E64.43521
G1 X121.992 Y152.711 E64.45602
G1 X121.727 Y153.069 E64.47676
G1 X121.526 Y153.467 E64.49752
G1 X121.396 Y153.895 E64.51835
G1 X121.338 Y154.337 E64.53911
G1 X121.357 Y154.784 E64.55994
G1 X121.451 Y155.222 E64.5808
G1 X121.619 Y155.636 E64.60161
G1 X121.852 Y156.015 E64.62232
G1 X122.147 Y156.352 E64.64318
G1 X122.495 Y156.633 E64.664
G1 X122.886 Y156.851 E64.68485
G1 X123.306 Y156.998 E64.70557
G0 F6000 X123.407 Y156.61
;TYPE:WALL-OUTER
G1 F1200 X123.781 Y156.675 E64.72325
G1 X124.159 Y156.675 E64.74085
G1 X124.533 Y156.61 E64.75852
G1 X124.889 Y156.485 E64.77609
G1 X125.22 Y156.3 E64.79375
G1 X125.515 Y156.062 E64.8114
G1 X125.765 Y155.777 E64.82905
G1 X125.963 Y155.455 E64.84665
G1 X126.105 Y155.104 E64.86428
G1 X126.185 Y154.733 E64.88196
G1 X126.201 Y154.355 E64.89957
G1 X126.152 Y153.98 E64.91718
G1 X126.041 Y153.617 E64.93486
G1 X125.871 Y153.28 E64.95243
G1 X125.646 Y152.976 E64.97005
G1 X125.373 Y152.713 E64.9877
G1 X125.059 Y152.501 E65.00534
G1 X124.714 Y152.345 E65.02297
G1 X124.347 Y152.249 E65.04063
G1 X123.97 Y152.217 E65.05825
G1 X123.593 Y152.249 E65.07587
G1 X123.226 Y152.345 E65.09353
G1 X122.881 Y152.501 E65.11116
G1 X122.567 Y152.713 E65.12881
G1 X122.294 Y152.976 E65.14646
G1 X122.069 Y153.28 E65.16407
G1 X121.899 Y153.617 E65.18164
G1 X121.788 Y153.98 E65.19932
G1 X121.739 Y154.355 E65.21693
G1 X121.755 Y154.733 E65.23455
G1 X121.835 Y155.104 E65.25222
G1 X121.977 Y155.455 E65.26985
G1 X122.175 Y155.777 E65.28745
G1 X122.425 Y156.062 E65.3051
G1 X122.72 Y156.3 E65.32275
G1 X123.051 Y156.485 E65.34041
G1 X123.407 Y156.61 E65.35798
G0 F6000 X123.297 Y157.035
G1 F1500 E58.85798
G0 F6000 X122.259 Y156.235
G0 X121.763 Y155.564
G0 X121.517 Y154.763
G0 X121.553 Y153.93
G0 X121.864 Y153.155
G0 X122.416 Y152.526
G0 X123.97 Y151.625
G0 X123.97 Y153.085
G0 X123.97 Y135.49
G0 X123.97 Y136.945
G0 X123.746 Y136.755
;TYPE:WALL-INNER
G1 F1500 E65.35798
G1 F1200 X124.194 Y136.755 E65.37884
G1 X124.634 Y136.678 E65.39964
G1 X125.054 Y136.531 E65.42036
G1 X125.445 Y136.313 E65.4412
G1 X125.793 Y136.032 E65.46203
G1 X126.088 Y135.695 E65.48289
G1 X126.321 Y135.316 E65.5036
G1 X126.489 Y134.902 E65.52441
G1 X126.583 Y134.464 E65.54527
G1 X126.602 Y134.017 E65.5661
G1 X126.544 Y133.575 E65.58686
G1 X126.414 Y133.147 E65.60769
G1 X126.213 Y132.749 E65.62845
G1 X125.948 Y132.391 E65.64919
G1 X125.626 Y132.081 E65.67
G1 X125.255 Y131.831 E65.69083
G1 X124.848 Y131.647 E65.71163
G1 X124.415 Y131.533 E65.73248
G1 X123.97 Y131.496 E65.75327
G1 X123.525 Y131.533 E65.77407
G1 X123.092 Y131.647 E65.79491
G1 X122.685 Y131.831 E65.81571
G1 X122.314 Y132.081 E65.83654
G1 X121.992 Y132.391 E65.85736
G1 X121.727 Y132.749 E65.8781
G1 X121.526 Y133.147 E65.89886
G1 X121.396 Y133.575 E65.91969
G1 X121.338 Y134.017 E65.94045
G1 X121.357 Y134.464 E65.96128
G1 X121.451 Y134.902 E65.98214
G1 X121.619 Y135.316 E66.00294
G1 X121.852 Y135.695 E66.02366
G1 X122.147 Y136.032 E66.04451
G1 X122.495 Y136.313 E66.06534
G1 X122.886 Y136.531 E66.08619
G1 X123.306 Y136.678 E66.10691
G1 X123.746 Y136.755 E66.12771
G0 F6000 X123.781 Y136.355
;TYPE:WALL-OUTER
G1 F1200 X124.159 Y136.355 E66.14531
G1 X124.533 Y136.29 E66.16298
G1 X124.889 Y136.165 E66.18055
G1 X125.22 Y135.98 E66.19821
G1 X125.515 Y135.742 E66.21586
G1 X125.765 Y135.457 E66.23351
G1 X125.963 Y135.135 E66.25111
G1 X126.105 Y134.784 E66.26874
G1 X126.185 Y134.413 E66.28642
G1 X126.201 Y134.035 E66.30403
G1 X126.152 Y133.66 E66.32164
G1 X126.041 Y133.297 E66.33932
G1 X125.871 Y132.96 E66.35689
G1 X125.646 Y132.656 E66.37451
G1 X125.373 Y132.393 E66.39216
G1 X125.059 Y132.181 E66.4098
G1 X124.714 Y132.025 E66.42743
G1 X124.347 Y131.929 E66.44509
G1 X123.97 Y131.897 E66.46271
G1 X123.593 Y131.929 E66.48033
G1 X123.226 Y132.025 E66.49799
G1 X122.881 Y132.181 E66.51562
G1 X122.567 Y132.393 E66.53327
G1 X122.294 Y132.656 E66.55092
G1 X122.069 Y132.96 E66.56853
G1 X121.899 Y133.297 E66.5861
G1 X121.788 Y133.66 E66.60378
