;FLAVOR:Marlin
;TIME:5016
;Filament used: 3.65121m
;Layer height: 0.2
;MINX:64.36
;MINY:85.212
;MINZ:0.28
;MAXX:170.64
;MAXY:145.978
;MAXZ:3.68
;Generated with Cura_SteamEngine 4.6.1
M140 S85
M105
M190 S85
M104 S235
M105
M109 S235
M82 ;absolute extrusion mode
; Ender 3 Custom Start G-code
G92 E0 ; Reset Extruder
G28 ; Home all axes
G1 Z2.0 F3000 ; Move Z Axis up little to prevent scratching of Heat Bed
G1 X0.1 Y20 Z0.3 F5000.0 ; Move to start position
G1 X0.1 Y200.0 Z0.3 F1500.0 E15 ; Draw the first line
G1 X0.4 Y200.0 Z0.3 F5000.0 ; Move to side a little
G1 X0.4 Y20 Z0.3 F1500.0 E30 ; Draw the second line
G92 E0 ; Reset Extruder
G1 Z2.0 F3000 ; Move Z Axis up little to prevent scratching of Heat Bed
G1 X5 Y20 Z0.3 F5000.0 ; Move over to prevent blob squish
G92 E0
G92 E0
G1 F1500 E-6.5
;LAYER_COUNT:18
;LAYER:0
M107
;MESH:BatteryCover.STL
G0 F6000 X130.2 Y92.703 Z0.28
;TYPE:WALL-INNER
G1 F1500 E0
G1 F1200 X130.636 Y92.664 E0.02038
G1 X131.058 Y92.551 E0.04073
G1 X131.454 Y92.367 E0.06106
G1 X131.812 Y92.116 E0.08142
G1 X132.121 Y91.807 E0.10177
G1 X132.372 Y91.448 E0.12216
G1 X132.556 Y91.054 E0.14241
G1 X132.669 Y90.631 E0.1628
G1 X132.708 Y90.195 E0.18318
G1 X132.669 Y89.759 E0.20356
G1 X132.556 Y89.336 E0.22395
G1 X132.372 Y88.942 E0.2442
G1 X132.121 Y88.583 E0.2646
G1 X131.812 Y88.274 E0.28495
G1 X131.454 Y88.023 E0.3053
G1 X131.058 Y87.839 E0.32564
G1 X130.636 Y87.726 E0.34598
G1 X130.2 Y87.687 E0.36636
G1 X129.764 Y87.726 E0.38675
G1 X129.342 Y87.839 E0.40709
G1 X128.946 Y88.023 E0.42742
G1 X128.588 Y88.274 E0.44778
G1 X128.279 Y88.583 E0.46813
G1 X128.028 Y88.942 E0.48852
G1 X127.844 Y89.336 E0.50877
G1 X127.731 Y89.759 E0.52916
G1 X127.692 Y90.195 E0.54954
G1 X127.731 Y90.631 E0.56993
G1 X127.844 Y91.054 E0.59031
G1 X128.028 Y91.448 E0.61056
G1 X128.279 Y91.807 E0.63096
G1 X128.588 Y92.116 E0.65131
G1 X128.946 Y92.367 E0.67167
G1 X129.342 Y92.551 E0.692
G1 X129.764 Y92.664 E0.71234
G1 X130.2 Y92.703 E0.73272
G0 F6000 X130.2 Y92.301
;TYPE:WALL-OUTER
G1 F1200 X130.566 Y92.269 E0.74983
G1 X130.921 Y92.174 E0.76694
G1 X131.253 Y92.019 E0.78401
G1 X131.554 Y91.808 E0.80112
G1 X131.813 Y91.549 E0.81818
G1 X132.024 Y91.247 E0.83533
G1 X132.179 Y90.916 E0.85235
G1 X132.274 Y90.561 E0.86946
G1 X132.306 Y90.195 E0.88657
G1 X132.274 Y89.829 E0.90368
G1 X132.179 Y89.474 E0.92079
G1 X132.024 Y89.143 E0.93781
G1 X131.813 Y88.841 E0.95496
G1 X131.554 Y88.582 E0.97202
G1 X131.253 Y88.371 E0.98914
G1 X130.921 Y88.216 E1.0062
G1 X130.566 Y88.121 E1.02331
G1 X130.2 Y88.089 E1.04042
G1 X129.834 Y88.121 E1.05752
G1 X129.479 Y88.216 E1.07464
G1 X129.147 Y88.371 E1.0917
G1 X128.846 Y88.582 E1.10881
G1 X128.587 Y88.841 E1.12587
G1 X128.376 Y89.143 E1.14302
G1 X128.221 Y89.474 E1.16004
G1 X128.126 Y89.829 E1.17715
G1 X128.094 Y90.195 E1.19426
G1 X128.126 Y90.561 E1.21137
G1 X128.221 Y90.916 E1.22848
G1 X128.376 Y91.247 E1.2455
G1 X128.587 Y91.549 E1.26265
G1 X128.846 Y91.808 E1.27971
G1 X129.147 Y92.019 E1.29683
G1 X129.479 Y92.174 E1.31389
G1 X129.834 Y92.269 E1.331
G1 X130.2 Y92.301 E1.34811
G0 F6000 X130.2 Y92.741
G1 F1500 E-5.15189
G0 F6000 X129.276 Y92.731
G0 X129.775 Y91.359
G0 X129.276 Y99.242
G0 X129.276 Y97.787
G0 X85.733 Y98.138
G0 X84.689 Y98.22
G0 X83.652 Y98.468
G0 X82.667 Y98.876
G0 X81.759 Y99.434
G0 X80.948 Y100.125
G0 X80.257 Y100.936
G0 X79.699 Y101.844
G0 X79.291 Y102.829
G0 X79.043 Y103.866
G0 X78.961 Y104.91
G0 X78.961 Y126.28
G0 X79.043 Y127.324
G0 X79.291 Y128.361
G0 X79.699 Y129.346
G0 X80.257 Y130.254
G0 X80.948 Y131.065
G0 X81.759 Y131.756
G0 X82.667 Y132.314
G0 X83.464 Y132.644
G0 X85.726 Y133.213
;TYPE:WALL-INNER
G1 F1500 E1.34811
G1 F1200 X149.274 Y133.213 E4.30717
G1 X150.337 Y133.129 E4.35682
G1 X151.398 Y132.875 E4.40762
G1 X152.406 Y132.457 E4.45843
G1 X153.336 Y131.887 E4.50922
G1 X154.166 Y131.179 E4.56002
G1 X154.874 Y130.349 E4.61082
G1 X155.444 Y129.419 E4.66161
G1 X155.862 Y128.411 E4.71243
G1 X156.116 Y127.35 E4.76323
G1 X156.2 Y126.287 E4.81288
G1 X156.2 Y104.903 E5.80861
G1 X156.116 Y103.84 E5.85826
G1 X155.862 Y102.779 E5.90906
G1 X155.444 Y101.771 E5.95987
G1 X154.874 Y100.841 E6.01066
G1 X154.166 Y100.011 E6.06146
G1 X153.336 Y99.303 E6.11226
G1 X152.406 Y98.733 E6.16305
G1 X151.398 Y98.315 E6.21387
G1 X150.337 Y98.061 E6.26467
G1 X149.274 Y97.977 E6.31432
G1 X85.726 Y97.977 E9.27338
G1 X84.663 Y98.061 E9.32303
G1 X83.602 Y98.315 E9.37383
G1 X82.594 Y98.733 E9.42464
G1 X81.664 Y99.303 E9.47544
G1 X80.834 Y100.011 E9.52623
G1 X80.126 Y100.841 E9.57703
G1 X79.556 Y101.771 E9.62782
G1 X79.138 Y102.779 E9.67864
G1 X78.884 Y103.84 E9.72944
G1 X78.8 Y104.903 E9.77909
G1 X78.8 Y126.287 E10.77482
G1 X78.884 Y127.35 E10.82447
G1 X79.138 Y128.411 E10.87527
G1 X79.556 Y129.419 E10.92608
G1 X80.126 Y130.349 E10.97687
G1 X80.834 Y131.179 E11.02767
G1 X81.664 Y131.887 E11.07847
G1 X82.594 Y132.457 E11.12926
G1 X83.602 Y132.875 E11.18008
G1 X84.663 Y133.129 E11.23088
G1 X85.726 Y133.213 E11.28053
G0 F6000 X85.742 Y132.813
;TYPE:WALL-OUTER
G1 F1200 X149.258 Y132.813 E14.2381
G1 X150.274 Y132.733 E14.28556
G1 X151.274 Y132.493 E14.33344
G1 X152.224 Y132.1 E14.38131
G1 X153.1 Y131.562 E14.42918
G1 X153.882 Y130.895 E14.47704
G1 X154.549 Y130.113 E14.5249
G1 X155.087 Y129.237 E14.57277
G1 X155.48 Y128.287 E14.62064
G1 X155.72 Y127.287 E14.66853
G1 X155.8 Y126.271 E14.71598
G1 X155.8 Y104.919 E15.71022
G1 X155.72 Y103.903 E15.75768
G1 X155.48 Y102.903 E15.80557
G1 X155.087 Y101.953 E15.85344
G1 X154.549 Y101.077 E15.90131
G1 X153.882 Y100.295 E15.94917
G1 X153.1 Y99.628 E15.99702
G1 X152.224 Y99.09 E16.04489
G1 X151.274 Y98.697 E16.09277
G1 X150.274 Y98.457 E16.14065
G1 X149.258 Y98.377 E16.18811
G1 X85.742 Y98.377 E19.14568
G1 X84.726 Y98.457 E19.19313
G1 X83.726 Y98.697 E19.24102
G1 X82.776 Y99.09 E19.28889
G1 X81.9 Y99.628 E19.33676
G1 X81.118 Y100.295 E19.38462
G1 X80.451 Y101.077 E19.43248
G1 X79.913 Y101.953 E19.48035
G1 X79.52 Y102.903 E19.52822
G1 X79.28 Y103.903 E19.57611
G1 X79.2 Y104.919 E19.62356
G1 X79.2 Y126.271 E20.6178
G1 X79.28 Y127.287 E20.66526
G1 X79.52 Y128.287 E20.71314
G1 X79.913 Y129.237 E20.76102
G1 X80.451 Y130.113 E20.80888
G1 X81.118 Y130.895 E20.85674
G1 X81.9 Y131.562 E20.9046
G1 X82.776 Y132.1 E20.95247
G1 X83.726 Y132.493 E21.00034
G1 X84.726 Y132.733 E21.04823
G1 X85.742 Y132.813 E21.09569
G0 F6000 X85.725 Y133.252
G1 F1500 E14.59569
G0 F6000 X129.764 Y133.403
G0 X129.764 Y131.948
G0 X130.2 Y139.757
G0 X130.2 Y138.296
G0 X128.692 Y139.198
G0 X128.168 Y139.822
G0 X127.889 Y140.588
G0 X127.889 Y141.402
G0 X128.168 Y142.167
G0 X128.639 Y142.729
G0 X129.764 Y143.464
;TYPE:WALL-INNER
G1 F1500 E21.09569
G1 F1200 X130.2 Y143.503 E21.11607
G1 X130.636 Y143.464 E21.13645
G1 X131.058 Y143.351 E21.15679
G1 X131.454 Y143.167 E21.17713
G1 X131.812 Y142.916 E21.19749
G1 X132.121 Y142.607 E21.21783
G1 X132.372 Y142.248 E21.23823
G1 X132.556 Y141.854 E21.25848
G1 X132.669 Y141.431 E21.27887
G1 X132.708 Y140.995 E21.29925
G1 X132.669 Y140.559 E21.31963
G1 X132.556 Y140.137 E21.33998
G1 X132.372 Y139.741 E21.36031
G1 X132.121 Y139.383 E21.38067
G1 X131.812 Y139.074 E21.40102
G1 X131.454 Y138.823 E21.42137
G1 X131.058 Y138.639 E21.44171
G1 X130.636 Y138.526 E21.46205
G1 X130.2 Y138.487 E21.48243
G1 X129.764 Y138.526 E21.50282
G1 X129.342 Y138.639 E21.52316
G1 X128.946 Y138.823 E21.54349
G1 X128.588 Y139.074 E21.56385
G1 X128.279 Y139.383 E21.5842
G1 X128.028 Y139.741 E21.60456
G1 X127.844 Y140.137 E21.62489
G1 X127.731 Y140.559 E21.64523
G1 X127.692 Y140.995 E21.66562
G1 X127.731 Y141.431 E21.686
G1 X127.844 Y141.854 E21.70639
G1 X128.028 Y142.248 E21.72663
G1 X128.279 Y142.607 E21.74703
G1 X128.588 Y142.916 E21.76738
G1 X128.946 Y143.167 E21.78774
G1 X129.342 Y143.351 E21.80807
G1 X129.764 Y143.464 E21.82841
G0 F6000 X129.834 Y143.069
;TYPE:WALL-OUTER
G1 F1200 X130.2 Y143.101 E21.84552
G1 X130.566 Y143.069 E21.86263
G1 X130.921 Y142.974 E21.87974
G1 X131.253 Y142.819 E21.8968
G1 X131.554 Y142.608 E21.91392
G1 X131.813 Y142.349 E21.93097
G1 X132.024 Y142.047 E21.94813
G1 X132.179 Y141.716 E21.96515
G1 X132.274 Y141.361 E21.98226
G1 X132.306 Y140.995 E21.99937
G1 X132.274 Y140.629 E22.01647
G1 X132.179 Y140.274 E22.03359
G1 X132.024 Y139.942 E22.05065
G1 X131.813 Y139.641 E22.06776
G1 X131.554 Y139.382 E22.08482
G1 X131.253 Y139.171 E22.10194
G1 X130.921 Y139.016 E22.119
G1 X130.566 Y138.921 E22.13611
G1 X130.2 Y138.889 E22.15322
G1 X129.834 Y138.921 E22.17032
G1 X129.479 Y139.016 E22.18744
G1 X129.147 Y139.171 E22.2045
G1 X128.846 Y139.382 E22.22161
G1 X128.587 Y139.641 E22.23867
G1 X128.376 Y139.942 E22.25579
G1 X128.221 Y140.274 E22.27285
G1 X128.126 Y140.629 E22.28996
G1 X128.094 Y140.995 E22.30707
G1 X128.126 Y141.361 E22.32417
G1 X128.221 Y141.716 E22.34129
G1 X128.376 Y142.047 E22.3583
G1 X128.587 Y142.349 E22.37546
G1 X128.846 Y142.608 E22.39251
G1 X129.147 Y142.819 E22.40963
G1 X129.479 Y142.974 E22.42669
G1 X129.834 Y143.069 E22.4438
G0 F6000 X129.758 Y143.502
G1 F1500 E15.9438
G0 F6000 X128.464 Y143.062
G0 X128.464 Y144.502
G0 X72.788 Y144.713
;TYPE:WALL-INNER
G1 F1500 E22.4438
G1 F1200 X69.269 Y144.713 E22.60766
G1 X68.919 Y144.683 E22.62402
G1 X68.589 Y144.597 E22.6399
G1 X68.284 Y144.458 E22.65551
G1 X68.002 Y144.263 E22.67147
G1 X67.768 Y144.032 E22.68678
G1 X67.571 Y143.755 E22.70261
G1 X67.426 Y143.447 E22.71846
G1 X67.335 Y143.118 E22.73436
G1 X67.302 Y142.764 E22.75091
G1 X67.3 Y137.927 E22.97614
G1 X64.76 Y137.927 E23.09442
G1 X64.76 Y137.714 E23.10433
G1 X67.3 Y137.713 E23.16747
G1 X67.3 Y93.476 E25.22733
G1 X64.76 Y93.477 E25.34561
G1 X64.76 Y93.264 E25.35552
G1 X67.3 Y93.263 E25.41868
G1 X67.3 Y88.429 E25.64378
G1 X67.329 Y88.102 E25.65906
G1 X67.416 Y87.766 E25.67522
G1 X67.555 Y87.461 E25.69083
G1 X67.75 Y87.179 E25.7068
G1 X67.981 Y86.945 E25.72211
G1 X68.258 Y86.748 E25.73793
G1 X68.566 Y86.603 E25.75379
G1 X68.895 Y86.512 E25.76968
G1 X69.249 Y86.479 E25.78624
G1 X162.212 Y86.477 E30.11498
G1 X165.731 Y86.477 E30.27884
G1 X166.081 Y86.507 E30.2952
G1 X166.411 Y86.593 E30.31108
G1 X166.716 Y86.732 E30.32669
G1 X166.998 Y86.927 E30.34265
G1 X167.232 Y87.158 E30.35796
G1 X167.429 Y87.435 E30.37379
G1 X167.574 Y87.743 E30.38964
G1 X167.663 Y88.066 E30.40524
G1 X167.698 Y88.426 E30.42208
G1 X167.7 Y93.263 E30.64731
G1 X170.24 Y93.263 E30.76559
G1 X170.24 Y93.476 E30.77551
G1 X167.7 Y93.477 E30.83864
G1 X167.7 Y137.713 E32.89846
G1 X170.24 Y137.713 E33.01673
G1 X170.24 Y137.926 E33.02665
G1 X167.7 Y137.927 E33.08979
G1 X167.7 Y142.761 E33.31488
G1 X167.671 Y143.087 E33.33012
G1 X167.584 Y143.424 E33.34632
G1 X167.447 Y143.725 E33.36172
G1 X167.25 Y144.011 E33.37789
G1 X167.02 Y144.244 E33.39314
G1 X166.742 Y144.442 E33.40903
G1 X166.434 Y144.587 E33.42488
G1 X166.105 Y144.678 E33.44078
G1 X165.751 Y144.711 E33.45733
G1 X72.788 Y144.713 E37.78608
G0 F6000 X72.788 Y145.113
;TYPE:WALL-OUTER
G1 F1200 X69.246 Y145.113 E37.95101
G1 X68.854 Y145.079 E37.96933
G1 X68.454 Y144.975 E37.98858
G1 X68.088 Y144.808 E38.00731
G1 X67.747 Y144.573 E38.02659
G1 X67.46 Y144.289 E38.04539
G1 X67.224 Y143.957 E38.06436
G1 X67.049 Y143.587 E38.08342
G1 X66.941 Y143.193 E38.10244
G1 X66.902 Y142.781 E38.12171
G1 X66.9 Y138.327 E38.32911
G1 X64.36 Y138.327 E38.44738
G1 X64.36 Y137.314 E38.49455
G1 X66.9 Y137.313 E38.61283
G1 X66.9 Y93.876 E40.63543
G1 X64.36 Y93.877 E40.75371
G1 X64.36 Y92.864 E40.80088
G1 X66.9 Y92.863 E40.91915
G1 X66.9 Y88.417 E41.12617
G1 X66.934 Y88.031 E41.14422
G1 X67.038 Y87.631 E41.16346
G1 X67.205 Y87.265 E41.1822
G1 X67.44 Y86.924 E41.20148
G1 X67.724 Y86.637 E41.22028
G1 X68.056 Y86.401 E41.23925
G1 X68.426 Y86.226 E41.25831
G1 X68.82 Y86.118 E41.27733
G1 X69.232 Y86.079 E41.2966
G1 X162.212 Y86.077 E45.62614
G1 X165.754 Y86.077 E45.79107
G1 X166.146 Y86.111 E45.80939
G1 X166.546 Y86.215 E45.82863
G1 X166.912 Y86.382 E45.84737
G1 X167.253 Y86.617 E45.86665
G1 X167.54 Y86.901 E45.88545
G1 X167.776 Y87.233 E45.90442
G1 X167.951 Y87.603 E45.92348
G1 X168.058 Y87.993 E45.94231
G1 X168.098 Y88.409 E45.96177
G1 X168.1 Y92.863 E46.16917
G1 X170.64 Y92.863 E46.28744
G1 X170.64 Y93.876 E46.33461
G1 X168.1 Y93.877 E46.45288
G1 X168.1 Y137.313 E48.47544
G1 X170.64 Y137.313 E48.59372
G1 X170.64 Y138.326 E48.64089
G1 X168.1 Y138.327 E48.75916
G1 X168.1 Y142.773 E48.96618
G1 X168.066 Y143.159 E48.98423
G1 X167.962 Y143.559 E49.00347
G1 X167.795 Y143.925 E49.0222
G1 X167.56 Y144.266 E49.04149
G1 X167.276 Y144.553 E49.06029
G1 X166.944 Y144.789 E49.07926
G1 X166.574 Y144.964 E49.09832
G1 X166.18 Y145.072 E49.11734
G1 X165.768 Y145.111 E49.13661
G1 X72.788 Y145.113 E53.46615
G0 F6000 X72.788 Y144.673
G0 X72.788 Y144.323
;TYPE:SKIN
G1 F1200 X69.278 Y144.323 E53.62959
G1 X68.992 Y144.299 E53.64295
G1 X68.717 Y144.227 E53.65619
G1 X68.48 Y144.119 E53.66832
G1 X68.252 Y143.962 E53.68121
G1 X68.066 Y143.778 E53.69339
G1 X67.909 Y143.557 E53.70601
G1 X67.791 Y143.306 E53.71893
G1 X67.72 Y143.047 E53.73143
G1 X67.692 Y142.749 E53.74537
G1 X67.69 Y137.727 E53.97921
G1 X67.69 Y88.436 E56.27441
G1 X67.713 Y88.174 E56.28666
G1 X67.786 Y87.895 E56.30009
G1 X67.895 Y87.655 E56.31236
G1 X68.051 Y87.429 E56.32515
G1 X68.235 Y87.243 E56.33733
G1 X68.456 Y87.086 E56.34995
G1 X68.702 Y86.971 E56.3626
G1 X68.968 Y86.896 E56.37547
G1 X69.264 Y86.869 E56.38931
G1 X162.212 Y86.867 E60.71735
G1 X165.722 Y86.867 E60.88079
G1 X166.008 Y86.891 E60.89416
G1 X166.283 Y86.963 E60.9074
G1 X166.52 Y87.071 E60.91952
G1 X166.748 Y87.228 E60.93241
G1 X166.934 Y87.412 E60.9446
G1 X167.091 Y87.633 E60.95722
G1 X167.206 Y87.879 E60.96986
G1 X167.279 Y88.139 E60.98244
G1 X167.308 Y88.443 E60.99666
G1 X167.31 Y93.277 E61.22175
G1 X167.31 Y142.754 E63.52561
G1 X167.287 Y143.015 E63.53781
G1 X167.215 Y143.293 E63.55118
G1 X167.107 Y143.53 E63.56331
G1 X166.945 Y143.765 E63.5766
G1 X166.769 Y143.944 E63.58829
G1 X166.544 Y144.104 E63.60114
G1 X166.298 Y144.219 E63.61379
G1 X166.032 Y144.294 E63.62665
G1 X165.736 Y144.321 E63.6405
G1 X72.788 Y144.323 E67.96854
G1 F1500 E61.46854
G0 F6000 X72.788 Y144.603
G0 X81.599 Y144.503
G0 X81.6 Y145.977
G0 X83.168 Y131.327
G0 X82.507 Y132.628
G0 X81.599 Y131.976
G0 X81.434 Y132.203
G1 F1500 E67.96854
G1 F1200 X82.416 Y132.806 E68.0222
G1 X83.481 Y133.247 E68.07588
G1 X84.602 Y133.515 E68.12955
G1 X85.71 Y133.603 E68.1813
G1 X149.29 Y133.603 E71.14185
G1 X150.398 Y133.515 E71.19361
G1 X151.519 Y133.247 E71.24728
G1 X152.584 Y132.806 E71.30095
G1 X153.566 Y132.203 E71.35461
G1 X154.443 Y131.456 E71.40825
G1 X155.19 Y130.579 E71.4619
G1 X155.793 Y129.597 E71.51555
G1 X156.234 Y128.532 E71.56923
G1 X156.502 Y127.411 E71.6229
G1 X156.59 Y126.303 E71.67465
G1 X156.59 Y104.887 E72.67187
G1 X156.502 Y103.779 E72.72363
G1 X156.234 Y102.658 E72.7773
G1 X155.793 Y101.593 E72.83097
G1 X155.19 Y100.611 E72.88463
G1 X154.443 Y99.734 E72.93827
G1 X153.566 Y98.987 E72.99192
G1 X152.584 Y98.384 E73.04557
G1 X151.519 Y97.943 E73.09925
G1 X150.398 Y97.675 E73.15292
G1 X149.29 Y97.587 E73.20467
G1 X85.71 Y97.587 E76.16523
G1 X84.602 Y97.675 E76.21698
G1 X83.481 Y97.943 E76.27065
G1 X82.416 Y98.384 E76.32432
G1 X81.434 Y98.987 E76.37798
G1 X80.557 Y99.734 E76.43163
G1 X79.81 Y100.611 E76.48527
G1 X79.207 Y101.593 E76.53893
G1 X78.766 Y102.658 E76.5926
G1 X78.498 Y103.779 E76.64627
G1 X78.41 Y104.887 E76.69803
G1 X78.41 Y126.303 E77.69525
G1 X78.498 Y127.411 E77.747
G1 X78.766 Y128.532 E77.80067
G1 X79.207 Y129.597 E77.85434
G1 X79.81 Y130.579 E77.908
G1 X80.557 Y131.456 E77.96165
G1 X81.434 Y132.203 E78.01529
G1 F1500 E71.51529
G0 F6000 X81.599 Y131.976
G0 X83.652 Y132.722
G0 X84.689 Y132.97
G0 X85.28 Y133.015
G0 X127.581 Y133.403
G0 X127.581 Y131.948
G0 X129.255 Y140.194
G0 X128.133 Y139.259
G0 X127.581 Y140.996
G0 X127.3 Y140.995
G1 F1500 E78.01529
G1 F1200 X127.345 Y141.499 E78.03885
G1 X127.476 Y141.988 E78.06242
G1 X127.689 Y142.443 E78.08582
G1 X127.979 Y142.859 E78.10943
G1 X128.336 Y143.216 E78.13294
G1 X128.751 Y143.506 E78.15651
G1 X129.208 Y143.719 E78.17999
G1 X129.696 Y143.85 E78.20352
G1 X130.2 Y143.895 E78.22708
G1 X130.704 Y143.85 E78.25064
G1 X131.192 Y143.719 E78.27417
G1 X131.649 Y143.506 E78.29765
G1 X132.064 Y143.216 E78.32122
G1 X132.421 Y142.859 E78.34473
