;FLAVOR:Marlin
;TIME:2953
;Filament used: 1.5198m
;Layer height: 0.2
;MINX:104.77
;MINY:88.264
;MINZ:0.28
;MAXX:129.365
;MAXY:108.64
;MAXZ:38.08
;Generated with Cura_SteamEngine 4.6.1
M140 S85
M105
M190 S85
M104 S235
M105
M109 S235
M82 ;absolute extrusion mode
; Ender 3 Custom Start G-code
G92 E0 ; Reset Extruder
G28 ; Home all axes
G1 Z2.0 F3000 ; Move Z Axis up little to prevent scratching of Heat Bed
G1 X0.1 Y20 Z0.3 F5000.0 ; Move to start position
G1 X0.1 Y200.0 Z0.3 F1500.0 E15 ; Draw the first line
G1 X0.4 Y200.0 Z0.3 F5000.0 ; Move to side a little
G1 X0.4 Y20 Z0.3 F1500.0 E30 ; Draw the second line
G92 E0 ; Reset Extruder
G1 Z2.0 F3000 ; Move Z Axis up little to prevent scratching of Heat Bed
G1 X5 Y20 Z0.3 F5000.0 ; Move over to prevent blob squish
G92 E0
G92 E0
G1 F1500 E-6.5
;LAYER_COUNT:190
;LAYER:0
M107
G0 F6000 X106.835 Y91.07 Z0.28
;TYPE:SKIRT
G1 F1500 E0
G1 F1200 X109.115 Y91.069 E0.10617
G1 X109.115 Y91.745 E0.13764
G1 X106.835 Y91.746 E0.24381
G1 X106.835 Y91.07 E0.27529
G0 F6000 X106.435 Y90.67
G1 F1200 X109.515 Y90.669 E0.41871
G1 X109.515 Y92.145 E0.48743
G1 X106.435 Y92.146 E0.63085
G1 X106.435 Y90.67 E0.69958
G0 F6000 X106.035 Y90.27
G1 F1200 X109.915 Y90.269 E0.88025
G1 X109.915 Y92.545 E0.98623
G1 X106.035 Y92.546 E1.1669
G1 X106.035 Y90.27 E1.27288
G0 F6000 X105.635 Y89.884
G1 F1200 X105.649 Y89.87 E1.2738
G1 X110.315 Y89.869 E1.49107
G1 X110.315 Y92.945 E1.6343
G1 X105.635 Y92.946 E1.85222
G1 X105.635 Y89.884 E1.9948
G1 F1500 E-4.5052
G0 F6000 X110.672 Y93.362
G0 X124.623 Y103.504
G0 X125.544 Y104.365
G1 F1500 E1.9948
G1 F1200 X128.606 Y104.365 E2.13738
G1 X128.621 Y107.775 E2.29617
G1 X125.545 Y107.775 E2.4394
G1 X125.544 Y104.365 E2.59818
G0 F6000 X125.944 Y104.765
G1 F1200 X128.22 Y104.765 E2.70416
G1 X128.221 Y107.375 E2.82569
G1 X125.945 Y107.375 E2.93167
G1 X125.944 Y104.765 E3.05321
G0 F6000 X126.344 Y105.165
G1 F1200 X127.82 Y105.165 E3.12193
G1 X127.821 Y106.975 E3.20622
G1 X126.345 Y106.975 E3.27494
G1 X126.344 Y105.165 E3.35923
G0 F6000 X126.744 Y105.565
G1 F1200 X127.42 Y105.565 E3.3907
G1 X127.421 Y106.575 E3.43773
G1 X126.745 Y106.575 E3.46921
G1 X126.744 Y105.565 E3.51624
G1 F1500 E-2.98376
;MESH:MotorMount.STL
G0 F6000 X124.066 Y105.565
G0 X123.867 Y107.375
;TYPE:WALL-INNER
G1 F1500 E3.51624
G1 F1200 X123.668 Y107.375 E3.52551
G1 X106.035 Y107.375 E4.34657
G1 X106.035 Y94.624 E4.94031
G1 X109.716 Y94.623 E5.11172
G1 X109.915 Y94.623 E5.12098
G1 X109.915 Y94.822 E5.12698
G1 X109.915 Y101.716 E5.44799
G1 X117.004 Y104.741 E5.80688
G1 X117.225 Y104.765 E5.81723
G1 X123.866 Y104.765 E6.12647
G1 X123.867 Y107.176 E6.23873
G1 X123.867 Y107.375 E6.24473
G0 F6000 X124.267 Y107.775
;TYPE:WALL-OUTER
G1 F1200 X105.635 Y107.775 E7.11231
G1 X105.635 Y94.224 E7.7433
G1 X110.315 Y94.223 E7.96122
G1 X110.315 Y101.452 E8.29784
G1 X117.106 Y104.35 E8.64164
G1 X117.246 Y104.365 E8.6482
G1 X124.266 Y104.365 E8.97508
G1 X124.267 Y107.775 E9.13386
G0 F6000 X123.997 Y107.505
G0 X123.757 Y106.985
G0 X123.477 Y106.985
;TYPE:SKIN
G1 F1200 X106.425 Y106.985 E9.92788
G1 X106.425 Y95.014 E10.4853
G1 X109.525 Y95.013 E10.62964
G1 X109.525 Y101.973 E10.95373
G1 X116.905 Y105.123 E11.32737
G1 X117.204 Y105.155 E11.34137
G1 X123.476 Y105.155 E11.63342
G1 X123.477 Y106.985 E11.71863
G0 F6000 X123.757 Y106.985
G0 X123.757 Y105.779
G0 X123.315 Y105.779
G1 F1200 X122.851 Y105.315 E11.74919
G0 F6000 X122.285 Y105.315
G1 F1200 X123.315 Y106.345 E11.81702
G0 F6000 X123.228 Y106.824
G1 F1200 X121.719 Y105.315 E11.91639
G0 F6000 X121.154 Y105.315
G1 F1200 X122.663 Y106.824 E12.01576
G0 F6000 X122.097 Y106.824
G1 F1200 X120.588 Y105.315 E12.11513
G0 F6000 X120.022 Y105.315
G1 F1200 X121.531 Y106.824 E12.2145
G0 F6000 X120.966 Y106.824
G1 F1200 X119.457 Y105.315 E12.31387
G0 F6000 X118.891 Y105.315
G1 F1200 X120.4 Y106.824 E12.41324
G0 F6000 X119.834 Y106.824
G1 F1200 X118.325 Y105.315 E12.51261
G0 F6000 X117.76 Y105.315
G1 F1200 X119.269 Y106.824 E12.61198
G0 F6000 X118.703 Y106.824
G1 F1200 X117.194 Y105.315 E12.71135
G0 F6000 X116.393 Y105.079
G1 F1200 X118.137 Y106.824 E12.82623
G0 F6000 X117.572 Y106.824
G1 F1200 X115.406 Y104.658 E12.96886
G0 F6000 X115.579 Y104.254
G0 X114.592 Y103.833
G0 X114.419 Y104.236
G1 F1200 X117.006 Y106.824 E13.13925
G0 F6000 X116.44 Y106.824
G1 F1200 X113.431 Y103.815 E13.3374
G0 F6000 X113.604 Y103.411
G0 X112.617 Y102.99
G0 X112.444 Y103.393
G1 F1200 X115.875 Y106.824 E13.56334
G0 F6000 X115.309 Y106.824
G1 F1200 X111.456 Y102.971 E13.81706
G0 F6000 X111.629 Y102.568
G0 X110.642 Y102.147
G0 X110.469 Y102.55
G1 F1200 X114.743 Y106.824 E14.09851
G0 F6000 X114.177 Y106.824
G1 F1200 X109.482 Y102.128 E14.40772
G0 F6000 X109.364 Y102.01
G1 F1200 X106.584 Y99.23 E14.59079
G0 F6000 X106.584 Y98.664
G1 F1200 X109.364 Y101.445 E14.77389
G0 F6000 X109.364 Y100.879
G1 F1200 X106.584 Y98.099 E14.95696
G0 F6000 X106.584 Y97.533
G1 F1200 X109.364 Y100.313 E15.14003
G0 F6000 X109.364 Y99.748
G1 F1200 X106.584 Y96.967 E15.32313
G0 F6000 X106.584 Y96.401
G1 F1200 X109.364 Y99.182 E15.50623
G0 F6000 X109.364 Y98.616
G1 F1200 X106.584 Y95.836 E15.68929
G0 F6000 X106.584 Y95.27
G1 F1200 X109.364 Y98.05 E15.87236
G0 F6000 X109.364 Y97.485
G1 F1200 X107.053 Y95.174 E16.02455
G0 F6000 X107.619 Y95.174
G1 F1200 X109.364 Y96.919 E16.13946
G0 F6000 X109.364 Y96.353
G1 F1200 X108.184 Y95.173 E16.21716
G0 F6000 X108.75 Y95.173
G1 F1200 X109.364 Y95.788 E16.25763
G0 F6000 X109.805 Y95.788
G0 X109.733 Y94.805
G0 X106.217 Y94.806
G0 X106.145 Y99.796
G0 X106.584 Y99.796
G1 F1200 X113.612 Y106.824 E16.72043
G0 F6000 X113.046 Y106.824
G1 F1200 X106.584 Y100.361 E17.146
G0 F6000 X106.584 Y100.927
G1 F1200 X112.48 Y106.824 E17.53429
G0 F6000 X111.915 Y106.824
G1 F1200 X106.584 Y101.493 E17.88535
G0 F6000 X106.584 Y102.058
G1 F1200 X111.349 Y106.824 E18.19917
G0 F6000 X110.783 Y106.824
G1 F1200 X106.584 Y102.624 E18.47571
G0 F6000 X106.584 Y103.19
G1 F1200 X110.218 Y106.824 E18.71502
G0 F6000 X109.652 Y106.824
G1 F1200 X106.584 Y103.755 E18.91708
G0 F6000 X106.584 Y104.321
G1 F1200 X109.086 Y106.824 E19.08188
G0 F6000 X108.521 Y106.824
G1 F1200 X106.584 Y104.887 E19.20943
G0 F6000 X106.584 Y105.452
G1 F1200 X107.955 Y106.824 E19.29975
G0 F6000 X107.389 Y106.824
G1 F1200 X106.584 Y106.018 E19.35279
G0 F6000 X106.584 Y106.584
G1 F1200 X106.824 Y106.824 E19.36859
G0 F6000 X106.824 Y107.175
G1 F1500 E12.86859
;MESH:NONMESH
G0 F300 X106.824 Y107.175 Z0.48
G0 F6000 X106.824 Y107.265
G0 X106.217 Y107.193
G0 X105.849 Y94.438
G0 X105.848 Y93.359
G0 X105.635 Y89.883
;TIME_ELAPSED:32.861660
;LAYER:1
M140 S85
M106 S85
;TYPE:SUPPORT
G1 F1500 E19.36859
G1 F1350 X105.648 Y89.87 E19.36921
G1 X110.315 Y89.869 E19.52443
G1 X110.315 Y92.145 E19.60013
G1 X105.635 Y92.146 E19.75579
G1 X105.635 Y89.883 E19.83106
G0 F7500 X106 Y91.866
G1 F1350 X108 Y91.866 E19.89758
G1 X108 Y90.149 E19.95468
G1 X110 Y90.149 E20.0212
G1 X110 Y91.866 E20.07831
G1 X110.035 Y91.865 E20.07948
G1 X110.035 Y90.149 E20.13655
G1 X110 Y90.149 E20.13771
G1 F1500 E13.63771
G0 F7500 X109.999 Y89.005
G0 X105.292 Y89.009
G0 X104.774 Y89.527
G0 X104.77 Y91.866
G0 X106 Y91.866
G1 F1500 E20.13771
G1 F1350 X105.915 Y91.866 E20.14054
G1 X105.915 Y90.15 E20.19762
G1 X106 Y90.149 E20.20044
G1 X106 Y91.866 E20.25755
G1 F1500 E13.75755
G0 F7500 X104.77 Y91.866
G0 X104.774 Y89.527
G0 X105.292 Y89.009
G0 X110.672 Y89.008
G0 X126.344 Y103.5
G0 X126.344 Y104.365
G1 F1500 E20.25755
G1 F1350 X128.607 Y104.365 E20.33282
G1 X128.62 Y104.378 E20.33343
G1 X128.621 Y107.775 E20.44641
G1 X126.345 Y107.775 E20.52211
G1 X126.344 Y104.365 E20.63553
G0 F7500 X128 Y104.645
G1 F1350 X126.624 Y104.645 E20.6813
G1 X126.625 Y107.495 E20.77609
G1 X128 Y107.495 E20.82182
G1 X128 Y104.645 E20.91661
G1 X128.34 Y104.645 E20.92792
G1 X128.341 Y107.495 E21.02271
G1 X128 Y107.495 E21.03405
G1 F1500 E14.53405
;MESH:MotorMount.STL
G0 F7500 X128 Y108.64
G0 X125.506 Y108.604
G0 X124.944 Y107.496
G0 X124.745 Y107.375
;TYPE:WALL-INNER
G1 F1500 E21.03405
G1 F1350 X124.546 Y107.375 E21.04067
G1 X106.035 Y107.375 E21.65635
G1 X106.035 Y93.746 E22.10965
G1 X109.716 Y93.745 E22.23208
G1 X109.915 Y93.745 E22.2387
G1 X109.915 Y93.944 E22.24299
G1 X109.915 Y101.716 E22.50148
G1 X117.059 Y104.765 E22.75983
G1 X124.744 Y104.765 E23.01543
G1 X124.745 Y107.176 E23.09562
G1 X124.745 Y107.375 E23.09991
G0 F7500 X125.145 Y107.775
;TYPE:WALL-OUTER
G1 F1350 X105.635 Y107.775 E23.74881
G1 X105.635 Y93.346 E24.22872
G1 X110.315 Y93.345 E24.38438
G1 X110.315 Y101.452 E24.65402
G1 X117.141 Y104.365 E24.90086
G1 X125.144 Y104.365 E25.16704
G1 X125.145 Y107.775 E25.28046
G0 F7500 X124.875 Y107.505
G0 X124.635 Y106.985
G0 X124.355 Y106.985
;TYPE:SKIN
G1 F1350 X106.425 Y106.985 E25.87681
G1 X106.425 Y94.136 E26.30417
G1 X109.525 Y94.135 E26.40728
G1 X109.525 Y101.973 E26.66797
G1 X116.979 Y105.155 E26.93754
G1 X124.354 Y105.155 E27.18283
G1 X124.355 Y106.985 E27.2437
G0 F7500 X124.193 Y106.606
G1 F1350 X123.974 Y106.824 E27.25398
G0 F7500 X123.409 Y106.824
G1 F1350 X124.193 Y106.04 E27.29085
G0 F7500 X124.193 Y105.474
G1 F1350 X122.843 Y106.824 E27.35435
G0 F7500 X122.277 Y106.824
G1 F1350 X123.788 Y105.314 E27.4254
G0 F7500 X123.222 Y105.314
G1 F1350 X121.712 Y106.824 E27.49643
G0 F7500 X121.146 Y106.824
G1 F1350 X122.656 Y105.314 E27.56745
G0 F7500 X122.091 Y105.314
G1 F1350 X120.58 Y106.824 E27.6385
G0 F7500 X120.015 Y106.824
G1 F1350 X121.525 Y105.314 E27.70953
G0 F7500 X120.959 Y105.314
G1 F1350 X119.449 Y106.824 E27.78055
G0 F7500 X118.883 Y106.824
G1 F1350 X120.394 Y105.314 E27.8516
G0 F7500 X119.828 Y105.314
G1 F1350 X118.318 Y106.824 E27.92263
G0 F7500 X117.752 Y106.824
G1 F1350 X119.262 Y105.314 E27.99366
G0 F7500 X118.697 Y105.314
G1 F1350 X117.186 Y106.824 E28.0647
G0 F7500 X116.621 Y106.824
G1 F1350 X118.131 Y105.314 E28.13573
G0 F7500 X117.565 Y105.314
G1 F1350 X116.055 Y106.824 E28.20676
G0 F7500 X115.489 Y106.824
G1 F1350 X117 Y105.314 E28.27781
G0 F7500 X116.587 Y105.16
G1 F1350 X114.923 Y106.824 E28.35608
G0 F7500 X114.358 Y106.824
G1 F1350 X116.191 Y104.991 E28.44229
G0 F7500 X115.795 Y104.822
G1 F1350 X113.792 Y106.824 E28.53649
G0 F7500 X113.226 Y106.824
G1 F1350 X115.398 Y104.653 E28.63863
G0 F7500 X115.001 Y104.484
G1 F1350 X112.661 Y106.824 E28.74869
G0 F7500 X112.095 Y106.824
G1 F1350 X114.605 Y104.314 E28.86676
G0 F7500 X114.209 Y104.145
G1 F1350 X111.529 Y106.824 E28.99279
G0 F7500 X110.964 Y106.824
G1 F1350 X113.812 Y103.976 E29.12675
G0 F7500 X113.416 Y103.806
G1 F1350 X110.398 Y106.824 E29.26871
G0 F7500 X109.832 Y106.824
G1 F1350 X113.019 Y103.637 E29.41862
G0 F7500 X112.623 Y103.468
G1 F1350 X109.267 Y106.824 E29.57647
G0 F7500 X108.701 Y106.824
G1 F1350 X112.227 Y103.299 E29.7423
G0 F7500 X111.83 Y103.13
G1 F1350 X108.135 Y106.824 E29.91608
G0 F7500 X107.57 Y106.824
G1 F1350 X111.433 Y102.961 E30.09778
G0 F7500 X111.037 Y102.791
G1 F1350 X107.004 Y106.824 E30.28748
G0 F7500 X106.585 Y106.678
G1 F1350 X110.64 Y102.622 E30.47824
G0 F7500 X110.244 Y102.453
G1 F1350 X106.585 Y106.112 E30.65035
G0 F7500 X106.585 Y105.547
G1 F1350 X109.848 Y102.283 E30.80385
G0 F7500 X109.451 Y102.114
G1 F1350 X106.585 Y104.981 E30.93868
G0 F7500 X106.585 Y104.415
G1 F1350 X109.363 Y101.636 E31.06938
G0 F7500 X109.363 Y101.071
G1 F1350 X106.585 Y103.849 E31.20005
G0 F7500 X106.585 Y103.284
G1 F1350 X109.363 Y100.505 E31.33074
G0 F7500 X109.363 Y99.939
G1 F1350 X106.585 Y102.718 E31.46143
G0 F7500 X106.585 Y102.152
G1 F1350 X109.363 Y99.373 E31.59212
G0 F7500 X109.363 Y98.808
G1 F1350 X106.585 Y101.587 E31.72281
G0 F7500 X106.585 Y101.021
G1 F1350 X109.363 Y98.242 E31.85351
G0 F7500 X109.363 Y97.676
G1 F1350 X106.585 Y100.455 E31.9842
G0 F7500 X106.585 Y99.89
G1 F1350 X109.363 Y97.111 E32.11489
G0 F7500 X109.363 Y96.545
G1 F1350 X106.585 Y99.324 E32.24558
G0 F7500 X106.585 Y98.758
G1 F1350 X109.363 Y95.979 E32.37627
G0 F7500 X109.363 Y95.414
G1 F1350 X106.585 Y98.193 E32.50697
G0 F7500 X106.585 Y97.627
G1 F1350 X109.363 Y94.848 E32.63766
G0 F7500 X109.351 Y94.294
G1 F1350 X106.585 Y97.061 E32.76779
G0 F7500 X106.585 Y96.496
G1 F1350 X108.786 Y94.294 E32.87134
G0 F7500 X108.22 Y94.294
G1 F1350 X106.585 Y95.93 E32.94827
G0 F7500 X106.585 Y95.364
G1 F1350 X107.654 Y94.295 E32.99855
G0 F7500 X107.088 Y94.295
G1 F1350 X106.585 Y94.798 E33.02221
G0 F7500 X106.235 Y94.798
G1 F1500 E26.52221
;MESH:NONMESH
G0 F300 X106.235 Y94.798 Z0.68
G0 F7500 X106.145 Y94.798
G0 X105.849 Y93.56
G0 X104.806 Y92.985
G0 X104.77 Y89.882
G0 X105.635 Y89.882
;TIME_ELAPSED:60.202857
;LAYER:2
M106 S170
;TYPE:SUPPORT
G1 F1500 E33.02221
G1 X105.647 Y89.87 E33.02277
G1 X110.315 Y89.869 E33.17803
G1 X110.315 Y91.662 E33.23767
G1 X105.635 Y91.663 E33.39333
G1 X105.635 Y89.882 E33.45256
G0 F9000 X106 Y91.383
G1 F1500 X108 Y91.383 E33.51908
G1 X108 Y90.149 E33.56012
G1 X110 Y90.149 E33.62664
G1 X110 Y91.383 E33.66769
G1 X110.035 Y91.382 E33.66885
G1 X110.035 Y90.149 E33.70986
G1 X110 Y90.149 E33.71103
G1 F1500 E27.21103
G0 F9000 X109.999 Y89.005
G0 X105.291 Y89.009
G0 X104.774 Y89.526
G0 X104.77 Y91.383
G0 X106 Y91.383
G1 F1500 E33.71103
G1 X105.915 Y91.383 E33.71385
G1 X105.915 Y90.15 E33.75486
G1 X106 Y90.149 E33.75769
G1 X106 Y91.383 E33.79873
G1 F1500 E27.29873
G0 F9000 X104.77 Y91.383
G0 X104.774 Y89.526
G0 X105.291 Y89.009
G0 X110.672 Y89.008
G0 X126.827 Y103.5
G0 X126.827 Y104.365
G1 F1500 E33.79873
G1 X128.608 Y104.365 E33.85797
G1 X128.62 Y104.377 E33.85853
G1 X128.621 Y107.775 E33.97155
G1 X126.828 Y107.775 E34.03119
G1 X126.827 Y104.365 E34.1446
G0 F9000 X128 Y104.645
G1 F1500 X127.107 Y104.645 E34.17431
G1 X127.108 Y107.495 E34.2691
G1 X128 Y107.495 E34.29877
G1 X128 Y104.645 E34.39356
G1 X128.34 Y104.645 E34.40487
G1 X128.341 Y107.495 E34.49966
G1 X128 Y107.495 E34.511
G1 F1500 E28.011
;MESH:MotorMount.STL
G0 F9000 X125.427 Y107.495
G0 X125.228 Y107.375
;TYPE:WALL-INNER
G1 F1500 E34.511
G1 X125.029 Y107.375 E34.51762
G1 X106.035 Y107.375 E35.14936
G1 X106.035 Y93.263 E35.61873
G1 X109.716 Y93.262 E35.74116
G1 X109.915 Y93.262 E35.74778
G1 X109.915 Y93.461 E35.75206
G1 X109.915 Y101.716 E36.02662
G1 X117.059 Y104.765 E36.28497
G1 X125.227 Y104.765 E36.55664
G1 X125.228 Y107.176 E36.63683
G1 X125.228 Y107.375 E36.64111
G0 F9000 X125.628 Y107.775
;TYPE:WALL-OUTER
G1 F1500 X105.635 Y107.775 E37.30608
G1 X105.635 Y92.863 E37.80205
G1 X110.315 Y92.862 E37.95771
G1 X110.315 Y101.452 E38.24342
G1 X117.141 Y104.365 E38.49026
G1 X125.627 Y104.365 E38.7725
G1 X125.628 Y107.775 E38.88592
G0 F9000 X125.358 Y107.505
G0 X125.118 Y106.985
G0 X124.838 Y106.985
;TYPE:SKIN
G1 F1500 X106.425 Y106.985 E39.49834
G1 X106.425 Y93.653 E39.94176
G1 X109.525 Y93.652 E40.04487
G1 X109.525 Y101.973 E40.32163
G1 X116.979 Y105.155 E40.59119
G1 X124.837 Y105.155 E40.85255
G1 X124.838 Y106.985 E40.91342
G0 F9000 X125.118 Y106.985
G0 X125.118 Y105.443
G0 X124.677 Y105.443
G1 F1500 X124.547 Y105.314 E40.91951
G0 F9000 X123.981 Y105.314
G1 F1500 X124.677 Y106.009 E40.95222
G0 F9000 X124.677 Y106.575
G1 F1500 X123.416 Y105.314 E41.01154
G0 F9000 X122.85 Y105.314
G1 F1500 X124.36 Y106.824 E41.08256
G0 F9000 X123.795 Y106.824
G1 F1500 X122.284 Y105.314 E41.15361
G0 F9000 X121.719 Y105.314
G1 F1500 X123.229 Y106.824 E41.22464
G0 F9000 X122.663 Y106.824
G1 F1500 X121.153 Y105.314 E41.29566
G0 F9000 X120.587 Y105.314
G1 F1500 X122.098 Y106.824 E41.36671
G0 F9000 X121.532 Y106.824
G1 F1500 X120.022 Y105.314 E41.43774
G0 F9000 X119.456 Y105.314
G1 F1500 X120.966 Y106.824 E41.50876
G0 F9000 X120.401 Y106.824
G1 F1500 X118.89 Y105.314 E41.57981
G0 F9000 X118.325 Y105.314
G1 F1500 X119.835 Y106.824 E41.65084
G0 F9000 X119.269 Y106.824
G1 F1500 X117.759 Y105.314 E41.72187
G0 F9000 X117.193 Y105.314
G1 F1500 X118.704 Y106.824 E41.79291
G0 F9000 X118.138 Y106.824
G1 F1500 X116.391 Y105.077 E41.87509
G0 F9000 X116.564 Y104.675
G0 X115.577 Y104.253
G0 X115.404 Y104.656
G1 F1500 X117.572 Y106.824 E41.97706
G0 F9000 X117.007 Y106.824
G1 F1500 X114.417 Y104.235 E42.09887
G0 F9000 X114.59 Y103.832
G0 X113.602 Y103.411
G0 X113.43 Y103.813
G1 F1500 X116.441 Y106.824 E42.24049
G0 F9000 X115.875 Y106.824
G1 F1500 X112.443 Y103.392 E42.40193
G0 F9000 X112.616 Y102.99
G0 X111.629 Y102.569
