;FLAVOR:Marlin
;TIME:373
;Filament used: 0.186112m
;Layer height: 0.2
;MINX:95.729
;MINY:100.388
;MINZ:0.28
;MAXX:139.274
;MAXY:131.272
;MAXZ:3.28
;Generated with Cura_SteamEngine 4.6.1
M140 S85
M105
M190 S85
M104 S235
M105
M109 S235
M82 ;absolute extrusion mode
; Ender 3 Custom Start G-code
G92 E0 ; Reset Extruder
G28 ; Home all axes
G1 Z2.0 F3000 ; Move Z Axis up little to prevent scratching of Heat Bed
G1 X0.1 Y20 Z0.3 F5000.0 ; Move to start position
G1 X0.1 Y200.0 Z0.3 F1500.0 E15 ; Draw the first line
G1 X0.4 Y200.0 Z0.3 F5000.0 ; Move to side a little
G1 X0.4 Y20 Z0.3 F1500.0 E30 ; Draw the second line
G92 E0 ; Reset Extruder
G1 Z2.0 F3000 ; Move Z Axis up little to prevent scratching of Heat Bed
G1 X5 Y20 Z0.3 F5000.0 ; Move over to prevent blob squish
G92 E0
G92 E0
G1 F1500 E-6.5
;LAYER_COUNT:16
;LAYER:0
M107
G0 F6000 X124.008 Y101.202 Z0.28
;TYPE:SKIRT
G1 F1500 E0
G1 F1200 X124.942 Y101.249 E0.04355
G1 X126.098 Y101.374 E0.09769
G1 X126.315 Y101.41 E0.10793
G1 X126.893 Y101.523 E0.13535
G1 X127.296 Y101.614 E0.15459
G1 X128.404 Y101.93 E0.20824
G1 X128.806 Y102.07 E0.22806
G1 X129.339 Y102.27 E0.25457
G1 X130.341 Y102.721 E0.30574
G1 X130.876 Y103.002 E0.33388
G1 X131.162 Y103.161 E0.34911
G1 X132.137 Y103.778 E0.40284
G1 X132.456 Y104.006 E0.4211
G1 X132.925 Y104.358 E0.4484
G1 X133.777 Y105.087 E0.50062
G1 X134.267 Y105.562 E0.53239
G1 X134.456 Y105.755 E0.54497
G1 X135.21 Y106.618 E0.59833
G1 X135.581 Y107.098 E0.62658
G1 X135.759 Y107.338 E0.6405
G1 X136.424 Y108.357 E0.69716
G1 X136.707 Y108.858 E0.72395
G1 X136.846 Y109.116 E0.7376
G1 X137.347 Y110.192 E0.79286
G1 X137.571 Y110.767 E0.8216
G1 X137.667 Y111.03 E0.83463
G1 X138 Y112.134 E0.88833
G1 X138.097 Y112.536 E0.90759
G1 X138.219 Y113.098 E0.93436
G1 X138.387 Y114.208 E0.98664
G1 X138.416 Y114.514 E1.00095
G1 X138.461 Y115.151 E1.03069
G1 X138.475 Y116.157 E1.07753
G1 X138.466 Y116.409 E1.08928
G1 X138.444 Y116.803 E1.10765
G1 X138.418 Y117.152 E1.12395
G1 X138.261 Y118.328 E1.17919
G1 X138.171 Y118.794 E1.20129
G1 X137.898 Y119.882 E1.25352
G1 X137.728 Y120.43 E1.28024
G1 X137.503 Y121.078 E1.31218
G1 X137.412 Y121.314 E1.32396
G1 X136.961 Y122.318 E1.37521
G1 X136.828 Y122.576 E1.38873
G1 X136.517 Y123.145 E1.41892
G1 X135.902 Y124.117 E1.47248
G1 X135.488 Y124.689 E1.50536
G1 X135.334 Y124.891 E1.51719
G1 X134.599 Y125.751 E1.56986
G1 X134.129 Y126.236 E1.60131
G1 X133.928 Y126.433 E1.61442
G1 X133.082 Y127.174 E1.66679
G1 X132.555 Y127.582 E1.69782
G1 X132.309 Y127.763 E1.71204
G1 X131.325 Y128.403 E1.7667
G1 X130.779 Y128.71 E1.79587
G1 X130.518 Y128.849 E1.80964
G1 X129.543 Y129.304 E1.85974
G1 X129.236 Y129.428 E1.87515
G1 X128.613 Y129.66 E1.90611
G1 X127.536 Y129.983 E1.95846
G1 X126.822 Y130.15 E1.99261
G1 X126.576 Y130.201 E2.00431
G1 X125.45 Y130.369 E2.05732
G1 X124.852 Y130.42 E2.08527
G1 X124.522 Y130.441 E2.10066
G1 X124.082 Y130.46 E2.12117
G1 X123.382 Y130.472 E2.15377
G1 X111.505 Y130.471 E2.70681
G1 X110.994 Y130.458 E2.73061
G1 X110.059 Y130.411 E2.77421
G1 X108.814 Y130.272 E2.83254
G1 X108.591 Y130.233 E2.84308
G1 X108.112 Y130.137 E2.86583
G1 X107.698 Y130.044 E2.88559
G1 X106.582 Y129.725 E2.93963
G1 X106.004 Y129.521 E2.96817
G1 X105.753 Y129.426 E2.98067
G1 X104.715 Y128.965 E3.03356
G1 X104.383 Y128.795 E3.05093
G1 X104.075 Y128.631 E3.06717
G1 X103.834 Y128.497 E3.08001
G1 X102.871 Y127.888 E3.13307
G1 X102.338 Y127.503 E3.16369
G1 X102.109 Y127.329 E3.17708
G1 X101.235 Y126.583 E3.23058
G1 X100.758 Y126.122 E3.26147
G1 X100.585 Y125.947 E3.27293
G1 X99.819 Y125.079 E3.32684
G1 X99.403 Y124.542 E3.35847
G1 X99.244 Y124.327 E3.37092
G1 X98.617 Y123.371 E3.42415
G1 X98.307 Y122.827 E3.45331
G1 X98.161 Y122.556 E3.46764
G1 X97.676 Y121.521 E3.52087
G1 X97.541 Y121.185 E3.53773
G1 X97.322 Y120.598 E3.5669
G1 X96.993 Y119.506 E3.62001
G1 X96.857 Y118.931 E3.64752
G1 X96.801 Y118.672 E3.65986
G1 X96.614 Y117.452 E3.71733
G1 X96.559 Y116.817 E3.74701
G1 X96.541 Y116.548 E3.75956
G1 X96.528 Y115.414 E3.81237
G1 X96.559 Y114.826 E3.83979
G1 X96.585 Y114.483 E3.85581
G1 X96.74 Y113.327 E3.91012
G1 X96.811 Y112.958 E3.92761
G1 X96.939 Y112.367 E3.95577
G1 X97.251 Y111.272 E4.00879
G1 X97.456 Y110.693 E4.03739
G1 X97.55 Y110.444 E4.04978
G1 X98.014 Y109.398 E4.10306
G1 X98.185 Y109.064 E4.12054
G1 X98.476 Y108.527 E4.14898
G1 X99.088 Y107.556 E4.20242
G1 X99.296 Y107.264 E4.21912
G1 X99.647 Y106.795 E4.24639
G1 X100.377 Y105.935 E4.29892
G1 X100.626 Y105.673 E4.31575
G1 X101.051 Y105.247 E4.34377
G1 X101.898 Y104.502 E4.3963
G1 X102.455 Y104.07 E4.42912
G1 X102.66 Y103.919 E4.44097
G1 X103.558 Y103.328 E4.49103
G1 X103.84 Y103.163 E4.50625
G1 X104.153 Y102.987 E4.52297
G1 X104.424 Y102.841 E4.5373
G1 X105.459 Y102.356 E4.59052
G1 X105.795 Y102.221 E4.60738
G1 X106.376 Y102.004 E4.63626
G1 X107.567 Y101.651 E4.69411
G1 X108.169 Y101.512 E4.72287
G1 X109.057 Y101.348 E4.76492
G1 X109.528 Y101.294 E4.787
G1 X110.16 Y101.239 E4.81654
G1 X110.428 Y101.221 E4.82905
G1 X110.939 Y101.199 E4.85286
G1 X111.701 Y101.188 E4.88835
G1 X123.496 Y101.189 E5.43757
G1 X124.008 Y101.202 E5.46142
G0 F6000 X124.028 Y100.802
G1 F1200 X124.962 Y100.849 E5.50497
G1 X126.164 Y100.979 E5.56126
G1 X126.381 Y101.015 E5.57151
G1 X126.981 Y101.132 E5.59997
G1 X127.384 Y101.223 E5.61921
G1 X128.535 Y101.553 E5.67496
G1 X128.937 Y101.693 E5.69478
G1 X129.484 Y101.897 E5.72197
G1 X130.525 Y102.365 E5.77512
G1 X131.071 Y102.652 E5.80384
G1 X131.357 Y102.811 E5.81907
G1 X132.37 Y103.452 E5.87489
G1 X132.689 Y103.68 E5.89315
G1 X133.168 Y104.04 E5.92105
G1 X134.054 Y104.798 E5.97535
G1 X134.304 Y105.037 E5.99145
G1 X134.741 Y105.476 E6.0203
G1 X135.526 Y106.372 E6.07576
G1 X135.902 Y106.859 E6.10441
G1 X136.08 Y107.099 E6.11833
G1 X136.771 Y108.158 E6.17721
G1 X137.059 Y108.668 E6.20448
G1 X137.198 Y108.926 E6.21813
G1 X137.719 Y110.045 E6.2756
G1 X137.946 Y110.629 E6.30478
G1 X138.042 Y110.892 E6.31781
G1 X138.389 Y112.041 E6.3737
G1 X138.486 Y112.443 E6.39296
G1 X138.611 Y113.017 E6.42031
G1 X138.785 Y114.17 E6.47461
G1 X138.814 Y114.476 E6.48892
G1 X138.86 Y115.126 E6.51927
G1 X138.874 Y116.171 E6.56793
G1 X138.865 Y116.423 E6.57967
G1 X138.843 Y116.833 E6.59879
G1 X138.817 Y117.182 E6.61509
G1 X138.654 Y118.404 E6.67249
G1 X138.564 Y118.87 E6.69459
G1 X138.28 Y120.001 E6.74889
G1 X138.11 Y120.549 E6.77561
G1 X137.876 Y121.222 E6.80878
G1 X137.785 Y121.458 E6.82056
G1 X137.317 Y122.501 E6.87379
G1 X137.184 Y122.759 E6.88731
G1 X136.867 Y123.339 E6.91809
G1 X136.228 Y124.35 E6.97378
G1 X135.806 Y124.932 E7.00725
G1 X135.652 Y125.134 E7.01908
G1 X134.888 Y126.028 E7.07384
G1 X134.655 Y126.272 E7.08955
G1 X134.208 Y126.718 E7.11895
G1 X133.329 Y127.489 E7.1734
G1 X132.792 Y127.904 E7.205
G1 X132.546 Y128.085 E7.21922
G1 X131.523 Y128.75 E7.27603
G1 X130.967 Y129.063 E7.30574
G1 X130.706 Y129.202 E7.31951
G1 X129.693 Y129.675 E7.37157
G1 X129.386 Y129.799 E7.38699
G1 X129.014 Y129.941 E7.40553
G1 X128.748 Y130.037 E7.4187
G1 X127.63 Y130.372 E7.47304
G1 X127.231 Y130.468 E7.49215
G1 X126.657 Y130.592 E7.5195
G1 X125.487 Y130.767 E7.57458
G1 X124.877 Y130.82 E7.6031
G1 X124.547 Y130.841 E7.61849
G1 X124.09 Y130.86 E7.63979
G1 X123.382 Y130.872 E7.67276
G1 X111.505 Y130.871 E8.22581
G1 X110.974 Y130.858 E8.25054
G1 X110.039 Y130.811 E8.29413
G1 X108.745 Y130.666 E8.35476
G1 X108.522 Y130.627 E8.3653
G1 X108.025 Y130.527 E8.38891
G1 X107.611 Y130.434 E8.40867
G1 X106.45 Y130.103 E8.46488
G1 X105.863 Y129.895 E8.49388
G1 X105.612 Y129.8 E8.50638
G1 X104.533 Y129.321 E8.56135
G1 X104.201 Y129.151 E8.57872
G1 X103.64 Y128.846 E8.60845
G1 X102.639 Y128.214 E8.66357
G1 X102.096 Y127.821 E8.69479
G1 X101.867 Y127.647 E8.70818
G1 X100.958 Y126.872 E8.7638
G1 X100.474 Y126.403 E8.79518
G1 X100.301 Y126.228 E8.80664
G1 X99.505 Y125.326 E8.86266
G1 X99.081 Y124.78 E8.89485
G1 X98.922 Y124.565 E8.9073
G1 X98.271 Y123.572 E8.96259
G1 X97.955 Y123.017 E8.99233
G1 X97.809 Y122.746 E9.00666
G1 X97.305 Y121.67 E9.06199
G1 X97.17 Y121.334 E9.07885
G1 X96.946 Y120.734 E9.10867
G1 X96.604 Y119.6 E9.16382
G1 X96.41 Y118.756 E9.20415
G1 X96.216 Y117.488 E9.26388
G1 X96.16 Y116.844 E9.29398
G1 X96.142 Y116.575 E9.30653
G1 X96.128 Y115.396 E9.36144
G1 X96.14 Y115.126 E9.37402
G1 X96.16 Y114.796 E9.38942
G1 X96.186 Y114.453 E9.40543
G1 X96.347 Y113.251 E9.4619
G1 X96.418 Y112.882 E9.4794
G1 X96.549 Y112.279 E9.50813
G1 X96.873 Y111.141 E9.56323
G1 X97.082 Y110.551 E9.59238
G1 X97.176 Y110.302 E9.60477
G1 X97.658 Y109.215 E9.66014
G1 X97.829 Y108.881 E9.67761
G1 X98.126 Y108.333 E9.70663
G1 X98.762 Y107.324 E9.76217
G1 X98.97 Y107.032 E9.77886
G1 X99.328 Y106.553 E9.80671
G1 X100.087 Y105.66 E9.86128
G1 X100.336 Y105.398 E9.87811
G1 X100.771 Y104.962 E9.90679
G1 X101.65 Y104.188 E9.96133
G1 X101.95 Y103.952 E9.9791
G1 X102.423 Y103.597 E10.00664
G1 X103.356 Y102.983 E10.05865
G1 X103.638 Y102.818 E10.07386
G1 X103.963 Y102.635 E10.09123
G1 X104.234 Y102.489 E10.10556
G1 X105.31 Y101.985 E10.16089
G1 X105.646 Y101.85 E10.17775
G1 X106.24 Y101.628 E10.20728
G1 X107.477 Y101.262 E10.26735
G1 X108.079 Y101.123 E10.29611
G1 X108.984 Y100.955 E10.33898
G1 X109.492 Y100.896 E10.36279
G1 X110.134 Y100.84 E10.3928
G1 X110.402 Y100.822 E10.4053
G1 X110.932 Y100.8 E10.43
G1 X111.701 Y100.788 E10.46582
G1 X123.496 Y100.789 E11.01504
G1 X124.028 Y100.802 E11.03982
G0 F6000 X124.048 Y100.403
G1 F1200 X124.982 Y100.45 E11.08337
G1 X126.229 Y100.584 E11.14177
G1 X126.446 Y100.62 E11.15201
G1 X127.069 Y100.742 E11.18157
G1 X127.472 Y100.833 E11.20081
G1 X128.667 Y101.175 E11.25869
G1 X129.069 Y101.315 E11.27851
G1 X129.628 Y101.524 E11.3063
G1 X130.708 Y102.01 E11.36144
G1 X130.962 Y102.141 E11.37475
G1 X131.265 Y102.303 E11.39075
G1 X131.551 Y102.462 E11.40599
G1 X132.602 Y103.127 E11.4639
G1 X132.921 Y103.355 E11.48216
G1 X133.411 Y103.722 E11.51066
G1 X134.33 Y104.509 E11.567
G1 X134.58 Y104.748 E11.58311
G1 X135.027 Y105.196 E11.61258
G1 X135.841 Y106.126 E11.67013
G1 X136.223 Y106.621 E11.69924
G1 X136.401 Y106.861 E11.71315
G1 X137.119 Y107.96 E11.77428
G1 X137.411 Y108.479 E11.80201
G1 X137.55 Y108.737 E11.81566
G1 X138.091 Y109.897 E11.87526
G1 X138.322 Y110.492 E11.90498
G1 X138.418 Y110.755 E11.91801
G1 X138.778 Y111.947 E11.97599
G1 X138.875 Y112.349 E11.99525
G1 X139.003 Y112.935 E12.02318
G1 X139.183 Y114.132 E12.07954
G1 X139.212 Y114.438 E12.09386
G1 X139.259 Y115.1 E12.12476
G1 X139.274 Y116.186 E12.17533
G1 X139.265 Y116.438 E12.18708
G1 X139.242 Y116.862 E12.20685
G1 X139.216 Y117.211 E12.22314
G1 X139.046 Y118.48 E12.28276
G1 X138.956 Y118.946 E12.30486
G1 X138.662 Y120.119 E12.36117
G1 X138.492 Y120.667 E12.38789
G1 X138.249 Y121.366 E12.42235
G1 X138.158 Y121.602 E12.43412
G1 X137.672 Y122.684 E12.48936
G1 X137.375 Y123.25 E12.51912
G1 X137.217 Y123.534 E12.53425
G1 X136.553 Y124.582 E12.59202
G1 X136.124 Y125.174 E12.62606
G1 X135.97 Y125.376 E12.63789
G1 X135.177 Y126.304 E12.69473
G1 X134.944 Y126.548 E12.71044
G1 X134.689 Y126.807 E12.72737
G1 X134.488 Y127.004 E12.74047
G1 X133.576 Y127.804 E12.79696
G1 X133.298 Y128.022 E12.81341
G1 X132.783 Y128.407 E12.84335
G1 X131.722 Y129.098 E12.90231
G1 X131.442 Y129.258 E12.91733
G1 X130.894 Y129.555 E12.94635
G1 X129.843 Y130.045 E13.00035
G1 X129.536 Y130.169 E13.01576
G1 X129.15 Y130.317 E13.03501
G1 X128.884 Y130.413 E13.04818
G1 X127.723 Y130.761 E13.10462
G1 X127.324 Y130.857 E13.12373
G1 X126.738 Y130.984 E13.15165
G1 X125.524 Y131.166 E13.20881
G1 X124.903 Y131.219 E13.23783
G1 X124.573 Y131.24 E13.25323
G1 X124.098 Y131.26 E13.27537
G1 X123.382 Y131.272 E13.30871
G1 X111.505 Y131.271 E13.86175
G1 X110.954 Y131.257 E13.88742
G1 X110.019 Y131.21 E13.93101
G1 X108.676 Y131.06 E13.99394
G1 X108.453 Y131.021 E14.00448
G1 X107.937 Y130.918 E14.02898
G1 X107.523 Y130.825 E14.04874
G1 X106.319 Y130.481 E14.10704
G1 X105.721 Y130.269 E14.13659
G1 X105.47 Y130.174 E14.14908
G1 X104.351 Y129.677 E14.2061
G1 X104.019 Y129.507 E14.22346
G1 X103.446 Y129.196 E14.25382
G1 X102.406 Y128.54 E14.31108
G1 X102.124 Y128.339 E14.3272
G1 X101.625 Y127.966 E14.35621
G1 X100.682 Y127.161 E14.41395
G1 X100.189 Y126.684 E14.44589
G1 X100.016 Y126.509 E14.45735
G1 X99.191 Y125.573 E14.51544
G1 X98.76 Y125.018 E14.54817
G1 X98.601 Y124.803 E14.56062
G1 X97.925 Y123.772 E14.61802
G1 X97.603 Y123.206 E14.64835
G1 X97.457 Y122.935 E14.66268
G1 X96.934 Y121.819 E14.72007
G1 X96.799 Y121.483 E14.73693
G1 X96.57 Y120.871 E14.76736
G1 X96.216 Y119.694 E14.82459
G1 X96.075 Y119.1 E14.85302
G1 X96.019 Y118.841 E14.86535
G1 X95.817 Y117.525 E14.92735
G1 X95.743 Y116.601 E14.97051
G1 X95.729 Y115.379 E15.02742
G1 X95.761 Y114.766 E15.056
G1 X95.787 Y114.423 E15.07202
G1 X95.954 Y113.176 E15.1306
G1 X96.025 Y112.807 E15.1481
G1 X96.158 Y112.191 E15.17744
G1 X96.495 Y111.01 E15.23463
G1 X96.708 Y110.41 E15.26428
G1 X96.802 Y110.161 E15.27667
G1 X97.302 Y109.033 E15.33413
G1 X97.473 Y108.699 E15.3516
G1 X97.776 Y108.139 E15.38125
G1 X98.437 Y107.092 E15.4389
G1 X98.842 Y106.531 E15.47112
G1 X99.009 Y106.311 E15.48398
G1 X99.798 Y105.384 E15.54066
G1 X100.047 Y105.122 E15.55749
G1 X100.49 Y104.677 E15.58673
G1 X101.403 Y103.873 E15.64338
G1 X101.703 Y103.637 E15.66115
G1 X102.185 Y103.275 E15.68922
G1 X103.154 Y102.638 E15.74322
G1 X103.436 Y102.473 E15.75843
G1 X103.774 Y102.283 E15.77649
G1 X104.045 Y102.137 E15.79082
G1 X105.161 Y101.614 E15.84821
G1 X105.497 Y101.479 E15.86507
G1 X106.103 Y101.252 E15.8952
G1 X107.387 Y100.872 E15.95756
G1 X107.989 Y100.733 E15.98633
G1 X108.911 Y100.561 E16.03
G1 X109.455 Y100.497 E16.0555
G1 X110.375 Y100.423 E16.09848
G1 X110.925 Y100.4 E16.12411
G1 X111.701 Y100.388 E16.16025
G1 X123.496 Y100.389 E16.70948
G1 X124.048 Y100.403 E16.73519
G1 F1500 E10.23519
;MESH:ServoHorn.STL
G0 F6000 X112.413 Y114.767
G0 X113.533 Y113.829
G0 X113.868 Y115.352
G0 X113.91 Y115.83
G0 X113.868 Y116.308
G0 X113.743 Y116.774
G0 X113.539 Y117.21
G0 X113.263 Y117.603
G0 X112.923 Y117.943
G0 X112.53 Y118.219
G0 X111.15 Y118.751
;TYPE:WALL-INNER
G1 F1500 E16.73519
G1 F1200 X111.657 Y118.706 E16.75889
G1 X112.15 Y118.574 E16.78265
G1 X112.61 Y118.359 E16.8063
G1 X113.027 Y118.067 E16.83
G1 X113.387 Y117.707 E16.85371
G1 X113.679 Y117.29 E16.87741
G1 X113.894 Y116.83 E16.90106
G1 X114.026 Y116.337 E16.92482
G1 X114.071 Y115.83 E16.94852
G1 X114.026 Y115.323 E16.97222
G1 X113.894 Y114.83 E16.99599
G1 X113.679 Y114.37 E17.01963
G1 X113.387 Y113.953 E17.04334
G1 X113.027 Y113.593 E17.06704
G1 X112.61 Y113.301 E17.09075
G1 X112.15 Y113.086 E17.11439
G1 X111.657 Y112.954 E17.13816
G1 X111.15 Y112.909 E17.16186
G1 X110.643 Y112.954 E17.18556
G1 X110.15 Y113.086 E17.20932
G1 X109.69 Y113.301 E17.23297
G1 X109.273 Y113.593 E17.25667
G1 X108.913 Y113.953 E17.28038
G1 X108.621 Y114.37 E17.30408
G1 X108.406 Y114.83 E17.32773
G1 X108.274 Y115.323 E17.35149
G1 X108.229 Y115.83 E17.37519
G1 X108.274 Y116.337 E17.39889
G1 X108.406 Y116.83 E17.42266
G1 X108.621 Y117.29 E17.4463
G1 X108.913 Y117.707 E17.47
G1 X109.273 Y118.067 E17.49371
G1 X109.69 Y118.359 E17.51742
G1 X110.15 Y118.574 E17.54106
G1 X110.643 Y118.706 E17.56482
G1 X111.15 Y118.751 E17.58853
G0 F6000 X111.15 Y118.349
;TYPE:WALL-OUTER
G1 F1200 X111.587 Y118.311 E17.60895
G1 X112.012 Y118.197 E17.62944
G1 X112.409 Y118.011 E17.64985
G1 X112.769 Y117.759 E17.67032
G1 X113.079 Y117.449 E17.69073
G1 X113.331 Y117.089 E17.71119
G1 X113.517 Y116.692 E17.73161
G1 X113.631 Y116.267 E17.7521
G1 X113.669 Y115.83 E17.77252
G1 X113.631 Y115.393 E17.79295
G1 X113.517 Y114.968 E17.81344
G1 X113.331 Y114.571 E17.83385
G1 X113.079 Y114.211 E17.85431
G1 X112.769 Y113.901 E17.87473
G1 X112.409 Y113.649 E17.89519
G1 X112.012 Y113.463 E17.9156
G1 X111.587 Y113.349 E17.93609
G1 X111.15 Y113.311 E17.95652
G1 X110.713 Y113.349 E17.97694
G1 X110.288 Y113.463 E17.99743
G1 X109.891 Y113.649 E18.01785
G1 X109.531 Y113.901 E18.03831
G1 X109.221 Y114.211 E18.05872
G1 X108.969 Y114.571 E18.07918
G1 X108.783 Y114.968 E18.0996
G1 X108.669 Y115.393 E18.12009
G1 X108.631 Y115.83 E18.14051
G1 X108.669 Y116.267 E18.16094
G1 X108.783 Y116.692 E18.18143
G1 X108.969 Y117.089 E18.20184
G1 X109.221 Y117.449 E18.2223
