;FLAVOR:Marlin
;TIME:17360
;Filament used: 20.1644m
;Layer height: 0.28
;MINX:53.335
;MINY:29.205
;MINZ:0.28
;MAXX:181.665
;MAXY:201.985
;MAXZ:3.64
;Generated with Cura_SteamEngine 4.6.1
M140 S85
M105
M190 S85
M104 S235
M105
M109 S235
M82 ;absolute extrusion mode
; Ender 3 Custom Start G-code
G92 E0 ; Reset Extruder
G28 ; Home all axes
G1 Z2.0 F3000 ; Move Z Axis up little to prevent scratching of Heat Bed
G1 X0.1 Y20 Z0.3 F5000.0 ; Move to start position
G1 X0.1 Y200.0 Z0.3 F1500.0 E15 ; Draw the first line
G1 X0.4 Y200.0 Z0.3 F5000.0 ; Move to side a little
G1 X0.4 Y20 Z0.3 F1500.0 E30 ; Draw the second line
G92 E0 ; Reset Extruder
G1 Z2.0 F3000 ; Move Z Axis up little to prevent scratching of Heat Bed
G1 X5 Y20 Z0.3 F5000.0 ; Move over to prevent blob squish
G92 E0
G92 E0
G1 F1500 E-6.5
;LAYER_COUNT:13
;LAYER:0
M107
;MESH:BasePlate.STL
G0 F6000 X147.249 Y169.132 Z0.28
;TYPE:WALL-INNER
G1 F1500 E0
G1 F1200 X147.671 Y169.245 E0.02034
G1 X148.107 Y169.284 E0.04073
G1 X148.543 Y169.245 E0.06111
G1 X148.966 Y169.132 E0.0815
G1 X149.36 Y168.948 E0.10174
G1 X149.719 Y168.697 E0.12214
G1 X150.028 Y168.388 E0.14249
G1 X150.279 Y168.029 E0.16289
G1 X150.463 Y167.635 E0.18313
G1 X150.576 Y167.212 E0.20352
G1 X150.615 Y166.776 E0.22391
G1 X150.576 Y166.34 E0.24429
G1 X150.463 Y165.918 E0.26463
G1 X150.279 Y165.522 E0.28496
G1 X150.028 Y165.164 E0.30532
G1 X149.719 Y164.855 E0.32567
G1 X149.36 Y164.604 E0.34607
G1 X148.966 Y164.42 E0.36632
G1 X148.543 Y164.307 E0.3867
G1 X148.107 Y164.268 E0.40709
G1 X147.671 Y164.307 E0.42747
G1 X147.249 Y164.42 E0.44781
G1 X146.853 Y164.604 E0.46814
G1 X146.495 Y164.855 E0.4885
G1 X146.186 Y165.164 E0.50885
G1 X145.935 Y165.522 E0.52921
G1 X145.751 Y165.918 E0.54954
G1 X145.638 Y166.34 E0.56989
G1 X145.599 Y166.776 E0.59027
G1 X145.638 Y167.212 E0.61065
G1 X145.751 Y167.635 E0.63104
G1 X145.935 Y168.029 E0.65129
G1 X146.186 Y168.388 E0.67168
G1 X146.495 Y168.697 E0.69203
G1 X146.853 Y168.948 E0.71239
G1 X147.249 Y169.132 E0.73272
G0 F6000 X147.386 Y168.755
;TYPE:WALL-OUTER
G1 F1200 X147.741 Y168.85 E0.74984
G1 X148.107 Y168.882 E0.76694
G1 X148.473 Y168.85 E0.78405
G1 X148.828 Y168.755 E0.80116
G1 X149.159 Y168.6 E0.81818
G1 X149.461 Y168.389 E0.83534
G1 X149.72 Y168.13 E0.85239
G1 X149.931 Y167.828 E0.86955
G1 X150.086 Y167.497 E0.88657
G1 X150.181 Y167.142 E0.90368
G1 X150.213 Y166.776 E0.92079
G1 X150.181 Y166.41 E0.93789
G1 X150.086 Y166.055 E0.95501
G1 X149.931 Y165.723 E0.97207
G1 X149.72 Y165.422 E0.98918
G1 X149.461 Y165.163 E1.00624
G1 X149.159 Y164.952 E1.02339
G1 X148.828 Y164.797 E1.04041
G1 X148.473 Y164.702 E1.05752
G1 X148.107 Y164.67 E1.07463
G1 X147.741 Y164.702 E1.09174
G1 X147.386 Y164.797 E1.10885
G1 X147.054 Y164.952 E1.12591
G1 X146.753 Y165.163 E1.14303
G1 X146.494 Y165.422 E1.16008
G1 X146.283 Y165.723 E1.1772
G1 X146.128 Y166.055 E1.19426
G1 X146.033 Y166.41 E1.21137
G1 X146.001 Y166.776 E1.22848
G1 X146.033 Y167.142 E1.24559
G1 X146.128 Y167.497 E1.2627
G1 X146.283 Y167.828 E1.27972
G1 X146.494 Y168.13 E1.29687
G1 X146.753 Y168.389 E1.31393
G1 X147.054 Y168.6 E1.33105
G1 X147.386 Y168.755 E1.34811
G0 F6000 X147.236 Y169.168
G1 F1500 E-5.15189
G0 F6000 X148.514 Y169.087
G0 X149.279 Y168.808
G0 X149.904 Y168.284
G0 X150.312 Y167.579
G0 X150.454 Y166.776
G0 X150.312 Y165.973
G0 X149.456 Y164.438
G0 X148.725 Y165.702
G0 X159.431 Y147.615
G0 X158.697 Y148.878
G0 X158.792 Y148.712
;TYPE:WALL-INNER
G1 F1500 E1.34811
G1 F1200 X159.388 Y148.99 E1.37873
G1 X160.025 Y149.16 E1.40943
G1 X160.68 Y149.218 E1.44005
G1 X161.335 Y149.16 E1.47067
G1 X161.972 Y148.99 E1.50137
G1 X162.568 Y148.712 E1.53199
G1 X163.108 Y148.334 E1.56268
G1 X163.574 Y147.868 E1.59337
G1 X163.952 Y147.328 E1.62406
G1 X164.23 Y146.732 E1.65469
G1 X164.4 Y146.095 E1.68538
G1 X164.458 Y145.44 E1.716
G1 X164.4 Y144.785 E1.74662
G1 X164.23 Y144.148 E1.77732
G1 X163.952 Y143.551 E1.80799
G1 X163.573 Y143.012 E1.83867
G1 X163.108 Y142.546 E1.86932
G1 X162.568 Y142.168 E1.90002
G1 X161.972 Y141.89 E1.93064
G1 X161.335 Y141.72 E1.96134
G1 X160.68 Y141.662 E1.99196
G1 X160.025 Y141.72 E2.02258
G1 X159.388 Y141.89 E2.05328
G1 X158.792 Y142.168 E2.0839
G1 X158.252 Y142.546 E2.11459
G1 X157.787 Y143.012 E2.14525
G1 X157.408 Y143.551 E2.17593
G1 X157.13 Y144.148 E2.20659
G1 X156.96 Y144.785 E2.23729
G1 X156.902 Y145.44 E2.26791
G1 X156.96 Y146.095 E2.29853
G1 X157.13 Y146.732 E2.32923
G1 X157.408 Y147.328 E2.35985
G1 X157.786 Y147.868 E2.39054
G1 X158.252 Y148.334 E2.42123
G1 X158.792 Y148.712 E2.45192
G0 F6000 X158.993 Y148.364
;TYPE:WALL-OUTER
G1 F1200 X159.525 Y148.613 E2.47928
G1 X160.094 Y148.765 E2.5067
G1 X160.68 Y148.816 E2.53409
G1 X161.266 Y148.765 E2.56148
G1 X161.835 Y148.613 E2.5889
G1 X162.367 Y148.364 E2.61625
G1 X162.85 Y148.026 E2.6437
G1 X163.266 Y147.61 E2.6711
G1 X163.604 Y147.127 E2.69855
G1 X163.853 Y146.595 E2.7259
G1 X164.005 Y146.026 E2.75333
G1 X164.056 Y145.44 E2.78071
G1 X164.005 Y144.854 E2.8081
G1 X163.853 Y144.285 E2.83553
G1 X163.604 Y143.752 E2.86292
G1 X163.266 Y143.27 E2.89033
G1 X162.85 Y142.854 E2.91773
G1 X162.367 Y142.516 E2.94518
G1 X161.835 Y142.267 E2.97253
G1 X161.266 Y142.115 E2.99995
G1 X160.68 Y142.064 E3.02734
G1 X160.094 Y142.115 E3.05473
G1 X159.525 Y142.267 E3.08216
G1 X158.993 Y142.516 E3.10951
G1 X158.51 Y142.854 E3.13696
G1 X158.094 Y143.27 E3.16435
G1 X157.756 Y143.752 E3.19177
G1 X157.507 Y144.285 E3.21916
G1 X157.355 Y144.854 E3.24658
G1 X157.304 Y145.44 E3.27397
G1 X157.355 Y146.026 E3.30136
G1 X157.507 Y146.595 E3.32879
G1 X157.756 Y147.127 E3.35614
G1 X158.094 Y147.61 E3.38359
G1 X158.51 Y148.026 E3.41098
G1 X158.993 Y148.364 E3.43843
G0 F6000 X158.773 Y148.744
G1 F1500 E-3.06157
G0 F6000 X157.91 Y147.764
G0 X157.548 Y147.247
G0 X157.281 Y146.677
G0 X157.118 Y146.067
G0 X157.063 Y145.44
G0 X157.118 Y144.813
G0 X157.281 Y144.203
G0 X157.497 Y143.741
G0 X158.696 Y142.002
G0 X159.431 Y143.265
G0 X158.696 Y118.105
G0 X158.696 Y119.56
G0 X153.956 Y119.199
G0 X153.73 Y118.76
;TYPE:WALL-INNER
G1 F1500 E3.43843
G1 F1200 X153.805 Y119.37 E3.46705
G1 X167.63 Y119.37 E4.1108
G1 X167.63 Y99.12 E5.05373
G1 X135.444 Y99.12 E6.55244
G1 X135.444 Y110.48 E7.08141
G1 X146.689 Y110.48 E7.60503
G1 X147.765 Y110.564 E7.65528
G1 X148.84 Y110.816 E7.70669
G1 X149.853 Y111.229 E7.75763
G1 X150.804 Y111.802 E7.80933
G1 X151.64 Y112.509 E7.86032
G1 X152.36 Y113.342 E7.91158
G1 X152.939 Y114.277 E7.96279
G1 X153.37 Y115.299 E8.01444
G1 X153.63 Y116.356 E8.06513
G1 X153.726 Y117.479 E8.11761
G1 X153.73 Y118.76 E8.17726
G0 F6000 X154.159 Y118.97
;TYPE:WALL-OUTER
G1 F1200 X167.23 Y118.97 E8.7859
G1 X167.23 Y99.52 E9.69157
G1 X135.844 Y99.52 E11.15304
G1 X135.844 Y110.08 E11.64475
G1 X146.707 Y110.08 E12.15058
G1 X147.822 Y110.167 E12.20266
G1 X148.962 Y110.434 E12.25718
G1 X150.039 Y110.873 E12.31133
G1 X151.032 Y111.472 E12.36533
G1 X151.924 Y112.226 E12.41972
G1 X152.684 Y113.106 E12.47386
G1 X153.297 Y114.095 E12.52804
G1 X153.749 Y115.166 E12.58217
G1 X154.027 Y116.297 E12.6364
G1 X154.126 Y117.456 E12.69057
G1 X154.13 Y118.735 E12.75012
G1 X154.159 Y118.97 E12.76115
G1 F1500 E6.26115
G0 F6000 X154.159 Y119.27
G0 X153.539 Y118.772
G0 X154.981 Y118.117
G0 X133.662 Y116.926
G0 X134.216 Y118.314
G0 X132.431 Y118.445
;TYPE:WALL-INNER
G1 F1500 E12.76115
G1 F1200 X132.867 Y118.484 E12.78153
G1 X133.303 Y118.445 E12.80191
G1 X133.726 Y118.332 E12.8223
G1 X134.12 Y118.148 E12.84255
G1 X134.479 Y117.897 E12.86295
G1 X134.788 Y117.588 E12.8833
G1 X135.039 Y117.229 E12.90369
G1 X135.223 Y116.835 E12.92394
G1 X135.336 Y116.412 E12.94433
G1 X135.375 Y115.976 E12.96471
G1 X135.336 Y115.54 E12.98509
G1 X135.223 Y115.118 E13.00544
G1 X135.039 Y114.722 E13.02577
G1 X134.788 Y114.364 E13.04613
G1 X134.479 Y114.055 E13.06648
G1 X134.12 Y113.804 E13.08687
G1 X133.726 Y113.62 E13.10712
G1 X133.303 Y113.507 E13.12751
G1 X132.867 Y113.468 E13.14789
G1 X132.431 Y113.507 E13.16828
G1 X132.009 Y113.62 E13.18862
G1 X131.613 Y113.804 E13.20895
G1 X131.255 Y114.055 E13.22931
G1 X130.946 Y114.364 E13.24966
G1 X130.695 Y114.722 E13.27002
G1 X130.511 Y115.118 E13.29035
G1 X130.398 Y115.54 E13.31069
G1 X130.359 Y115.976 E13.33107
G1 X130.398 Y116.412 E13.35146
G1 X130.511 Y116.835 E13.37185
G1 X130.695 Y117.229 E13.39209
G1 X130.946 Y117.588 E13.41249
G1 X131.255 Y117.897 E13.43284
G1 X131.613 Y118.148 E13.4532
G1 X132.009 Y118.332 E13.47353
G1 X132.431 Y118.445 E13.49387
G0 F6000 X132.501 Y118.05
;TYPE:WALL-OUTER
G1 F1200 X132.867 Y118.082 E13.51098
G1 X133.233 Y118.05 E13.52809
G1 X133.588 Y117.955 E13.5452
G1 X133.919 Y117.8 E13.56222
G1 X134.221 Y117.589 E13.57937
G1 X134.48 Y117.33 E13.59643
G1 X134.691 Y117.028 E13.61358
G1 X134.846 Y116.697 E13.6306
G1 X134.941 Y116.342 E13.64771
G1 X134.973 Y115.976 E13.66482
G1 X134.941 Y115.61 E13.68193
G1 X134.846 Y115.255 E13.69904
G1 X134.691 Y114.923 E13.7161
G1 X134.48 Y114.622 E13.73322
G1 X134.221 Y114.363 E13.75027
G1 X133.919 Y114.152 E13.76743
G1 X133.588 Y113.997 E13.78445
G1 X133.233 Y113.902 E13.80156
G1 X132.867 Y113.87 E13.81867
G1 X132.501 Y113.902 E13.83578
G1 X132.146 Y113.997 E13.85289
G1 X131.814 Y114.152 E13.86995
G1 X131.513 Y114.363 E13.88706
G1 X131.254 Y114.622 E13.90412
G1 X131.043 Y114.923 E13.92124
G1 X130.888 Y115.255 E13.9383
G1 X130.793 Y115.61 E13.95541
G1 X130.761 Y115.976 E13.97252
G1 X130.793 Y116.342 E13.98962
G1 X130.888 Y116.697 E14.00674
G1 X131.043 Y117.028 E14.02376
G1 X131.254 Y117.33 E14.04091
G1 X131.513 Y117.589 E14.05797
G1 X131.814 Y117.8 E14.07508
G1 X132.146 Y117.955 E14.09214
G1 X132.501 Y118.05 E14.10926
G0 F6000 X132.425 Y118.483
G1 F1500 E7.60926
G0 F6000 X130.529 Y117.325
G0 X131.793 Y116.594
G0 X92.043 Y105.405
G0 X92.043 Y106.84
G0 X93.97 Y106.67
;TYPE:WALL-INNER
G1 F1500 E14.10926
G1 F1200 X93.97 Y101.66 E14.34254
G1 X69.91 Y101.66 E15.46288
G1 X69.91 Y106.67 E15.69616
G1 X93.97 Y106.67 E16.8165
G0 F6000 X93.57 Y106.27
;TYPE:WALL-OUTER
G1 F1200 X93.57 Y102.06 E17.01253
G1 X70.31 Y102.06 E18.09562
G1 X70.31 Y106.27 E18.29165
G1 X93.57 Y106.27 E19.37473
G1 F1500 E12.87473
G0 F6000 X93.87 Y106.27
G0 X93.806 Y106.475
G0 X92.043 Y106.84
G0 X92.043 Y105.405
G0 X103.857 Y115.352
G0 X102.589 Y114.626
G0 X102.616 Y116.383
G0 X102.895 Y117.148
G0 X103.419 Y117.773
G0 X104.053 Y118.14
G0 X105.363 Y118.445
;TYPE:WALL-INNER
G1 F1500 E19.37473
G1 F1200 X105.786 Y118.332 E19.39512
G1 X106.18 Y118.148 E19.41537
G1 X106.539 Y117.897 E19.43577
G1 X106.848 Y117.588 E19.45612
G1 X107.099 Y117.229 E19.47651
G1 X107.283 Y116.835 E19.49676
G1 X107.396 Y116.412 E19.51715
G1 X107.435 Y115.976 E19.53753
G1 X107.396 Y115.54 E19.55791
G1 X107.283 Y115.118 E19.57826
G1 X107.099 Y114.722 E19.59859
G1 X106.848 Y114.364 E19.61895
G1 X106.539 Y114.055 E19.6393
G1 X106.18 Y113.804 E19.65969
G1 X105.786 Y113.62 E19.67994
G1 X105.363 Y113.507 E19.70033
G1 X104.927 Y113.468 E19.72071
G1 X104.491 Y113.507 E19.7411
G1 X104.069 Y113.62 E19.76144
G1 X103.673 Y113.804 E19.78177
G1 X103.315 Y114.055 E19.80213
G1 X103.006 Y114.364 E19.82248
G1 X102.755 Y114.722 E19.84284
G1 X102.571 Y115.118 E19.86317
G1 X102.458 Y115.54 E19.88351
G1 X102.419 Y115.976 E19.90389
G1 X102.458 Y116.412 E19.92428
G1 X102.571 Y116.835 E19.94466
G1 X102.755 Y117.229 E19.96491
G1 X103.006 Y117.588 E19.98531
G1 X103.315 Y117.897 E20.00566
G1 X103.673 Y118.148 E20.02602
G1 X104.069 Y118.332 E20.04635
G1 X104.491 Y118.445 E20.06669
G1 X104.927 Y118.484 E20.08708
G1 X105.363 Y118.445 E20.10746
G0 F6000 X105.293 Y118.05
;TYPE:WALL-OUTER
G1 F1200 X105.648 Y117.955 E20.12457
G1 X105.979 Y117.8 E20.14159
G1 X106.281 Y117.589 E20.15874
G1 X106.54 Y117.33 E20.1758
G1 X106.751 Y117.028 E20.19295
G1 X106.906 Y116.697 E20.20997
G1 X107.001 Y116.342 E20.22709
G1 X107.033 Y115.976 E20.24419
G1 X107.001 Y115.61 E20.2613
G1 X106.906 Y115.255 E20.27841
G1 X106.751 Y114.923 E20.29547
G1 X106.54 Y114.622 E20.31259
G1 X106.281 Y114.363 E20.32965
G1 X105.979 Y114.152 E20.3468
G1 X105.648 Y113.997 E20.36382
G1 X105.293 Y113.902 E20.38093
G1 X104.927 Y113.87 E20.39804
G1 X104.561 Y113.902 E20.41515
G1 X104.206 Y113.997 E20.43226
G1 X103.874 Y114.152 E20.44932
G1 X103.573 Y114.363 E20.46644
G1 X103.314 Y114.622 E20.48349
G1 X103.103 Y114.923 E20.50061
G1 X102.948 Y115.255 E20.51767
G1 X102.853 Y115.61 E20.53478
G1 X102.821 Y115.976 E20.55189
G1 X102.853 Y116.342 E20.569
G1 X102.948 Y116.697 E20.58611
G1 X103.103 Y117.028 E20.60313
G1 X103.314 Y117.33 E20.62028
G1 X103.573 Y117.589 E20.63734
G1 X103.874 Y117.8 E20.65445
G1 X104.206 Y117.955 E20.67151
G1 X104.561 Y118.05 E20.68863
G1 X104.927 Y118.082 E20.70573
G1 X105.293 Y118.05 E20.72284
G0 F6000 X105.369 Y118.483
G1 F1500 E14.22284
G0 F6000 X103.577 Y118.314
G0 X104.303 Y117.046
G0 X92.224 Y122.819
G0 X93.663 Y123.073
G0 X92.732 Y124.148
G0 X91.863 Y124.96
;TYPE:WALL-INNER
G1 F1500 E20.72284
G1 F1200 X92.259 Y124.774 E20.74321
G1 X92.616 Y124.525 E20.76348
G1 X92.926 Y124.215 E20.7839
G1 X93.177 Y123.857 E20.80425
G1 X93.361 Y123.461 E20.82459
G1 X93.474 Y123.039 E20.84493
G1 X93.513 Y122.603 E20.86531
G1 X93.474 Y122.168 E20.88565
G1 X93.361 Y121.746 E20.90599
G1 X93.177 Y121.35 E20.92632
G1 X92.926 Y120.992 E20.94668
G1 X92.616 Y120.682 E20.9671
G1 X92.259 Y120.433 E20.98736
G1 X91.864 Y120.247 E21.00769
G1 X91.441 Y120.134 E21.02808
G1 X91.005 Y120.095 E21.04846
G1 X90.569 Y120.134 E21.06885
G1 X90.146 Y120.247 E21.08924
G1 X89.751 Y120.432 E21.10955
G1 X89.393 Y120.682 E21.12988
G1 X89.084 Y120.992 E21.15026
G1 X88.833 Y121.35 E21.17062
G1 X88.649 Y121.746 E21.19095
G1 X88.536 Y122.168 E21.21129
G1 X88.497 Y122.603 E21.23163
G1 X88.536 Y123.039 E21.25201
G1 X88.649 Y123.461 E21.27236
G1 X88.833 Y123.857 E21.29269
G1 X89.084 Y124.215 E21.31305
G1 X89.393 Y124.525 E21.33343
G1 X89.751 Y124.775 E21.35376
G1 X90.147 Y124.96 E21.37411
G1 X90.57 Y125.072 E21.39449
G1 X91.005 Y125.111 E21.41482
G1 X91.44 Y125.072 E21.43516
G1 X91.863 Y124.96 E21.45554
G0 F6000 X91.726 Y124.583
;TYPE:WALL-OUTER
G1 F1200 X92.058 Y124.427 E21.47262
G1 X92.358 Y124.217 E21.48967
G1 X92.618 Y123.957 E21.50679
G1 X92.829 Y123.656 E21.52391
G1 X92.984 Y123.324 E21.54097
G1 X93.079 Y122.969 E21.55808
G1 X93.111 Y122.603 E21.57519
G1 X93.079 Y122.238 E21.59225
G1 X92.984 Y121.883 E21.60936
G1 X92.829 Y121.551 E21.62642
G1 X92.618 Y121.25 E21.64354
G1 X92.358 Y120.99 E21.66066
G1 X92.058 Y120.78 E21.67771
G1 X91.726 Y120.624 E21.69479
G1 X91.371 Y120.529 E21.7119
G1 X91.005 Y120.497 E21.72901
G1 X90.639 Y120.529 E21.74612
G1 X90.284 Y120.624 E21.76323
G1 X89.952 Y120.78 E21.78031
G1 X89.651 Y120.99 E21.7974
G1 X89.392 Y121.25 E21.81449
G1 X89.181 Y121.551 E21.83161
G1 X89.026 Y121.883 E21.84867
G1 X88.931 Y122.238 E21.86578
G1 X88.899 Y122.603 E21.88284
G1 X88.931 Y122.969 E21.89995
G1 X89.026 Y123.324 E21.91706
G1 X89.181 Y123.656 E21.93412
G1 X89.392 Y123.957 E21.95124
G1 X89.651 Y124.217 E21.96833
G1 X89.952 Y124.427 E21.98542
G1 X90.284 Y124.583 E22.0025
G1 X90.639 Y124.677 E22.0196
G1 X91.005 Y124.709 E22.03671
G1 X91.371 Y124.677 E22.05381
G1 X91.726 Y124.583 E22.07091
G0 F6000 X91.876 Y124.996
G1 F1500 E15.57091
G0 F6000 X91.005 Y125.302
G0 X91.005 Y123.84
G0 X91.005 Y134.366
G0 X91.005 Y132.904
G0 X92.512 Y133.806
G0 X93.037 Y134.43
G0 X93.316 Y135.196
G0 X93.316 Y136.01
G0 X93.037 Y136.775
G0 X92.613 Y137.28
G0 X91.863 Y137.959
;TYPE:WALL-INNER
G1 F1500 E22.07091
G1 F1200 X92.259 Y137.775 E22.09125
G1 X92.616 Y137.523 E22.11159
G1 X92.926 Y137.214 E22.13197
G1 X93.177 Y136.856 E22.15233
G1 X93.361 Y136.46 E22.17267
G1 X93.474 Y136.039 E22.19296
G1 X93.513 Y135.603 E22.21335
G1 X93.474 Y135.167 E22.23373
G1 X93.361 Y134.745 E22.25407
G1 X93.177 Y134.349 E22.2744
G1 X92.925 Y133.991 E22.29479
G1 X92.616 Y133.682 E22.31514
G1 X92.259 Y133.431 E22.33546
G1 X91.863 Y133.247 E22.35579
G1 X91.441 Y133.134 E22.37613
G1 X91.005 Y133.095 E22.39652
G1 X90.569 Y133.134 E22.4169
G1 X90.147 Y133.247 E22.43724
G1 X89.751 Y133.431 E22.45758
G1 X89.393 Y133.682 E22.47793
G1 X89.084 Y133.991 E22.49828
G1 X88.833 Y134.349 E22.51864
G1 X88.649 Y134.745 E22.53897
G1 X88.536 Y135.167 E22.55932
G1 X88.497 Y135.603 E22.5797
G1 X88.536 Y136.039 E22.60008
