;FLAVOR:Marlin
;TIME:12859
;Filament used: 14.1265m
;Layer height: 0.28
;MINX:53.335
;MINY:68.893
;MINZ:0.28
;MAXX:181.665
;MAXY:140.073
;MAXZ:25.76
;Generated with Cura_SteamEngine 4.6.1
M140 S85
M105
M190 S85
M104 S235
M105
M109 S235
M82 ;absolute extrusion mode
; Ender 3 Custom Start G-code
G92 E0 ; Reset Extruder
G28 ; Home all axes
G1 Z2.0 F3000 ; Move Z Axis up little to prevent scratching of Heat Bed
G1 X0.1 Y20 Z0.3 F5000.0 ; Move to start position
G1 X0.1 Y200.0 Z0.3 F1500.0 E15 ; Draw the first line
G1 X0.4 Y200.0 Z0.3 F5000.0 ; Move to side a little
G1 X0.4 Y20 Z0.3 F1500.0 E30 ; Draw the second line
G92 E0 ; Reset Extruder
G1 Z2.0 F3000 ; Move Z Axis up little to prevent scratching of Heat Bed
G1 X5 Y20 Z0.3 F5000.0 ; Move over to prevent blob squish
G92 E0
G92 E0
G1 F1500 E-6.5
;LAYER_COUNT:92
;LAYER:0
M107
G0 F6000 X170.359 Y90.431 Z0.28
;TYPE:SKIRT
G1 F1500 E0
G1 F1200 X170.438 Y90.544 E0.00642
G1 X170.622 Y90.938 E0.02667
G1 X170.734 Y91.357 E0.04686
G1 X170.78 Y91.886 E0.07159
G1 X170.78 Y117.08 E1.24473
G1 X170.734 Y117.608 E1.26941
G1 X170.622 Y118.027 E1.2896
G1 X170.44 Y118.416 E1.3096
G1 X170.354 Y118.538 E1.31655
G1 X170.359 Y90.431 E2.62533
G0 F6000 X170.784 Y90.341
G1 F1200 X171.001 Y90.805 E2.64918
G1 X171.128 Y91.282 E2.67217
G1 X171.18 Y91.874 E2.69984
G1 X171.18 Y117.092 E3.87409
G1 X171.128 Y117.683 E3.90172
G1 X171.001 Y118.16 E3.92471
G1 X170.786 Y118.619 E3.94831
G1 X170.498 Y119.03 E3.97168
G1 X170.146 Y119.382 E3.99486
G1 X169.954 Y119.517 E4.00578
G1 X169.959 Y89.451 E5.40578
G1 X170.146 Y89.583 E5.41644
G1 X170.503 Y89.94 E5.43995
G1 X170.784 Y90.341 E5.46275
G0 F6000 X171.135 Y90.146
G1 F1200 X171.376 Y90.663 E5.48931
G1 X171.525 Y91.218 E5.51607
G1 X171.58 Y91.85 E5.54561
G1 X171.58 Y117.116 E6.7221
G1 X171.525 Y117.747 E6.75159
G1 X171.376 Y118.302 E6.77835
G1 X171.134 Y118.821 E6.80502
G1 X170.808 Y119.287 E6.8315
G1 X170.406 Y119.688 E6.85794
G1 X169.932 Y120.021 E6.88491
G1 X169.554 Y120.197 E6.90433
G1 X169.559 Y88.771 E8.36765
G1 X169.933 Y88.945 E8.38686
G1 X170.406 Y89.277 E8.41377
G1 X170.807 Y89.677 E8.44014
G1 X171.135 Y90.146 E8.46679
G0 F6000 X171.481 Y89.943
G1 F1200 X171.754 Y90.527 E8.49681
G1 X171.92 Y91.147 E8.5267
G1 X171.98 Y91.838 E8.55899
G1 X171.98 Y117.128 E9.7366
G1 X171.92 Y117.818 E9.76885
G1 X171.754 Y118.438 E9.79874
G1 X171.482 Y119.02 E9.82865
G1 X171.113 Y119.546 E9.85857
G1 X170.662 Y119.997 E9.88827
G1 X170.135 Y120.367 E9.91826
G1 X169.56 Y120.635 E9.9478
G1 X169.154 Y120.743 E9.96736
G1 X169.159 Y88.223 E11.48162
G1 X169.558 Y88.329 E11.50085
G1 X170.137 Y88.599 E11.5306
G1 X170.662 Y88.968 E11.56048
G1 X171.116 Y89.421 E11.59034
G1 X171.481 Y89.943 E11.62
G0 F6000 X171.83 Y89.744
G1 F1200 X172.132 Y90.39 E11.65321
G1 X172.316 Y91.078 E11.68637
G1 X172.38 Y91.809 E11.72054
G1 X172.38 Y117.157 E12.90084
G1 X172.316 Y117.887 E12.93497
G1 X172.132 Y118.575 E12.96813
G1 X171.831 Y119.219 E13.00123
G1 X171.42 Y119.806 E13.0346
G1 X170.922 Y120.303 E13.06736
G1 X170.333 Y120.716 E13.10086
G1 X169.696 Y121.013 E13.13358
G1 X168.997 Y121.2 E13.16728
G1 X168.754 Y121.22 E13.17863
G1 X168.759 Y87.746 E14.73732
G1 X169.005 Y87.767 E14.74881
G1 X169.695 Y87.951 E14.78207
G1 X170.335 Y88.25 E14.81496
G1 X170.922 Y88.662 E14.84835
G1 X171.423 Y89.162 E14.88131
G1 X171.83 Y89.744 E14.91438
G1 F1500 E8.41438
G0 F6000 X66.246 Y87.745
G1 F1500 E14.91438
G1 F1200 X66.246 Y121.22 E16.47312
G1 X65.994 Y121.198 E16.4849
G1 X65.305 Y121.014 E16.5181
G1 X64.665 Y120.715 E16.551
G1 X64.078 Y120.303 E16.58439
G1 X63.58 Y119.806 E16.61715
G1 X63.169 Y119.219 E16.65052
G1 X62.868 Y118.575 E16.68362
G1 X62.684 Y117.887 E16.71678
G1 X62.62 Y117.157 E16.7509
G1 X62.62 Y91.809 E17.93121
G1 X62.684 Y91.078 E17.96538
G1 X62.868 Y90.39 E17.99854
G1 X63.17 Y89.744 E18.03175
G1 X63.577 Y89.162 E18.06482
G1 X64.078 Y88.662 E18.09778
G1 X64.665 Y88.251 E18.13114
G1 X65.304 Y87.953 E18.16398
G1 X66.02 Y87.765 E18.19845
G1 X66.246 Y87.745 E18.20901
G0 F6000 X65.846 Y88.224
G1 F1200 X65.846 Y120.743 E19.72323
G1 X65.442 Y120.636 E19.74269
G1 X64.863 Y120.366 E19.77244
G1 X64.338 Y119.997 E19.80232
G1 X63.887 Y119.546 E19.83202
G1 X63.518 Y119.02 E19.86194
G1 X63.246 Y118.438 E19.89185
G1 X63.08 Y117.818 E19.92174
G1 X63.02 Y117.128 E19.95399
G1 X63.02 Y91.838 E21.1316
G1 X63.08 Y91.147 E21.16389
G1 X63.246 Y90.527 E21.19378
G1 X63.519 Y89.943 E21.2238
G1 X63.884 Y89.421 E21.25346
G1 X64.337 Y88.969 E21.28326
G1 X64.864 Y88.6 E21.31321
G1 X65.442 Y88.331 E21.3429
G1 X65.846 Y88.224 E21.36236
G0 F6000 X65.446 Y88.769
G1 F1200 X65.446 Y120.197 E22.82578
G1 X65.067 Y120.02 E22.84526
G1 X64.594 Y119.688 E22.87217
G1 X64.192 Y119.287 E22.89861
G1 X63.866 Y118.821 E22.92509
G1 X63.624 Y118.302 E22.95175
G1 X63.475 Y117.747 E22.97851
G1 X63.42 Y117.116 E23.008
G1 X63.42 Y91.85 E24.18449
G1 X63.475 Y91.218 E24.21403
G1 X63.624 Y90.663 E24.24079
G1 X63.865 Y90.146 E24.26735
G1 X64.193 Y89.677 E24.294
G1 X64.596 Y89.275 E24.32051
G1 X65.063 Y88.948 E24.34705
G1 X65.446 Y88.769 E24.36674
G0 F6000 X65.046 Y89.449
G1 F1200 X65.046 Y119.517 E25.76683
G1 X64.854 Y119.382 E25.77776
G1 X64.502 Y119.03 E25.80094
G1 X64.214 Y118.619 E25.82431
G1 X63.999 Y118.16 E25.84791
G1 X63.872 Y117.683 E25.8709
G1 X63.82 Y117.092 E25.89852
G1 X63.82 Y91.874 E27.07278
G1 X63.872 Y91.282 E27.10045
G1 X63.999 Y90.805 E27.12343
G1 X64.216 Y90.341 E27.14729
G1 X64.497 Y89.94 E27.17009
G1 X64.852 Y89.584 E27.1935
G1 X65.046 Y89.449 E27.2045
G0 F6000 X64.646 Y90.424
G1 F1200 X64.646 Y118.539 E28.51365
G1 X64.56 Y118.416 E28.52064
G1 X64.378 Y118.027 E28.54064
G1 X64.266 Y117.608 E28.56084
G1 X64.22 Y117.08 E28.58552
G1 X64.22 Y91.886 E29.75865
G1 X64.266 Y91.357 E29.78338
G1 X64.378 Y90.938 E29.80357
G1 X64.562 Y90.544 E29.82382
G1 X64.646 Y90.424 E29.83064
G1 F1500 E23.33064
;MESH:BatteryHolder.STL
G0 F6000 X60.928 Y131.476
G0 X61.426 Y130.104
G0 X62.488 Y131.264
G0 X62.767 Y131.663
G0 X62.973 Y132.103
G0 X63.099 Y132.574
G0 X63.141 Y133.058
G0 X63.099 Y133.541
G0 X62.973 Y134.012
G0 X62.767 Y134.452
G0 X61.826 Y135.614
;TYPE:WALL-INNER
G1 F1500 E29.83064
G1 F1200 X62.247 Y135.319 E29.85458
G1 X62.612 Y134.955 E29.87858
G1 X62.907 Y134.533 E29.90256
G1 X63.124 Y134.067 E29.92649
G1 X63.258 Y133.569 E29.95051
G1 X63.301 Y133.058 E29.97439
G1 X63.258 Y132.546 E29.99831
G1 X63.124 Y132.048 E30.02233
G1 X62.907 Y131.582 E30.04626
G1 X62.612 Y131.16 E30.07024
G1 X62.247 Y130.796 E30.09424
G1 X61.826 Y130.501 E30.11818
G1 X61.36 Y130.284 E30.14211
G1 X60.863 Y130.151 E30.16607
G1 X60.35 Y130.105 E30.19005
G1 X59.837 Y130.151 E30.21404
G1 X59.34 Y130.284 E30.23799
G1 X58.874 Y130.501 E30.26193
G1 X58.453 Y130.796 E30.28587
G1 X58.088 Y131.16 E30.30987
G1 X57.793 Y131.582 E30.33384
G1 X57.576 Y132.048 E30.35778
G1 X57.443 Y132.545 E30.38174
G1 X57.397 Y133.058 E30.40572
G1 X57.443 Y133.57 E30.42966
G1 X57.576 Y134.067 E30.45361
G1 X57.793 Y134.533 E30.47755
G1 X58.088 Y134.955 E30.50153
G1 X58.453 Y135.319 E30.52553
G1 X58.874 Y135.614 E30.54947
G1 X59.34 Y135.831 E30.5734
G1 X59.837 Y135.964 E30.59736
G1 X60.35 Y136.01 E30.62134
G1 X60.863 Y135.964 E30.64533
G1 X61.36 Y135.831 E30.66928
G1 X61.826 Y135.614 E30.69322
G0 F6000 X61.625 Y135.266
;TYPE:WALL-OUTER
G1 F1200 X61.989 Y135.011 E30.71391
G1 X62.304 Y134.697 E30.73462
G1 X62.559 Y134.332 E30.75536
G1 X62.747 Y133.93 E30.77602
G1 X62.862 Y133.5 E30.79675
G1 X62.9 Y133.058 E30.8174
G1 X62.862 Y132.615 E30.83811
G1 X62.747 Y132.185 E30.85883
G1 X62.559 Y131.783 E30.8795
G1 X62.304 Y131.418 E30.90023
G1 X61.989 Y131.104 E30.92094
G1 X61.625 Y130.849 E30.94164
G1 X61.223 Y130.661 E30.9623
G1 X60.793 Y130.546 E30.98303
G1 X60.35 Y130.507 E31.00374
G1 X59.907 Y130.546 E31.02444
G1 X59.477 Y130.661 E31.04517
G1 X59.075 Y130.849 E31.06583
G1 X58.711 Y131.104 E31.08653
G1 X58.396 Y131.418 E31.10724
G1 X58.141 Y131.783 E31.12797
G1 X57.953 Y132.185 E31.14864
G1 X57.838 Y132.615 E31.16936
G1 X57.799 Y133.058 E31.19007
G1 X57.838 Y133.5 E31.21073
G1 X57.953 Y133.93 E31.23146
G1 X58.141 Y134.332 E31.25212
G1 X58.396 Y134.697 E31.27286
G1 X58.711 Y135.011 E31.29357
G1 X59.075 Y135.266 E31.31426
G1 X59.477 Y135.454 E31.33493
G1 X59.907 Y135.569 E31.35565
G1 X60.35 Y135.608 E31.37636
G1 X60.793 Y135.569 E31.39707
G1 X61.223 Y135.454 E31.41779
G1 X61.625 Y135.266 E31.43846
G0 F6000 X61.845 Y135.646
G1 F1500 E24.93846
G0 F6000 X62.767 Y134.452
G0 X62.973 Y134.012
G0 X63.099 Y133.541
G0 X63.11 Y133.405
G0 X63.073 Y131.486
G0 X61.808 Y132.218
G0 X67.466 Y121.529
G0 X67.72 Y122.967
G0 X68.643 Y122.522
;TYPE:WALL-INNER
G1 F1500 E31.43846
G1 F1200 X69.541 Y122.104 E31.48458
G1 X70.352 Y121.536 E31.53069
G1 X71.054 Y120.835 E31.57688
G1 X71.621 Y120.024 E31.62296
G1 X72.04 Y119.127 E31.66906
G1 X72.296 Y118.17 E31.71519
G1 X72.38 Y117.209 E31.76011
G1 X72.38 Y91.757 E32.94526
G1 X72.296 Y90.795 E32.99022
G1 X72.04 Y89.838 E33.03635
G1 X71.621 Y88.942 E33.08241
G1 X71.054 Y88.13 E33.12853
G1 X70.352 Y87.429 E33.17472
G1 X69.541 Y86.861 E33.22082
G1 X68.643 Y86.443 E33.26695
G1 X67.687 Y86.187 E33.31303
G1 X66.7 Y86.101 E33.35916
G1 X65.743 Y86.182 E33.40389
G1 X64.757 Y86.442 E33.45137
G1 X63.859 Y86.861 E33.49751
G1 X63.048 Y87.429 E33.54361
G1 X62.346 Y88.13 E33.58981
G1 X61.779 Y88.942 E33.63592
G1 X61.36 Y89.838 E33.68198
G1 X61.104 Y90.795 E33.72811
G1 X61.02 Y91.757 E33.77308
G1 X61.02 Y117.209 E34.95823
G1 X61.104 Y118.17 E35.00315
G1 X61.36 Y119.127 E35.04928
G1 X61.779 Y120.024 E35.09538
G1 X62.346 Y120.835 E35.14145
G1 X63.048 Y121.536 E35.18765
G1 X63.859 Y122.104 E35.23375
G1 X64.757 Y122.522 E35.27988
G1 X65.713 Y122.778 E35.32596
G1 X66.69 Y122.865 E35.37163
G1 X67.686 Y122.778 E35.41819
G1 X68.643 Y122.522 E35.46432
G0 F6000 X68.506 Y122.145
;TYPE:WALL-OUTER
G1 F1200 X69.34 Y121.756 E35.50717
G1 X70.094 Y121.228 E35.55003
G1 X70.746 Y120.577 E35.59293
G1 X71.273 Y119.823 E35.63577
G1 X71.663 Y118.989 E35.67864
G1 X71.901 Y118.1 E35.72149
G1 X71.98 Y117.192 E35.76393
G1 X71.98 Y91.774 E36.9475
G1 X71.901 Y90.865 E36.98999
G1 X71.663 Y89.976 E37.03284
G1 X71.273 Y89.143 E37.07567
G1 X70.746 Y88.388 E37.11854
G1 X70.094 Y87.737 E37.16144
G1 X69.34 Y87.209 E37.20431
G1 X68.506 Y86.82 E37.24716
G1 X67.617 Y86.582 E37.29001
G1 X66.7 Y86.502 E37.33287
G1 X65.812 Y86.578 E37.37437
G1 X64.894 Y86.82 E37.41858
G1 X64.06 Y87.209 E37.46143
G1 X63.306 Y87.737 E37.50429
G1 X62.654 Y88.388 E37.54719
G1 X62.127 Y89.143 E37.59007
G1 X61.737 Y89.976 E37.6329
G1 X61.499 Y90.865 E37.67575
G1 X61.42 Y91.774 E37.71823
G1 X61.42 Y117.192 E38.9018
G1 X61.499 Y118.1 E38.94424
G1 X61.737 Y118.989 E38.9871
G1 X62.127 Y119.823 E39.02997
G1 X62.654 Y120.577 E39.0728
G1 X63.306 Y121.228 E39.11571
G1 X64.06 Y121.756 E39.15857
G1 X64.894 Y122.145 E39.20142
G1 X65.783 Y122.383 E39.24427
G1 X66.69 Y122.463 E39.28667
G1 X67.617 Y122.383 E39.32999
G1 X68.506 Y122.145 E39.37285
G0 F6000 X68.656 Y122.558
G1 F1500 E32.87285
G0 F6000 X66.69 Y122.704
G0 X65.742 Y122.62
G0 X64.812 Y122.371
G0 X63.94 Y121.964
G0 X63.152 Y121.412
G0 X62.47 Y120.731
G0 X61.919 Y119.943
G0 X61.511 Y119.071
G0 X61.262 Y118.141
G0 X61.181 Y117.202
G0 X61.181 Y91.764
G0 X61.262 Y90.824
G0 X61.511 Y89.894
G0 X61.919 Y89.023
G0 X62.23 Y88.576
G0 X63.762 Y86.696
G0 X64.5 Y87.957
G0 X60.928 Y77.489
G0 X61.426 Y78.861
G0 X61.36 Y78.681
;TYPE:WALL-INNER
G1 F1500 E39.37285
G1 F1200 X61.826 Y78.464 E39.39678
G1 X62.247 Y78.169 E39.42072
G1 X62.612 Y77.805 E39.44472
G1 X62.907 Y77.383 E39.4687
G1 X63.124 Y76.917 E39.49264
G1 X63.258 Y76.419 E39.51665
G1 X63.301 Y75.908 E39.54053
G1 X63.258 Y75.396 E39.56445
G1 X63.124 Y74.898 E39.58847
G1 X62.907 Y74.432 E39.6124
G1 X62.612 Y74.01 E39.63638
G1 X62.247 Y73.646 E39.66038
G1 X61.826 Y73.351 E39.68432
G1 X61.36 Y73.134 E39.70825
G1 X60.863 Y73.001 E39.73221
G1 X60.35 Y72.955 E39.75619
G1 X59.837 Y73.001 E39.78018
G1 X59.34 Y73.134 E39.80413
G1 X58.874 Y73.351 E39.82807
G1 X58.453 Y73.646 E39.85201
G1 X58.088 Y74.01 E39.87601
G1 X57.793 Y74.432 E39.89999
G1 X57.576 Y74.898 E39.92392
G1 X57.443 Y75.395 E39.94788
G1 X57.397 Y75.908 E39.97186
G1 X57.443 Y76.42 E39.9958
G1 X57.576 Y76.917 E40.01976
G1 X57.793 Y77.383 E40.04369
G1 X58.088 Y77.805 E40.06767
G1 X58.453 Y78.169 E40.09167
G1 X58.874 Y78.464 E40.11561
G1 X59.34 Y78.681 E40.13954
G1 X59.837 Y78.814 E40.1635
G1 X60.35 Y78.86 E40.18748
G1 X60.863 Y78.814 E40.21147
G1 X61.36 Y78.681 E40.23542
G0 F6000 X61.223 Y78.304
;TYPE:WALL-OUTER
G1 F1200 X61.625 Y78.116 E40.25609
G1 X61.989 Y77.861 E40.27678
G1 X62.304 Y77.547 E40.29749
G1 X62.559 Y77.182 E40.31823
G1 X62.747 Y76.78 E40.33889
G1 X62.862 Y76.35 E40.35962
G1 X62.9 Y75.908 E40.38027
G1 X62.862 Y75.465 E40.40098
G1 X62.747 Y75.035 E40.4217
G1 X62.559 Y74.633 E40.44237
G1 X62.304 Y74.268 E40.4631
G1 X61.989 Y73.954 E40.48381
G1 X61.625 Y73.699 E40.50451
G1 X61.223 Y73.511 E40.52517
G1 X60.793 Y73.396 E40.5459
G1 X60.35 Y73.357 E40.56661
G1 X59.907 Y73.396 E40.58731
G1 X59.477 Y73.511 E40.60804
G1 X59.075 Y73.699 E40.6287
G1 X58.711 Y73.954 E40.6494
G1 X58.396 Y74.268 E40.67011
G1 X58.141 Y74.633 E40.69084
G1 X57.953 Y75.035 E40.71151
G1 X57.838 Y75.465 E40.73223
G1 X57.799 Y75.908 E40.75294
G1 X57.838 Y76.35 E40.7736
G1 X57.953 Y76.78 E40.79433
G1 X58.141 Y77.182 E40.81499
G1 X58.396 Y77.547 E40.83573
G1 X58.711 Y77.861 E40.85644
G1 X59.075 Y78.116 E40.87713
G1 X59.477 Y78.304 E40.8978
G1 X59.907 Y78.419 E40.91852
G1 X60.35 Y78.458 E40.93923
G1 X60.793 Y78.419 E40.95994
G1 X61.223 Y78.304 E40.98066
G0 F6000 X61.373 Y78.717
G1 F1500 E34.48066
G0 F6000 X62.37 Y78.316
G0 X61.434 Y77.194
G0 X173.566 Y77.194
G0 X172.63 Y78.316
G0 X173.64 Y78.681
;TYPE:WALL-INNER
G1 F1500 E40.98066
G1 F1200 X174.137 Y78.814 E41.00462
G1 X174.65 Y78.86 E41.0286
G1 X175.163 Y78.814 E41.05259
G1 X175.66 Y78.681 E41.07654
G1 X176.126 Y78.464 E41.10048
G1 X176.547 Y78.169 E41.12442
G1 X176.912 Y77.805 E41.14842
G1 X177.207 Y77.383 E41.1724
G1 X177.424 Y76.917 E41.19633
G1 X177.558 Y76.419 E41.22035
G1 X177.601 Y75.908 E41.24422
G1 X177.558 Y75.396 E41.26815
G1 X177.424 Y74.898 E41.29216
G1 X177.207 Y74.432 E41.3161
G1 X176.912 Y74.01 E41.34007
G1 X176.547 Y73.646 E41.36408
G1 X176.126 Y73.351 E41.38801
G1 X175.66 Y73.134 E41.41195
G1 X175.163 Y73.001 E41.43591
G1 X174.65 Y72.955 E41.45989
G1 X174.137 Y73.001 E41.48387
G1 X173.64 Y73.134 E41.50783
G1 X173.174 Y73.351 E41.53177
G1 X172.753 Y73.646 E41.5557
G1 X172.388 Y74.01 E41.57971
G1 X172.093 Y74.432 E41.60368
G1 X171.876 Y74.898 E41.62762
G1 X171.743 Y75.395 E41.65157
G1 X171.697 Y75.908 E41.67556
G1 X171.743 Y76.42 E41.69949
G1 X171.876 Y76.917 E41.72345
G1 X172.093 Y77.383 E41.74739
G1 X172.388 Y77.805 E41.77136
G1 X172.753 Y78.169 E41.79537
G1 X173.174 Y78.464 E41.8193
G1 X173.64 Y78.681 E41.84324
G0 F6000 X173.777 Y78.304
;TYPE:WALL-OUTER
G1 F1200 X174.207 Y78.419 E41.86397
G1 X174.65 Y78.458 E41.88467
G1 X175.093 Y78.419 E41.90538
G1 X175.523 Y78.304 E41.92611
G1 X175.925 Y78.116 E41.94677
G1 X176.289 Y77.861 E41.96747
G1 X176.604 Y77.547 E41.98818
G1 X176.859 Y77.182 E42.00891
G1 X177.047 Y76.78 E42.02957
G1 X177.162 Y76.35 E42.0503
G1 X177.2 Y75.908 E42.07096
G1 X177.162 Y75.465 E42.09166
G1 X177.047 Y75.035 E42.11239
G1 X176.859 Y74.633 E42.13305
G1 X176.604 Y74.268 E42.15379
G1 X176.289 Y73.954 E42.1745
G1 X175.925 Y73.699 E42.19519
G1 X175.523 Y73.511 E42.21586
G1 X175.093 Y73.396 E42.23658
G1 X174.65 Y73.357 E42.25729
G1 X174.207 Y73.396 E42.278
G1 X173.777 Y73.511 E42.29872
G1 X173.375 Y73.699 E42.31939
G1 X173.011 Y73.954 E42.34008
G1 X172.696 Y74.268 E42.36079
G1 X172.441 Y74.633 E42.38153
G1 X172.253 Y75.035 E42.40219
G1 X172.138 Y75.465 E42.42292
G1 X172.099 Y75.908 E42.44362
G1 X172.138 Y76.35 E42.46429
G1 X172.253 Y76.78 E42.48501
G1 X172.441 Y77.182 E42.50568
G1 X172.696 Y77.547 E42.52641
G1 X173.011 Y77.861 E42.54712
G1 X173.375 Y78.116 E42.56781
G1 X173.777 Y78.304 E42.58848
G0 F6000 X173.627 Y78.717
G1 F1500 E36.08848
G0 F6000 X174.103 Y79.003
G0 X174.357 Y77.565
G0 X170.5 Y87.957
G0 X171.237 Y86.695
G0 X172.53 Y88.234
G0 X173.081 Y89.023
G0 X173.489 Y89.894
G0 X173.738 Y90.824
G0 X173.819 Y91.764
G0 X173.819 Y117.202
