;FLAVOR:Marlin
;TIME:2316
;Filament used: 1.9961m
;Layer height: 0.28
;MINX:105
;MINY:103.126
;MINZ:0.28
;MAXX:130.865
;MAXY:128.586
;MAXZ:25.2
;Generated with Cura_SteamEngine 4.6.1
M140 S85
M105
M190 S85
M104 S235
M105
M109 S235
M82 ;absolute extrusion mode
; Ender 3 Custom Start G-code
G92 E0 ; Reset Extruder
G28 ; Home all axes
G1 Z2.0 F3000 ; Move Z Axis up little to prevent scratching of Heat Bed
G1 X0.1 Y20 Z0.3 F5000.0 ; Move to start position
G1 X0.1 Y200.0 Z0.3 F1500.0 E15 ; Draw the first line
G1 X0.4 Y200.0 Z0.3 F5000.0 ; Move to side a little
G1 X0.4 Y20 Z0.3 F1500.0 E30 ; Draw the second line
G92 E0 ; Reset Extruder
G1 Z2.0 F3000 ; Move Z Axis up little to prevent scratching of Heat Bed
G1 X5 Y20 Z0.3 F5000.0 ; Move over to prevent blob squish
G92 E0
G92 E0
G1 F1500 E-6.5
;LAYER_COUNT:90
;LAYER:0
M107
G0 F6000 X128.565 Y103.991 Z0.28
;TYPE:SKIRT
G1 F1500 E0
G1 F1200 X129.322 Y103.991 E0.03525
G1 X129.323 Y127.721 E1.14022
G1 X128.566 Y127.721 E1.17547
G1 X128.565 Y103.991 E2.28043
G0 F6000 X128.165 Y103.991
;TYPE:SUPPORT-INTERFACE
G1 F1200 X128.166 Y127.721 E3.3854
G1 X126.276 Y127.721 E3.47341
G1 X126.275 Y103.991 E4.57838
G1 X128.165 Y103.991 E4.66638
G0 F6000 X126.608 Y104.19
G1 F1200 X126.475 Y104.324 E4.67517
G0 F6000 X126.474 Y106.109
G1 F1200 X127.965 Y107.6 E4.77336
G0 F6000 X127.964 Y106.229
G1 F1200 X126.475 Y107.718 E4.87141
G0 F6000 X126.474 Y109.503
G1 F1200 X127.965 Y110.994 E4.9696
G0 F6000 X127.964 Y109.623
G1 F1200 X126.475 Y111.112 E5.06765
G0 F6000 X126.475 Y112.898
G1 F1200 X127.965 Y114.388 E5.16577
G0 F6000 X127.964 Y113.017
G1 F1200 X126.475 Y114.506 E5.26382
G0 F6000 X126.475 Y116.292
G1 F1200 X127.965 Y117.782 E5.36194
G0 F6000 X127.964 Y116.411
G1 F1200 X126.475 Y117.9 E5.46
G0 F6000 X126.475 Y119.687
G1 F1200 X127.965 Y121.176 E5.55808
G0 F6000 X127.964 Y119.805
G1 F1200 X126.476 Y121.293 E5.65607
G0 F6000 X126.475 Y123.081
G1 F1200 X127.965 Y124.571 E5.75419
G0 F6000 X127.964 Y123.199
G1 F1200 X126.476 Y124.687 E5.85218
G0 F6000 X126.475 Y126.475
G1 F1200 X127.52 Y127.52 E5.92099
G0 F6000 X127.037 Y127.521
G1 F1200 X127.964 Y126.594 E5.98203
G1 F1500 E-0.51797
;MESH:LeftWheelMount.STL
G0 F6000 X129.03 Y126.593
G0 X121.233 Y111.662
G0 X121.73 Y113.035
G0 X120.675 Y113.03
;TYPE:WALL-INNER
G1 F1500 E5.98203
G1 F1200 X121.177 Y112.985 E6.0055
G1 X121.664 Y112.855 E6.02897
G1 X122.119 Y112.642 E6.05237
G1 X122.531 Y112.354 E6.07577
G1 X122.887 Y111.997 E6.09925
G1 X123.177 Y111.585 E6.12271
G1 X123.389 Y111.128 E6.14617
G1 X123.519 Y110.643 E6.16955
G1 X123.564 Y110.141 E6.19302
G1 X123.519 Y109.639 E6.21649
G1 X123.389 Y109.153 E6.23991
G1 X123.177 Y108.697 E6.26333
G1 X122.888 Y108.284 E6.2868
G1 X122.531 Y107.927 E6.31031
G1 X122.119 Y107.639 E6.33372
G1 X121.664 Y107.426 E6.35711
G1 X121.176 Y107.295 E6.38064
G1 X120.675 Y107.253 E6.40405
G1 X120.174 Y107.295 E6.42746
G1 X119.686 Y107.426 E6.45099
G1 X119.231 Y107.639 E6.47438
G1 X118.819 Y107.927 E6.49779
G1 X118.462 Y108.284 E6.5213
G1 X118.173 Y108.697 E6.54477
G1 X117.961 Y109.153 E6.56818
G1 X117.831 Y109.639 E6.59161
G1 X117.786 Y110.141 E6.61508
G1 X117.831 Y110.643 E6.63855
G1 X117.961 Y111.128 E6.66193
G1 X118.173 Y111.585 E6.68539
G1 X118.463 Y111.997 E6.70885
G1 X118.819 Y112.354 E6.73232
G1 X119.231 Y112.642 E6.75573
G1 X119.686 Y112.855 E6.77912
G1 X120.173 Y112.985 E6.80259
G1 X120.675 Y113.03 E6.82606
G0 F6000 X120.675 Y112.628
;TYPE:WALL-OUTER
G1 F1200 X121.107 Y112.59 E6.84626
G1 X121.526 Y112.478 E6.86645
G1 X121.918 Y112.294 E6.88662
G1 X122.273 Y112.046 E6.90678
G1 X122.58 Y111.739 E6.927
G1 X122.829 Y111.384 E6.94719
G1 X123.012 Y110.991 E6.96737
G1 X123.124 Y110.573 E6.98753
G1 X123.162 Y110.141 E7.00772
G1 X123.124 Y109.709 E7.02791
G1 X123.012 Y109.29 E7.04811
G1 X122.829 Y108.898 E7.06825
G1 X122.58 Y108.542 E7.08848
G1 X122.273 Y108.235 E7.1087
G1 X121.918 Y107.987 E7.12886
G1 X121.526 Y107.803 E7.14903
G1 X121.107 Y107.691 E7.16922
G1 X120.675 Y107.654 E7.18941
G1 X120.243 Y107.691 E7.2096
G1 X119.824 Y107.803 E7.2298
G1 X119.432 Y107.987 E7.24996
G1 X119.077 Y108.235 E7.27012
G1 X118.77 Y108.542 E7.29034
G1 X118.521 Y108.898 E7.31057
G1 X118.338 Y109.29 E7.33071
G1 X118.226 Y109.709 E7.35091
G1 X118.188 Y110.141 E7.3711
G1 X118.226 Y110.573 E7.3913
G1 X118.338 Y110.991 E7.41145
G1 X118.521 Y111.384 E7.43163
G1 X118.77 Y111.739 E7.45182
G1 X119.077 Y112.046 E7.47204
G1 X119.432 Y112.294 E7.4922
G1 X119.824 Y112.478 E7.51237
G1 X120.243 Y112.59 E7.53256
G1 X120.675 Y112.628 E7.55276
G0 F6000 X120.675 Y113.068
G1 F1500 E1.05276
G0 F6000 X121.211 Y113.174
G0 X121.233 Y111.662
G0 X124.292 Y128.586
G0 X124.32 Y127.139
G0 X124.502 Y127.321
;TYPE:WALL-INNER
G1 F1500 E7.55276
G1 F1200 X124.303 Y127.321 E7.56202
G1 X105.4 Y127.321 E8.44223
G1 X105.4 Y104.391 E9.50994
G1 X124.501 Y104.391 E10.39937
G1 X124.502 Y127.122 E11.45782
G1 X124.502 Y127.321 E11.46381
G0 F6000 X124.902 Y127.721
;TYPE:WALL-OUTER
G1 F1200 X105 Y127.721 E12.39053
G1 X105 Y103.991 E13.4955
G1 X124.901 Y103.991 E14.42217
G1 X124.902 Y127.721 E15.52714
G0 F6000 X124.632 Y127.451
G0 X124.392 Y126.931
G0 X124.112 Y126.931
;TYPE:SKIN
G1 F1200 X105.79 Y126.931 E16.38029
G1 X105.79 Y104.781 E17.41169
G1 X124.111 Y104.781 E18.26479
G1 X124.112 Y126.931 E19.29619
G1 F1500 E12.79619
G0 F6000 X124.392 Y126.931
G0 X124.292 Y113.094
G0 X122.655 Y112.5
G0 X121.198 Y113.094
G0 X121.245 Y113.371
G1 F1500 E19.29619
G1 F1200 X121.798 Y113.223 E19.32284
G1 X122.314 Y112.981 E19.34938
G1 X122.783 Y112.654 E19.37601
G1 X123.187 Y112.249 E19.40264
G1 X123.516 Y111.78 E19.42932
G1 X123.757 Y111.261 E19.45596
G1 X123.905 Y110.711 E19.48248
G1 X123.956 Y110.141 E19.50913
G1 X123.905 Y109.571 E19.53578
G1 X123.757 Y109.019 E19.56239
G1 X123.516 Y108.502 E19.58895
G1 X123.188 Y108.032 E19.61564
G1 X122.783 Y107.627 E19.64231
G1 X122.314 Y107.3 E19.66893
G1 X121.798 Y107.058 E19.69547
G1 X121.244 Y106.909 E19.72218
G1 X120.675 Y106.861 E19.74877
G1 X120.106 Y106.909 E19.77536
G1 X119.552 Y107.058 E19.80208
G1 X119.036 Y107.3 E19.82861
G1 X118.567 Y107.627 E19.85524
G1 X118.162 Y108.032 E19.88191
G1 X117.834 Y108.502 E19.90859
G1 X117.593 Y109.019 E19.93516
G1 X117.445 Y109.571 E19.96177
G1 X117.394 Y110.141 E19.98841
G1 X117.445 Y110.711 E20.01506
G1 X117.593 Y111.261 E20.04158
G1 X117.834 Y111.78 E20.06823
G1 X118.163 Y112.249 E20.0949
G1 X118.567 Y112.654 E20.12154
G1 X119.036 Y112.981 E20.14816
G1 X119.552 Y113.223 E20.1747
G1 X120.105 Y113.371 E20.20136
G1 X120.675 Y113.422 E20.22801
G1 X121.245 Y113.371 E20.25465
G1 F1500 E13.75465
G0 F6000 X121.198 Y113.094
G0 X122.427 Y112.23
G0 X122.764 Y111.893
G0 X123.037 Y111.504
G0 X123.238 Y111.073
G0 X123.361 Y110.614
G0 X123.403 Y110.141
G0 X123.361 Y109.668
G0 X123.327 Y109.538
G0 X122.654 Y107.78
G0 X124.292 Y107.78
G0 X124.392 Y105.283
G0 X123.95 Y105.283
G1 F1500 E20.25465
G1 F1200 X123.608 Y104.941 E20.27718
G0 F6000 X123.042 Y104.941
G1 F1200 X123.95 Y105.848 E20.33694
G0 F6000 X123.95 Y106.414
G1 F1200 X122.477 Y104.941 E20.43394
G0 F6000 X121.911 Y104.941
G1 F1200 X123.95 Y106.98 E20.56821
G0 F6000 X123.95 Y107.545
G1 F1200 X121.345 Y104.941 E20.73972
G0 F6000 X120.78 Y104.941
G1 F1200 X123.95 Y108.111 E20.94847
G0 F6000 X123.558 Y108.284
G1 F1200 X123.95 Y108.677 E20.97431
G1 F1500 E14.47431
G0 F6000 X124.392 Y108.677
G0 X124.292 Y107.615
G0 X123.035 Y108.161
G0 X122.277 Y107.615
G0 X122.529 Y107.256
G1 F1500 E20.97431
G1 F1200 X120.214 Y104.941 E21.12676
G0 F6000 X119.648 Y104.941
G1 F1200 X121.527 Y106.819 E21.25046
G0 F6000 X120.857 Y106.715
G1 F1200 X119.083 Y104.941 E21.36728
G0 F6000 X118.517 Y104.941
G1 F1200 X120.307 Y106.731 E21.48516
G0 F6000 X119.828 Y106.817
G1 F1200 X117.951 Y104.941 E21.60873
G0 F6000 X117.386 Y104.941
G1 F1200 X119.397 Y106.952 E21.74116
G0 F6000 X119.012 Y107.133
G1 F1200 X116.82 Y104.941 E21.8855
G0 F6000 X116.254 Y104.941
G1 F1200 X118.671 Y107.357 E22.04463
G0 F6000 X118.356 Y107.608
G1 F1200 X115.689 Y104.941 E22.22026
G0 F6000 X115.123 Y104.941
G1 F1200 X118.074 Y107.891 E22.41456
G0 F6000 X117.835 Y108.219
G1 F1200 X114.557 Y104.941 E22.63042
G0 F6000 X113.991 Y104.941
G1 F1200 X117.623 Y108.572 E22.86956
G0 F6000 X117.444 Y108.958
G1 F1200 X113.426 Y104.941 E23.13412
G0 F6000 X112.86 Y104.941
G1 F1200 X117.323 Y109.404 E23.42801
G0 F6000 X117.253 Y109.899
G1 F1200 X112.294 Y104.941 E23.75454
G0 F6000 X111.729 Y104.941
G1 F1200 X117.261 Y110.473 E24.11883
G0 F6000 X117.406 Y111.184
G1 F1200 X111.163 Y104.941 E24.52994
G0 F6000 X110.597 Y104.941
G1 F1200 X123.95 Y118.294 E25.40926
G0 F6000 X123.95 Y118.859
G1 F1200 X110.032 Y104.941 E26.32579
G0 F6000 X109.466 Y104.941
G1 F1200 X123.951 Y119.426 E27.27965
G0 F6000 X123.951 Y119.991
G1 F1200 X108.9 Y104.941 E28.27075
G0 F6000 X108.335 Y104.941
G1 F1200 X123.951 Y120.557 E29.29909
G0 F6000 X123.951 Y121.123
G1 F1200 X107.769 Y104.941 E30.3647
G0 F6000 X107.203 Y104.941
G1 F1200 X123.951 Y121.688 E31.46755
G0 F6000 X123.951 Y122.254
G1 F1200 X106.638 Y104.941 E32.60764
G0 F6000 X106.072 Y104.941
G1 F1200 X123.951 Y122.82 E33.78501
G0 F6000 X123.951 Y123.385
G1 F1200 X105.949 Y105.383 E34.97047
G0 F6000 X105.949 Y105.949
G1 F1200 X123.951 Y123.951 E36.15593
G0 F6000 X123.951 Y124.517
G1 F1200 X105.949 Y106.515 E37.34139
G0 F6000 X105.949 Y107.08
G1 F1200 X123.951 Y125.082 E38.52686
G0 F6000 X123.951 Y125.648
G1 F1200 X105.949 Y107.646 E39.71232
G0 F6000 X105.949 Y108.212
G1 F1200 X123.951 Y126.214 E40.89778
G0 F6000 X123.941 Y126.77
G1 F1200 X105.949 Y108.777 E42.08262
G0 F6000 X105.949 Y109.343
G1 F1200 X123.375 Y126.77 E43.23018
G0 F6000 X122.81 Y126.77
G1 F1200 X105.949 Y109.909 E44.34051
G0 F6000 X105.949 Y110.474
G1 F1200 X122.244 Y126.77 E45.4136
G0 F6000 X121.678 Y126.77
G1 F1200 X105.949 Y111.04 E46.44941
G0 F6000 X105.949 Y111.606
G1 F1200 X121.113 Y126.77 E47.44798
G0 F6000 X120.547 Y126.77
G1 F1200 X105.949 Y112.171 E48.40932
G0 F6000 X105.949 Y112.737
G1 F1200 X119.981 Y126.77 E49.33339
G0 F6000 X119.416 Y126.77
G1 F1200 X105.949 Y113.303 E50.22021
G0 F6000 X105.949 Y113.868
G1 F1200 X118.85 Y126.77 E51.0698
G0 F6000 X118.284 Y126.77
G1 F1200 X105.949 Y114.434 E51.88211
G0 F6000 X105.949 Y115
G1 F1200 X117.719 Y126.77 E52.65718
G0 F6000 X117.153 Y126.77
G1 F1200 X105.949 Y115.565 E53.39502
G0 F6000 X105.949 Y116.131
G1 F1200 X116.587 Y126.77 E54.09558
G0 F6000 X116.022 Y126.77
G1 F1200 X105.949 Y116.697 E54.75891
G0 F6000 X105.949 Y117.263
G1 F1200 X115.456 Y126.77 E55.38496
G0 F6000 X114.89 Y126.77
G1 F1200 X105.949 Y117.828 E55.97377
G0 F6000 X105.949 Y118.394
G1 F1200 X114.325 Y126.77 E56.52535
G0 F6000 X113.759 Y126.77
G1 F1200 X105.949 Y118.96 E57.03965
G0 F6000 X105.949 Y119.525
G1 F1200 X113.193 Y126.77 E57.51671
G0 F6000 X112.627 Y126.77
G1 F1200 X105.949 Y120.091 E57.9565
G0 F6000 X105.949 Y120.657
G1 F1200 X112.062 Y126.77 E58.35905
G0 F6000 X111.496 Y126.77
G1 F1200 X105.949 Y121.222 E58.72437
G0 F6000 X105.949 Y121.788
G1 F1200 X110.93 Y126.77 E59.05241
G0 F6000 X110.365 Y126.77
G1 F1200 X105.949 Y122.354 E59.34321
G0 F6000 X105.949 Y122.919
G1 F1200 X109.799 Y126.77 E59.59677
G0 F6000 X109.233 Y126.77
G1 F1200 X105.949 Y123.485 E59.81306
G0 F6000 X105.949 Y124.051
G1 F1200 X108.668 Y126.77 E59.99211
G0 F6000 X108.102 Y126.77
G1 F1200 X105.949 Y124.616 E60.13392
G0 F6000 X105.949 Y125.182
G1 F1200 X107.536 Y126.77 E60.23846
G0 F6000 X106.971 Y126.77
G1 F1200 X105.949 Y125.748 E60.30576
G0 F6000 X105.949 Y126.314
G1 F1200 X106.405 Y126.77 E60.33579
G1 F1500 E53.83579
G0 F6000 X106.405 Y127.211
G0 X119.746 Y127.111
G0 X119.746 Y128.586
G0 X120.393 Y111.736
G0 X120.139 Y113.174
G0 X119.746 Y112.986
G0 X119.632 Y113.41
G1 F1500 E60.33579
G1 F1200 X123.95 Y117.728 E60.62014
G0 F6000 X123.95 Y117.162
G1 F1200 X120.341 Y113.553 E60.8578
G0 F6000 X120.915 Y113.562
G1 F1200 X123.95 Y116.596 E61.05762
G0 F6000 X123.95 Y116.031
G1 F1200 X121.412 Y113.492 E61.22479
G0 F6000 X121.857 Y113.372
G1 F1200 X123.95 Y115.465 E61.36262
G0 F6000 X123.95 Y114.899
G1 F1200 X122.242 Y113.191 E61.47509
G0 F6000 X122.595 Y112.978
G1 F1200 X123.95 Y114.334 E61.56435
G0 F6000 X123.95 Y113.768
G1 F1200 X122.922 Y112.739 E61.63208
G0 F6000 X123.204 Y112.456
G1 F1200 X123.95 Y113.202 E61.68121
G0 F6000 X123.95 Y112.637
G1 F1200 X123.455 Y112.142 E61.7138
G0 F6000 X123.681 Y111.802
G1 F1200 X123.95 Y112.071 E61.73152
G0 F6000 X123.95 Y111.505
G1 F1200 X123.86 Y111.415 E61.73744
G0 F6000 X123.546 Y111.268
G1 F1500 E55.23744
;MESH:NONMESH
G0 F300 X123.546 Y111.268 Z0.56
G0 F6000 X123.465 Y111.228
G0 X123.755 Y110.141
G0 X122.293 Y110.141
G0 X129.03 Y103.99
G0 X128.893 Y103.991
;TIME_ELAPSED:85.953927
;LAYER:1
M140 S85
M106 S85
;TYPE:SUPPORT
G1 F1500 E61.73744
G1 F1350 X129.322 Y103.991 E61.75742
G1 X129.323 Y127.721 E62.86239
G1 X128.894 Y127.721 E62.88236
G1 X128.893 Y103.991 E63.98733
G0 F7500 X128.693 Y104.934
;TYPE:SUPPORT-INTERFACE
G1 F1800 X127.55 Y103.791 E64.0626
G0 F7500 X127.008 Y103.791
G1 F1800 X126.874 Y103.924 E64.07139
G0 F7500 X128.692 Y105.501
G1 F1800 X126.874 Y107.319 E64.19111
G0 F7500 X126.874 Y106.509
G1 F1800 X128.693 Y108.328 E64.31089
G0 F7500 X128.692 Y108.895
G1 F1800 X126.874 Y110.713 E64.43061
G0 F7500 X126.874 Y109.903
G1 F1800 X128.693 Y111.722 E64.5504
G0 F7500 X128.692 Y112.289
G1 F1800 X126.875 Y114.106 E64.67005
G0 F7500 X126.874 Y113.298
G1 F1800 X128.693 Y115.116 E64.7898
G0 F7500 X128.692 Y115.683
G1 F1800 X126.875 Y117.5 E64.90945
G0 F7500 X126.874 Y116.692
G1 F1800 X128.693 Y118.511 E65.02924
G0 F7500 X128.692 Y119.077
G1 F1800 X126.876 Y120.894 E65.14886
G0 F7500 X126.875 Y120.087
G1 F1800 X128.693 Y121.905 E65.26858
G0 F7500 X128.692 Y122.471
G1 F1800 X126.876 Y124.288 E65.3882
G0 F7500 X126.875 Y123.481
G1 F1800 X128.693 Y125.299 E65.50791
G0 F7500 X128.692 Y125.865
G1 F1800 X126.876 Y127.682 E65.62753
G0 F7500 X126.875 Y126.875
G1 F1800 X127.92 Y127.92 E65.69635
G1 F1500 E59.19635
;MESH:LeftWheelMount.STL
G0 F7500 X127.92 Y128.586
G0 X121.233 Y111.662
G0 X121.73 Y113.035
G0 X120.675 Y113.03
;TYPE:WALL-INNER
G1 F1500 E65.69635
G1 F1350 X121.177 Y112.985 E65.71982
G1 X121.664 Y112.855 E65.74329
G1 X122.119 Y112.642 E65.76668
G1 X122.531 Y112.354 E65.79009
G1 X122.887 Y111.997 E65.81356
G1 X123.177 Y111.585 E65.83702
G1 X123.389 Y111.128 E65.86048
G1 X123.519 Y110.643 E65.88386
G1 X123.564 Y110.141 E65.90733
G1 X123.519 Y109.639 E65.9308
G1 X123.389 Y109.153 E65.95423
G1 X123.177 Y108.697 E65.97764
G1 X122.888 Y108.284 E66.00111
G1 X122.531 Y107.927 E66.02462
G1 X122.119 Y107.639 E66.04803
G1 X121.664 Y107.426 E66.07142
G1 X121.176 Y107.295 E66.09495
G1 X120.675 Y107.253 E66.11836
G1 X120.174 Y107.295 E66.14177
G1 X119.686 Y107.426 E66.1653
G1 X119.231 Y107.639 E66.18869
G1 X118.819 Y107.927 E66.2121
G1 X118.462 Y108.284 E66.23561
G1 X118.173 Y108.697 E66.25908
G1 X117.961 Y109.153 E66.2825
G1 X117.831 Y109.639 E66.30592
G1 X117.786 Y110.141 E66.32939
G1 X117.831 Y110.643 E66.35286
G1 X117.961 Y111.128 E66.37624
G1 X118.173 Y111.585 E66.3997
G1 X118.463 Y111.997 E66.42316
G1 X118.819 Y112.354 E66.44664
G1 X119.231 Y112.642 E66.47004
G1 X119.686 Y112.855 E66.49344
G1 X120.173 Y112.985 E66.51691
G1 X120.675 Y113.03 E66.54038
G0 F7500 X120.675 Y112.628
;TYPE:WALL-OUTER
G1 F1350 X121.107 Y112.59 E66.56057
G1 X121.526 Y112.478 E66.58077
G1 X121.918 Y112.294 E66.60093
G1 X122.273 Y112.046 E66.62109
G1 X122.58 Y111.739 E66.64131
G1 X122.829 Y111.384 E66.6615
G1 X123.012 Y110.991 E66.68169
G1 X123.124 Y110.573 E66.70184
G1 X123.162 Y110.141 E66.72203
G1 X123.124 Y109.709 E66.74223
G1 X123.012 Y109.29 E66.76242
G1 X122.829 Y108.898 E66.78256
G1 X122.58 Y108.542 E66.80279
G1 X122.273 Y108.235 E66.82301
G1 X121.918 Y107.987 E66.84318
G1 X121.526 Y107.803 E66.86334
G1 X121.107 Y107.691 E66.88353
G1 X120.675 Y107.654 E66.90372
G1 X120.243 Y107.691 E66.92391
G1 X119.824 Y107.803 E66.94411
G1 X119.432 Y107.987 E66.96427
G1 X119.077 Y108.235 E66.98444
G1 X118.77 Y108.542 E67.00465
G1 X118.521 Y108.898 E67.02488
G1 X118.338 Y109.29 E67.04503
G1 X118.226 Y109.709 E67.06522
G1 X118.188 Y110.141 E67.08542
G1 X118.226 Y110.573 E67.10561
G1 X118.338 Y110.991 E67.12576
