;FLAVOR:Marlin
;TIME:2287
;Filament used: 2.00104m
;Layer height: 0.28
;MINX:104.813
;MINY:111.624
;MINZ:0.28
;MAXX:130.865
;MAXY:137.084
;MAXZ:25.2
;Generated with Cura_SteamEngine 4.6.1
M140 S85
M105
M190 S85
M104 S235
M105
M109 S235
M82 ;absolute extrusion mode
; Ender 3 Custom Start G-code
G92 E0 ; Reset Extruder
G28 ; Home all axes
G1 Z2.0 F3000 ; Move Z Axis up little to prevent scratching of Heat Bed
G1 X0.1 Y20 Z0.3 F5000.0 ; Move to start position
G1 X0.1 Y200.0 Z0.3 F1500.0 E15 ; Draw the first line
G1 X0.4 Y200.0 Z0.3 F5000.0 ; Move to side a little
G1 X0.4 Y20 Z0.3 F1500.0 E30 ; Draw the second line
G92 E0 ; Reset Extruder
G1 Z2.0 F3000 ; Move Z Axis up little to prevent scratching of Heat Bed
G1 X5 Y20 Z0.3 F5000.0 ; Move over to prevent blob squish
G92 E0
G92 E0
G1 F1500 E-6.5
;LAYER_COUNT:90
;LAYER:0
M107
G0 F6000 X105.677 Y112.489 Z0.28
;TYPE:SKIRT
G1 F1500 E0
G1 F1200 X106.434 Y112.489 E0.03525
G1 X106.435 Y136.219 E1.14022
G1 X105.678 Y136.219 E1.17547
G1 X105.677 Y112.489 E2.28043
G0 F6000 X106.834 Y112.489
;TYPE:SUPPORT-INTERFACE
G1 F1200 X108.724 Y112.489 E2.36844
G1 X108.725 Y136.219 E3.47341
G1 X106.835 Y136.219 E3.56142
G1 X106.834 Y112.489 E4.66638
G0 F6000 X107.034 Y113.582
G1 F1200 X107.929 Y112.688 E4.72529
G0 F6000 X107.034 Y113.822
G1 F1200 X108.524 Y115.312 E4.82341
G0 F6000 X108.523 Y115.487
G1 F1200 X107.034 Y116.976 E4.92146
G0 F6000 X107.034 Y117.216
G1 F1200 X108.524 Y118.706 E5.01958
G0 F6000 X108.523 Y118.881
G1 F1200 X107.034 Y120.37 E5.11763
G0 F6000 X107.034 Y120.61
G1 F1200 X108.524 Y122.101 E5.21578
G0 F6000 X108.523 Y122.275
G1 F1200 X107.034 Y123.764 E5.31384
G0 F6000 X107.034 Y124.004
G1 F1200 X108.524 Y125.495 E5.41199
G0 F6000 X108.523 Y125.669
G1 F1200 X107.035 Y127.158 E5.51001
G0 F6000 X107.034 Y127.399
G1 F1200 X108.524 Y128.889 E5.60813
G0 F6000 X108.523 Y129.063
G1 F1200 X107.035 Y130.552 E5.70615
G0 F6000 X107.034 Y130.793
G1 F1200 X108.524 Y132.283 E5.80427
G0 F6000 X108.523 Y132.458
G1 F1200 X107.035 Y133.946 E5.90226
G0 F6000 X107.034 Y134.187
G1 F1200 X108.524 Y135.677 E6.00037
G0 F6000 X108.523 Y135.852
G1 F1200 X108.357 Y136.018 E6.01131
G1 F1500 E-0.48869
;MESH:RightWheelMount.STL
G0 F6000 X108.357 Y137.084
G0 X113.767 Y120.161
G0 X113.27 Y121.534
G0 X114.325 Y121.527
;TYPE:WALL-INNER
G1 F1500 E6.01131
G1 F1200 X114.826 Y121.485 E6.03472
G1 X115.314 Y121.354 E6.05824
G1 X115.769 Y121.141 E6.08164
G1 X116.181 Y120.853 E6.10504
G1 X116.538 Y120.496 E6.12855
G1 X116.827 Y120.083 E6.15203
G1 X117.039 Y119.627 E6.17544
G1 X117.169 Y119.141 E6.19887
G1 X117.214 Y118.639 E6.22234
G1 X117.169 Y118.137 E6.2458
G1 X117.039 Y117.652 E6.26919
G1 X116.827 Y117.195 E6.29264
G1 X116.537 Y116.783 E6.3161
G1 X116.181 Y116.426 E6.33958
G1 X115.769 Y116.138 E6.36299
G1 X115.314 Y115.925 E6.38638
G1 X114.827 Y115.795 E6.40985
G1 X114.325 Y115.75 E6.43332
G1 X113.823 Y115.795 E6.45679
G1 X113.336 Y115.925 E6.48026
G1 X112.881 Y116.138 E6.50365
G1 X112.469 Y116.426 E6.52706
G1 X112.113 Y116.783 E6.55054
G1 X111.823 Y117.195 E6.574
G1 X111.611 Y117.652 E6.59745
G1 X111.481 Y118.137 E6.62084
G1 X111.436 Y118.639 E6.6443
G1 X111.481 Y119.141 E6.66777
G1 X111.611 Y119.627 E6.6912
G1 X111.823 Y120.083 E6.71462
G1 X112.112 Y120.496 E6.73809
G1 X112.469 Y120.853 E6.7616
G1 X112.881 Y121.141 E6.785
G1 X113.336 Y121.354 E6.8084
G1 X113.824 Y121.485 E6.83192
G1 X114.325 Y121.527 E6.85533
G0 F6000 X114.325 Y121.126
;TYPE:WALL-OUTER
G1 F1200 X114.757 Y121.089 E6.87552
G1 X115.176 Y120.977 E6.89572
G1 X115.568 Y120.793 E6.91588
G1 X115.923 Y120.545 E6.93605
G1 X116.23 Y120.238 E6.95626
G1 X116.479 Y119.882 E6.97649
G1 X116.662 Y119.49 E6.99664
G1 X116.774 Y119.071 E7.01683
G1 X116.812 Y118.639 E7.03703
G1 X116.774 Y118.207 E7.05722
G1 X116.662 Y117.789 E7.07737
G1 X116.479 Y117.396 E7.09756
G1 X116.23 Y117.041 E7.11775
G1 X115.923 Y116.734 E7.13796
G1 X115.568 Y116.486 E7.15813
G1 X115.176 Y116.302 E7.17829
G1 X114.757 Y116.19 E7.19849
G1 X114.325 Y116.152 E7.21868
G1 X113.893 Y116.19 E7.23888
G1 X113.474 Y116.302 E7.25907
G1 X113.082 Y116.486 E7.27923
G1 X112.727 Y116.734 E7.2994
G1 X112.42 Y117.041 E7.31962
G1 X112.171 Y117.396 E7.33981
G1 X111.988 Y117.789 E7.35999
G1 X111.876 Y118.207 E7.38014
G1 X111.838 Y118.639 E7.40034
G1 X111.876 Y119.071 E7.42053
G1 X111.988 Y119.49 E7.44073
G1 X112.171 Y119.882 E7.46087
G1 X112.42 Y120.238 E7.4811
G1 X112.727 Y120.545 E7.50132
G1 X113.082 Y120.793 E7.52148
G1 X113.474 Y120.977 E7.54164
G1 X113.893 Y121.089 E7.56184
G1 X114.325 Y121.126 E7.58203
G0 F6000 X114.325 Y121.566
G1 F1500 E1.08203
G0 F6000 X113.791 Y121.674
G0 X113.767 Y120.161
G0 X110.709 Y137.084
G0 X110.681 Y135.637
G0 X110.499 Y135.819
;TYPE:WALL-INNER
G1 F1500 E7.58203
G1 F1200 X110.498 Y113.088 E8.64048
G1 X110.498 Y112.889 E8.64975
G1 X110.697 Y112.889 E8.65574
G1 X129.6 Y112.889 E9.53594
G1 X129.6 Y135.819 E10.60366
G1 X110.499 Y135.819 E11.49308
G0 F6000 X110.099 Y136.219
;TYPE:WALL-OUTER
G1 F1200 X110.098 Y112.489 E12.59805
G1 X130 Y112.489 E13.52477
G1 X130 Y136.219 E14.62974
G1 X110.099 Y136.219 E15.55641
G0 F6000 X110.369 Y135.949
G0 X110.889 Y135.709
G0 X110.889 Y135.429
;TYPE:SKIN
G1 F1200 X110.888 Y113.279 E16.58781
G1 X129.21 Y113.279 E17.44096
G1 X129.21 Y135.429 E18.47236
G1 X110.889 Y135.429 E19.32546
G1 F1500 E12.82546
G0 F6000 X110.889 Y135.709
G0 X110.702 Y135.645
G0 X110.708 Y121.595
G0 X111.965 Y120.619
G0 X113.806 Y121.595
G0 X113.756 Y121.871
G1 F1500 E19.32546
G1 F1200 X114.325 Y121.919 E19.35205
G1 X114.894 Y121.871 E19.37864
G1 X115.448 Y121.722 E19.40535
G1 X115.964 Y121.48 E19.43189
G1 X116.433 Y121.153 E19.45851
G1 X116.838 Y120.748 E19.48518
G1 X117.166 Y120.278 E19.51187
G1 X117.407 Y119.761 E19.53843
G1 X117.555 Y119.209 E19.56504
G1 X117.606 Y118.639 E19.59169
G1 X117.555 Y118.069 E19.61834
G1 X117.407 Y117.519 E19.64486
G1 X117.166 Y117 E19.6715
G1 X116.837 Y116.531 E19.69818
G1 X116.433 Y116.126 E19.72482
G1 X115.964 Y115.799 E19.75144
G1 X115.448 Y115.557 E19.77798
G1 X114.895 Y115.409 E19.80463
G1 X114.325 Y115.358 E19.83128
G1 X113.755 Y115.409 E19.85793
G1 X113.202 Y115.557 E19.88458
G1 X112.686 Y115.799 E19.91112
G1 X112.217 Y116.126 E19.93775
G1 X111.813 Y116.531 E19.96438
G1 X111.484 Y117 E19.99106
G1 X111.243 Y117.519 E20.0177
G1 X111.095 Y118.069 E20.04423
G1 X111.044 Y118.639 E20.07087
G1 X111.095 Y119.209 E20.09752
G1 X111.243 Y119.761 E20.12413
G1 X111.484 Y120.278 E20.15069
G1 X111.812 Y120.748 E20.17738
G1 X112.217 Y121.153 E20.20405
G1 X112.686 Y121.48 E20.23067
G1 X113.202 Y121.722 E20.25721
G1 X113.756 Y121.871 E20.28392
G1 F1500 E13.78392
G0 F6000 X113.806 Y121.595
G0 X113.791 Y121.674
G0 X114.043 Y120.235
G0 X113.791 Y137.084
G0 X113.791 Y135.609
G0 X111.509 Y135.709
G0 X111.509 Y135.268
G1 F1500 E20.28392
G1 F1200 X111.048 Y134.807 E20.31428
G0 F6000 X111.048 Y134.241
G1 F1200 X112.075 Y135.268 E20.38191
G0 F6000 X112.64 Y135.268
G1 F1200 X111.048 Y133.675 E20.48678
G0 F6000 X111.048 Y133.11
G1 F1200 X113.206 Y135.268 E20.62889
G0 F6000 X113.772 Y135.268
G1 F1200 X111.048 Y132.544 E20.80827
G0 F6000 X111.048 Y131.978
G1 F1200 X114.337 Y135.268 E21.02489
G0 F6000 X114.903 Y135.268
G1 F1200 X111.048 Y131.412 E21.27878
G0 F6000 X111.048 Y130.847
G1 F1200 X115.469 Y135.268 E21.56991
G0 F6000 X116.034 Y135.268
G1 F1200 X111.048 Y130.281 E21.89828
G0 F6000 X111.048 Y129.715
G1 F1200 X116.6 Y135.268 E22.26392
G0 F6000 X117.166 Y135.268
G1 F1200 X111.048 Y129.15 E22.6668
G0 F6000 X111.048 Y128.584
G1 F1200 X117.731 Y135.268 E23.10692
G0 F6000 X118.297 Y135.268
G1 F1200 X111.048 Y128.018 E23.58431
G0 F6000 X111.048 Y127.453
G1 F1200 X118.863 Y135.268 E24.09894
G0 F6000 X119.428 Y135.268
G1 F1200 X111.048 Y126.887 E24.65081
G0 F6000 X111.048 Y126.321
G1 F1200 X119.994 Y135.268 E25.23996
G0 F6000 X120.56 Y135.268
G1 F1200 X111.048 Y125.756 E25.86634
G0 F6000 X111.048 Y125.19
G1 F1200 X121.125 Y135.268 E26.52996
G0 F6000 X121.691 Y135.268
G1 F1200 X111.048 Y124.624 E27.23085
G0 F6000 X111.048 Y124.059
G1 F1200 X122.257 Y135.268 E27.96898
G0 F6000 X122.823 Y135.268
G1 F1200 X111.048 Y123.493 E28.74439
G0 F6000 X111.048 Y122.927
G1 F1200 X123.388 Y135.268 E29.55703
G0 F6000 X123.954 Y135.268
G1 F1200 X111.048 Y122.362 E30.40691
G0 F6000 X111.048 Y121.796
G1 F1200 X124.52 Y135.268 E31.29407
G0 F6000 X125.085 Y135.268
G1 F1200 X111.048 Y121.23 E32.21846
G0 F6000 X111.048 Y120.664
G1 F1200 X125.651 Y135.268 E33.18013
G0 F6000 X126.217 Y135.268
G1 F1200 X112.478 Y121.529 E34.08486
G0 F6000 X112.73 Y121.17
G0 X113.59 Y121.537
G0 X113.475 Y121.96
G1 F1200 X126.782 Y135.268 E34.96118
G0 F6000 X127.348 Y135.268
G1 F1200 X114.144 Y122.064 E35.83069
G0 F6000 X114.694 Y122.048
G1 F1200 X127.914 Y135.268 E36.70125
G0 F6000 X128.479 Y135.268
G1 F1200 X115.172 Y121.961 E37.57754
G0 F6000 X115.603 Y121.826
G1 F1200 X129.045 Y135.268 E38.46272
G0 F6000 X129.049 Y134.706
G1 F1200 X115.988 Y121.644 E39.32284
G0 F6000 X116.328 Y121.42
G1 F1200 X129.049 Y134.14 E40.16051
G0 F6000 X129.049 Y133.575
G1 F1200 X116.643 Y121.169 E40.97746
G0 F6000 X116.926 Y120.886
G1 F1200 X129.049 Y133.009 E41.77578
G0 F6000 X129.049 Y132.443
G1 F1200 X117.164 Y120.558 E42.55843
G0 F6000 X117.376 Y120.204
G1 F1200 X129.049 Y131.878 E43.32715
G0 F6000 X129.049 Y131.312
G1 F1200 X117.556 Y119.819 E44.08398
G0 F6000 X117.676 Y119.373
G1 F1200 X129.049 Y130.746 E44.83291
G0 F6000 X129.049 Y130.181
G1 F1200 X117.745 Y118.876 E45.57734
G0 F6000 X117.736 Y118.302
G1 F1200 X129.049 Y129.615 E46.32232
G0 F6000 X129.049 Y129.049
G1 F1200 X117.591 Y117.591 E47.07684
G0 F6000 X117.167 Y117.705
G0 X116.55 Y117.051
G0 X115.256 Y115.795
G0 X115.37 Y115.37
G1 F1200 X113.439 Y113.439 E47.204
G0 F6000 X114.004 Y113.439
G1 F1200 X129.049 Y128.484 E48.19474
G0 F6000 X129.049 Y127.918
G1 F1200 X114.57 Y113.439 E49.14821
G0 F6000 X115.136 Y113.439
G1 F1200 X129.049 Y127.352 E50.0644
G0 F6000 X129.049 Y126.787
G1 F1200 X115.701 Y113.439 E50.94339
G0 F6000 X116.267 Y113.439
G1 F1200 X129.049 Y126.221 E51.78511
G0 F6000 X129.049 Y125.655
G1 F1200 X116.833 Y113.439 E52.58955
G0 F6000 X117.398 Y113.439
G1 F1200 X129.049 Y125.09 E53.35679
G0 F6000 X129.049 Y124.524
G1 F1200 X117.964 Y113.439 E54.08676
G0 F6000 X118.53 Y113.439
G1 F1200 X129.049 Y123.958 E54.77945
G0 F6000 X129.049 Y123.392
G1 F1200 X119.095 Y113.439 E55.43491
G0 F6000 X119.661 Y113.439
G1 F1200 X129.049 Y122.827 E56.05312
G0 F6000 X129.049 Y122.261
G1 F1200 X120.227 Y113.439 E56.63407
G0 F6000 X120.792 Y113.439
G1 F1200 X129.049 Y121.695 E57.17777
G0 F6000 X129.049 Y121.13
G1 F1200 X121.358 Y113.439 E57.68424
G0 F6000 X121.924 Y113.439
G1 F1200 X129.049 Y120.564 E58.15343
G0 F6000 X129.049 Y119.998
G1 F1200 X122.489 Y113.439 E58.58539
G0 F6000 X123.055 Y113.439
G1 F1200 X129.049 Y119.433 E58.9801
G0 F6000 X129.049 Y118.867
G1 F1200 X123.621 Y113.439 E59.33754
G0 F6000 X124.187 Y113.439
G1 F1200 X129.049 Y118.301 E59.65771
G0 F6000 X129.049 Y117.736
G1 F1200 X124.752 Y113.439 E59.94068
G0 F6000 X125.318 Y113.439
G1 F1200 X129.049 Y117.17 E60.18637
G0 F6000 X129.049 Y116.604
G1 F1200 X125.884 Y113.439 E60.39479
G0 F6000 X126.449 Y113.439
G1 F1200 X129.049 Y116.039 E60.56601
G0 F6000 X129.049 Y115.473
G1 F1200 X127.015 Y113.439 E60.69995
G0 F6000 X127.581 Y113.439
G1 F1200 X129.049 Y114.907 E60.79662
G0 F6000 X129.049 Y114.341
G1 F1200 X128.146 Y113.439 E60.85605
G0 F6000 X128.712 Y113.439
G1 F1200 X129.049 Y113.776 E60.87824
G1 F1500 E54.37824
G0 F6000 X129.49 Y113.776
G0 X129.39 Y115.665
G0 X130.865 Y115.665
G0 X115.369 Y117.401
G0 X116.305 Y116.28
G0 X114.621 Y115.665
G0 X114.66 Y115.225
G1 F1500 E60.87824
G1 F1200 X112.873 Y113.439 E60.99589
G0 F6000 X112.307 Y113.439
G1 F1200 X114.086 Y115.217 E61.113
G0 F6000 X113.588 Y115.285
G1 F1200 X111.741 Y113.439 E61.2346
G0 F6000 X111.176 Y113.439
G1 F1200 X113.143 Y115.406 E61.36413
G0 F6000 X112.758 Y115.586
G1 F1200 X111.048 Y113.876 E61.47674
G0 F6000 X111.048 Y114.442
G1 F1200 X112.405 Y115.799 E61.5661
G0 F6000 X112.078 Y116.038
G1 F1200 X111.048 Y115.008 E61.63392
G0 F6000 X111.048 Y115.573
G1 F1200 X111.795 Y116.321 E61.68315
G0 F6000 X111.544 Y116.635
G1 F1200 X111.048 Y116.139 E61.71581
G0 F6000 X111.048 Y116.705
G1 F1200 X111.319 Y116.975 E61.73362
G0 F6000 X111.048 Y117.27
G1 F1200 X111.139 Y117.362 E61.73965
G1 F1500 E55.23965
G0 F6000 X111.537 Y117.549
G0 X111.431 Y119.693
G0 X110.708 Y119.693
G0 X110.608 Y120.099
G0 X111.048 Y120.099
G1 F1500 E61.73965
G1 F1200 X111.434 Y120.485 E61.76507
G0 F6000 X111.72 Y120.284
G1 F1500 E55.26507
;MESH:NONMESH
G0 F300 X111.72 Y120.284 Z0.56
G0 F6000 X111.795 Y120.235
G0 X111.292 Y119.175
G0 X112.73 Y118.921
G0 X105.677 Y112.489
;TIME_ELAPSED:85.439569
;LAYER:1
M140 S85
M106 S85
;TYPE:SUPPORT
G1 F1500 E61.76507
G1 F1350 X106.106 Y112.489 E61.78504
G1 X106.107 Y136.219 E62.89001
G1 X105.678 Y136.219 E62.90999
G1 X105.677 Y112.489 E64.01496
G0 F7500 X106.306 Y113.094
;TYPE:SUPPORT-INTERFACE
G1 F1800 X108.124 Y114.912 E64.13467
G0 F7500 X108.123 Y115.887
G1 F1800 X106.307 Y117.704 E64.25429
G0 F7500 X106.306 Y116.488
G1 F1800 X108.124 Y118.306 E64.37401
G0 F7500 X108.123 Y119.281
G1 F1800 X106.307 Y121.098 E64.49363
G0 F7500 X106.306 Y119.882
G1 F1800 X108.124 Y121.7 E64.61335
G0 F7500 X108.123 Y122.675
G1 F1800 X106.307 Y124.492 E64.73297
G0 F7500 X106.306 Y123.276
G1 F1800 X108.125 Y125.095 E64.85275
G0 F7500 X108.124 Y126.069
G1 F1800 X106.307 Y127.886 E64.97241
G0 F7500 X106.306 Y126.671
G1 F1800 X108.125 Y128.489 E65.09216
G0 F7500 X108.124 Y129.463
G1 F1800 X106.307 Y131.28 E65.21181
G0 F7500 X106.306 Y130.065
G1 F1800 X108.125 Y131.883 E65.33156
G0 F7500 X108.124 Y132.857
G1 F1800 X106.307 Y134.674 E65.45122
G0 F7500 X106.306 Y133.459
G1 F1800 X108.125 Y135.278 E65.571
G0 F7500 X108.124 Y136.251
G1 F1800 X107.957 Y136.418 E65.582
G1 F1500 E59.082
G0 F7500 X107.957 Y137.084
G0 X105.321 Y137.08
G0 X104.817 Y136.576
G0 X104.813 Y114.311
G0 X106.307 Y114.31
G1 F1500 E65.582
G1 F1800 X108.123 Y112.493 E65.70162
G1 F1500 E59.20162
;MESH:RightWheelMount.STL
G0 F7500 X108.123 Y111.624
G0 X113.089 Y117.593
G0 X111.967 Y116.659
G0 X111.639 Y118.166
G0 X111.597 Y118.639
G0 X111.639 Y119.112
G0 X111.762 Y119.572
G0 X111.963 Y120.002
G0 X112.236 Y120.392
G0 X112.573 Y120.729
G0 X112.962 Y121.001
G0 X114.325 Y121.527
;TYPE:WALL-INNER
G1 F1500 E65.70162
G1 F1350 X114.826 Y121.485 E65.72503
G1 X115.314 Y121.354 E65.74855
G1 X115.769 Y121.141 E65.77195
G1 X116.181 Y120.853 E65.79535
G1 X116.538 Y120.496 E65.81886
G1 X116.827 Y120.083 E65.84234
G1 X117.039 Y119.627 E65.86575
G1 X117.169 Y119.141 E65.88918
G1 X117.214 Y118.639 E65.91265
G1 X117.169 Y118.137 E65.93612
G1 X117.039 Y117.652 E65.9595
G1 X116.827 Y117.195 E65.98295
G1 X116.537 Y116.783 E66.00641
G1 X116.181 Y116.426 E66.02989
G1 X115.769 Y116.138 E66.0533
G1 X115.314 Y115.925 E66.07669
G1 X114.827 Y115.795 E66.10016
G1 X114.325 Y115.75 E66.12363
G1 X113.823 Y115.795 E66.1471
G1 X113.336 Y115.925 E66.17057
G1 X112.881 Y116.138 E66.19396
G1 X112.469 Y116.426 E66.21737
G1 X112.113 Y116.783 E66.24085
G1 X111.823 Y117.195 E66.26431
G1 X111.611 Y117.652 E66.28777
G1 X111.481 Y118.137 E66.31115
G1 X111.436 Y118.639 E66.33462
G1 X111.481 Y119.141 E66.35808
G1 X111.611 Y119.627 E66.38151
G1 X111.823 Y120.083 E66.40493
G1 X112.112 Y120.496 E66.4284
G1 X112.469 Y120.853 E66.45191
G1 X112.881 Y121.141 E66.47531
G1 X113.336 Y121.354 E66.49871
G1 X113.824 Y121.485 E66.52223
G1 X114.325 Y121.527 E66.54564
G0 F7500 X114.325 Y121.126
;TYPE:WALL-OUTER
G1 F1350 X114.757 Y121.089 E66.56583
G1 X115.176 Y120.977 E66.58603
G1 X115.568 Y120.793 E66.60619
G1 X115.923 Y120.545 E66.62636
G1 X116.23 Y120.238 E66.64657
G1 X116.479 Y119.882 E66.6668
G1 X116.662 Y119.49 E66.68695
G1 X116.774 Y119.071 E66.70714
G1 X116.812 Y118.639 E66.72734
G1 X116.774 Y118.207 E66.74753
G1 X116.662 Y117.789 E66.76768
G1 X116.479 Y117.396 E66.78787
G1 X116.23 Y117.041 E66.80806
G1 X115.923 Y116.734 E66.82827
G1 X115.568 Y116.486 E66.84844
G1 X115.176 Y116.302 E66.8686
G1 X114.757 Y116.19 E66.8888
G1 X114.325 Y116.152 E66.90899
G1 X113.893 Y116.19 E66.92919
G1 X113.474 Y116.302 E66.94938
G1 X113.082 Y116.486 E66.96954
