;FLAVOR:Marlin
;TIME:2581
;Filament used: 2.23139m
;Layer height: 0.28
;MINX:11.291
;MINY:91.117
;MINZ:0.28
;MAXX:208.667
;MAXY:124.437
;MAXZ:4.2
;Generated with Cura_SteamEngine 4.8.0
M140 S80
M105
M190 S80
M104 S235
M105
M109 S235
M82 ;absolute extrusion mode
; Ender 3 Custom Start G-code
G92 E0 ; Reset Extruder
G28 ; Home all axes
G1 Z2.0 F3000 ; Move Z Axis up little to prevent scratching of Heat Bed
G1 X0.1 Y20 Z0.3 F5000.0 ; Move to start position
G1 X0.1 Y200.0 Z0.3 F1500.0 E15 ; Draw the first line
G1 X0.4 Y200.0 Z0.3 F5000.0 ; Move to side a little
G1 X0.4 Y20 Z0.3 F1500.0 E30 ; Draw the second line
G92 E0 ; Reset Extruder
G1 Z2.0 F3000 ; Move Z Axis up little to prevent scratching of Heat Bed
G1 X5 Y20 Z0.3 F5000.0 ; Move over to prevent blob squish
G92 E0
G92 E0
G1 F1500 E-6.5
;LAYER_COUNT:15
;LAYER:0
M107
G0 F6000 X20.256 Y91.47 Z0.28
;TYPE:SKIRT
G1 F1500 E0
G1 F1200 X21.175 Y91.281 E0.04369
G1 X21.65 Y91.214 E0.06603
G1 X21.752 Y91.202 E0.07081
G1 X22.724 Y91.131 E0.11619
G1 X23.04 Y91.122 E0.13091
G1 X23.353 Y91.118 E0.14548
G1 X135.962 Y91.117 E5.38903
G1 X136.866 Y91.129 E5.43113
G1 X137.689 Y91.172 E5.4695
G1 X137.889 Y91.19 E5.47885
G1 X139.239 Y91.397 E5.54245
G1 X140.745 Y91.724 E5.61421
G1 X143.347 Y92.252 E5.73784
G1 X145.798 Y92.677 E5.85367
G1 X148.29 Y93.036 E5.97091
G1 X150.777 Y93.324 E6.08749
G1 X153.318 Y93.545 E6.20625
G1 X155.814 Y93.692 E6.32268
G1 X158.33 Y93.767 E6.43989
G1 X160.852 Y93.773 E6.55732
G1 X163.348 Y93.706 E6.67359
G1 X165.886 Y93.568 E6.79194
G1 X168.4 Y93.358 E6.90941
G1 X170.829 Y93.088 E7.02321
G1 X174.703 Y92.517 E7.20555
G1 X176.52 Y92.212 E7.29134
G1 X177.265 Y92.097 E7.32644
G1 X177.814 Y92.019 E7.35226
G1 X178.173 Y91.974 E7.36911
G1 X179.13 Y91.87 E7.41394
G1 X179.831 Y91.804 E7.44672
G1 X180.538 Y91.748 E7.47974
G1 X180.859 Y91.728 E7.49472
G1 X181.851 Y91.679 E7.54097
G1 X182.507 Y91.658 E7.57153
G1 X183.218 Y91.644 E7.60464
G1 X183.534 Y91.642 E7.61936
G1 X184.463 Y91.652 E7.66262
G1 X185.163 Y91.669 E7.69522
G1 X185.857 Y91.695 E7.72756
G1 X186.197 Y91.713 E7.74342
G1 X187.197 Y91.782 E7.79009
G1 X187.852 Y91.838 E7.8207
G1 X188.479 Y91.899 E7.85004
G1 X188.824 Y91.938 E7.8662
G1 X189.944 Y92.084 E7.9188
G1 X190.591 Y92.179 E7.94925
G1 X190.962 Y92.239 E7.96675
G1 X191.336 Y92.306 E7.98444
G1 X192.699 Y92.575 E8.04913
G1 X193.227 Y92.69 E8.07429
G1 X193.925 Y92.853 E8.10767
G1 X194.256 Y92.936 E8.12356
G1 X194.5 Y93.001 E8.13532
G1 X194.799 Y93.085 E8.14978
G1 X195.439 Y93.275 E8.18086
G1 X196.285 Y93.541 E8.22216
G1 X196.899 Y93.754 E8.25242
G1 X197.679 Y94.052 E8.2913
G1 X197.958 Y94.164 E8.3053
G1 X198.41 Y94.351 E8.32808
G1 X199.019 Y94.624 E8.35915
G1 X199.919 Y95.062 E8.40576
G1 X200.261 Y95.236 E8.42363
G1 X200.604 Y95.418 E8.44171
G1 X201.05 Y95.668 E8.46552
G1 X201.486 Y95.935 E8.48932
G1 X201.753 Y96.107 E8.50411
G1 X201.992 Y96.265 E8.51745
G1 X202.413 Y96.552 E8.54118
G1 X203.156 Y97.106 E8.58433
G1 X203.541 Y97.419 E8.60744
G1 X203.854 Y97.683 E8.6265
G1 X204.057 Y97.861 E8.63908
G1 X204.747 Y98.521 E8.68354
G1 X204.885 Y98.665 E8.69282
G1 X205.228 Y99.04 E8.71649
G1 X205.49 Y99.34 E8.73504
G1 X206.271 Y100.347 E8.79438
G1 X206.473 Y100.641 E8.81098
G1 X206.971 Y101.436 E8.85467
G1 X207.271 Y102.002 E8.8845
G1 X207.424 Y102.312 E8.90059
G1 X207.803 Y103.17 E8.94427
G1 X208.129 Y104.13 E8.99148
G1 X208.23 Y104.48 E9.00844
G1 X208.451 Y105.392 E9.05214
G1 X208.594 Y106.318 E9.09577
G1 X208.651 Y107.059 E9.13037
G1 X208.667 Y107.432 E9.14776
G1 X208.667 Y108.369 E9.19139
G1 X208.587 Y109.304 E9.23508
G1 X208.484 Y109.954 E9.26573
G1 X208.428 Y110.249 E9.27971
G1 X208.214 Y111.163 E9.32342
G1 X207.923 Y112.054 E9.36706
G1 X207.735 Y112.522 E9.39055
G1 X207.558 Y112.936 E9.41152
G1 X207.15 Y113.788 E9.4555
G1 X207.078 Y113.923 E9.46263
G1 X206.602 Y114.731 E9.50629
G1 X206.237 Y115.259 E9.53618
G1 X206.082 Y115.47 E9.54837
G1 X205.89 Y115.724 E9.5632
G1 X205.741 Y115.915 E9.57448
G1 X205.002 Y116.768 E9.62703
G1 X204.808 Y116.97 E9.64007
G1 X204.51 Y117.269 E9.65973
G1 X204.257 Y117.513 E9.6761
G1 X203.493 Y118.185 E9.72347
G1 X203.228 Y118.397 E9.73928
G1 X202.792 Y118.727 E9.76474
G1 X202.3 Y119.082 E9.79299
G1 X201.968 Y119.314 E9.81185
G1 X201.467 Y119.636 E9.83958
G1 X201.251 Y119.767 E9.85134
G1 X200.987 Y119.923 E9.86562
G1 X200.748 Y120.059 E9.87843
G1 X200.374 Y120.263 E9.89826
G1 X199.642 Y120.641 E9.93663
G1 X199.054 Y120.922 E9.96697
G1 X198.36 Y121.228 E10.00229
G1 X198.057 Y121.356 E10.0176
G1 X197.67 Y121.513 E10.03705
G1 X197.34 Y121.641 E10.05353
G1 X196.849 Y121.822 E10.0779
G1 X196.545 Y121.929 E10.09291
G1 X196.262 Y122.024 E10.10681
G1 X195.96 Y122.121 E10.12158
G1 X195.139 Y122.369 E10.16151
G1 X194.734 Y122.485 E10.18113
G1 X194.373 Y122.583 E10.19855
G1 X194.016 Y122.673 E10.21569
G1 X192.731 Y122.976 E10.27717
G1 X192.368 Y123.056 E10.29448
G1 X191.894 Y123.151 E10.31699
G1 X191.539 Y123.216 E10.33379
G1 X190.44 Y123.399 E10.38567
G1 X189.852 Y123.486 E10.41335
G1 X189.199 Y123.574 E10.44403
G1 X188.865 Y123.614 E10.45969
G1 X187.768 Y123.727 E10.51104
G1 X187.212 Y123.774 E10.53703
G1 X186.526 Y123.824 E10.56905
G1 X186.218 Y123.842 E10.58342
G1 X185.291 Y123.882 E10.62662
G1 X184.6 Y123.902 E10.65881
G1 X183.907 Y123.913 E10.69109
G1 X183.587 Y123.913 E10.70599
G1 X182.681 Y123.9 E10.74818
G1 X181.921 Y123.879 E10.78358
G1 X181.295 Y123.853 E10.81276
G1 X180.971 Y123.834 E10.82787
G1 X180.012 Y123.765 E10.87264
G1 X179.246 Y123.697 E10.90845
G1 X178.746 Y123.647 E10.93185
G1 X178.391 Y123.606 E10.94849
G1 X177.316 Y123.463 E10.99898
G1 X177.1 Y123.432 E11.00914
G1 X176.486 Y123.337 E11.03807
G1 X174.566 Y123.019 E11.1287
G1 X174.458 Y123.006 E11.13376
G1 X172.93 Y122.756 E11.20586
G1 X170.413 Y122.415 E11.32413
G1 X167.913 Y122.151 E11.44119
G1 X165.396 Y121.954 E11.55875
G1 X162.89 Y121.831 E11.67558
G1 X160.361 Y121.777 E11.79337
G1 X157.835 Y121.796 E11.91099
G1 X155.324 Y121.885 E12.02799
G1 X152.824 Y122.045 E12.14463
G1 X150.323 Y122.276 E12.26159
G1 X147.843 Y122.576 E12.37791
G1 X145.304 Y122.957 E12.49746
G1 X142.861 Y123.393 E12.61301
G1 X139.908 Y124.015 E12.75353
G1 X139.382 Y124.134 E12.77865
G1 X138.459 Y124.302 E12.82233
G1 X137.804 Y124.372 E12.853
G1 X137.533 Y124.393 E12.86566
G1 X137.077 Y124.419 E12.88693
G1 X136.854 Y124.427 E12.89732
G1 X136.584 Y124.433 E12.90989
G1 X136.193 Y124.437 E12.9281
G1 X23.554 Y124.437 E18.17305
G1 X22.857 Y124.427 E18.2055
G1 X21.921 Y124.373 E18.24916
G1 X20.783 Y124.199 E18.30277
G1 X20.561 Y124.153 E18.31332
G1 X19.652 Y123.924 E18.35697
G1 X18.765 Y123.618 E18.40066
G1 X17.908 Y123.238 E18.44432
G1 X17.454 Y122.999 E18.46821
G1 X17.146 Y122.828 E18.48461
G1 X16.371 Y122.356 E18.52686
G1 X15.614 Y121.803 E18.57052
G1 X14.906 Y121.187 E18.61422
G1 X14.254 Y120.513 E18.65788
G1 X13.661 Y119.787 E18.70153
G1 X13.092 Y118.948 E18.74873
G1 X12.964 Y118.739 E18.76015
G1 X12.509 Y117.919 E18.80381
G1 X12.125 Y117.063 E18.8475
G1 X11.816 Y116.178 E18.89115
G1 X11.66 Y115.608 E18.91867
G1 X11.626 Y115.469 E18.92533
G1 X11.442 Y114.549 E18.96902
G1 X11.337 Y113.617 E19.01269
G1 X11.313 Y113.071 E19.03814
G1 X11.293 Y112.053 E19.08555
G1 X11.291 Y111.838 E19.09556
G1 X11.291 Y103.263 E19.49485
G1 X11.301 Y102.613 E19.52512
G1 X11.356 Y101.676 E19.56883
G1 X11.49 Y100.748 E19.61248
G1 X11.797 Y99.511 E19.67183
G1 X11.887 Y99.222 E19.68593
G1 X12.204 Y98.34 E19.72957
G1 X12.595 Y97.487 E19.77326
G1 X13.057 Y96.671 E19.81693
G1 X13.596 Y95.885 E19.8613
G1 X13.729 Y95.708 E19.87161
G1 X14.324 Y94.983 E19.91529
G1 X14.978 Y94.311 E19.95895
G1 X15.688 Y93.698 E20.00263
G1 X16.421 Y93.163 E20.04488
G1 X16.598 Y93.045 E20.05479
G1 X17.4 Y92.559 E20.09845
G1 X18.24 Y92.143 E20.1421
G1 X19.113 Y91.799 E20.18579
G1 X20.021 Y91.529 E20.2299
G1 X20.256 Y91.47 E20.24119
G0 F6000 X20.354 Y91.858
G1 F1200 X21.696 Y91.612 E20.30472
G1 X21.798 Y91.6 E20.3095
G1 X22.735 Y91.531 E20.35325
G1 X23.051 Y91.522 E20.36797
G1 X23.353 Y91.518 E20.38203
G1 X135.962 Y91.517 E25.62558
G1 X136.86 Y91.529 E25.6674
G1 X137.653 Y91.571 E25.70437
G1 X137.853 Y91.589 E25.71372
G1 X139.154 Y91.788 E25.77501
G1 X140.659 Y92.115 E25.84672
G1 X143.265 Y92.643 E25.97054
G1 X145.744 Y93.073 E26.08769
G1 X148.224 Y93.431 E26.20437
G1 X150.768 Y93.725 E26.32362
G1 X153.258 Y93.942 E26.44
G1 X155.815 Y94.092 E26.55927
G1 X158.317 Y94.167 E26.67583
G1 X160.862 Y94.173 E26.79433
G1 X163.38 Y94.106 E26.91162
G1 X165.905 Y93.968 E27.02937
G1 X168.41 Y93.759 E27.14642
G1 X170.9 Y93.482 E27.26308
G1 X174.738 Y92.917 E27.44372
G1 X176.581 Y92.607 E27.53074
G1 X177.321 Y92.493 E27.56561
G1 X177.87 Y92.415 E27.59143
G1 X178.216 Y92.372 E27.60766
G1 X179.323 Y92.253 E27.65951
G1 X179.863 Y92.203 E27.68476
G1 X180.57 Y92.147 E27.71778
G1 X180.879 Y92.127 E27.7322
G1 X181.865 Y92.079 E27.77817
G1 X182.515 Y92.058 E27.80845
G1 X183.226 Y92.044 E27.84156
G1 X183.53 Y92.042 E27.85572
G1 X184.311 Y92.049 E27.89209
G1 X185.148 Y92.068 E27.93107
G1 X185.842 Y92.094 E27.96341
G1 X186.17 Y92.112 E27.97871
G1 X187.164 Y92.181 E28.0251
G1 X187.813 Y92.236 E28.05543
G1 X188.44 Y92.297 E28.08476
G1 X188.772 Y92.334 E28.10032
G1 X189.724 Y92.457 E28.14502
G1 X190.356 Y92.548 E28.17475
G1 X190.898 Y92.634 E28.2003
G1 X191.258 Y92.699 E28.21734
G1 X192.621 Y92.968 E28.28203
G1 X193.032 Y93.056 E28.3016
G1 X193.835 Y93.243 E28.33999
G1 X194.153 Y93.322 E28.35525
G1 X194.397 Y93.387 E28.36701
G1 X194.685 Y93.468 E28.38094
G1 X195.325 Y93.658 E28.41202
G1 X196.165 Y93.922 E28.45302
G1 X196.756 Y94.128 E28.48217
G1 X197.536 Y94.426 E28.52105
G1 X197.805 Y94.533 E28.53453
G1 X198.257 Y94.72 E28.55731
G1 X198.844 Y94.984 E28.58728
G1 X199.744 Y95.422 E28.63388
G1 X200.073 Y95.59 E28.65108
G1 X200.416 Y95.772 E28.66916
G1 X200.768 Y95.967 E28.6879
G1 X200.849 Y96.014 E28.69226
G1 X201.269 Y96.271 E28.71519
G1 X201.536 Y96.443 E28.72998
G1 X201.767 Y96.596 E28.74288
G1 X202.188 Y96.883 E28.76661
G1 X202.904 Y97.416 E28.80817
G1 X203.289 Y97.729 E28.83127
G1 X203.59 Y97.984 E28.84964
G1 X203.793 Y98.162 E28.86222
G1 X204.458 Y98.798 E28.90506
G1 X204.596 Y98.942 E28.91435
G1 X204.927 Y99.303 E28.93716
G1 X205.189 Y99.603 E28.9557
G1 X205.942 Y100.573 E29.01288
G1 X206.144 Y100.867 E29.02949
G1 X206.631 Y101.648 E29.07235
G1 X206.912 Y102.179 E29.10032
G1 X207.065 Y102.489 E29.11642
G1 X207.437 Y103.331 E29.15928
G1 X207.744 Y104.241 E29.204
G1 X207.845 Y104.591 E29.22097
G1 X208.062 Y105.486 E29.26385
G1 X208.2 Y106.396 E29.30671
G1 X208.251 Y107.076 E29.33846
G1 X208.267 Y107.449 E29.35584
G1 X208.267 Y108.369 E29.39868
G1 X208.186 Y109.287 E29.44159
G1 X208.091 Y109.88 E29.46956
G1 X208.035 Y110.175 E29.48354
G1 X207.824 Y111.071 E29.5264
G1 X207.368 Y112.365 E29.59029
G1 X207.191 Y112.779 E29.61125
G1 X206.797 Y113.6 E29.65366
G1 X206.725 Y113.735 E29.66078
G1 X206.257 Y114.528 E29.70366
G1 X205.915 Y115.022 E29.73164
G1 X205.76 Y115.233 E29.74383
G1 X205.575 Y115.478 E29.75812
G1 X205.426 Y115.669 E29.7694
G1 X204.713 Y116.491 E29.82007
G1 X204.519 Y116.693 E29.83311
G1 X204.232 Y116.981 E29.85204
G1 X203.979 Y117.225 E29.86841
G1 X203.243 Y117.872 E29.91404
G1 X202.978 Y118.084 E29.92984
G1 X202.558 Y118.403 E29.9544
G1 X202.066 Y118.758 E29.98265
G1 X201.742 Y118.984 E30.00105
G1 X201.26 Y119.294 E30.02773
G1 X201.044 Y119.425 E30.0395
G1 X200.789 Y119.575 E30.05327
G1 X200.55 Y119.711 E30.06608
G1 X200.185 Y119.911 E30.08546
G1 X200.007 Y120.005 E30.09483
G1 X199.46 Y120.286 E30.12346
G1 X198.893 Y120.556 E30.15271
G1 X198.199 Y120.862 E30.18802
G1 X197.907 Y120.985 E30.20278
G1 X197.52 Y121.142 E30.22223
G1 X197.201 Y121.266 E30.23816
G1 X196.71 Y121.447 E30.26253
G1 X196.417 Y121.55 E30.27699
G1 X196.134 Y121.645 E30.29089
G1 X195.844 Y121.738 E30.30507
G1 X195.027 Y121.985 E30.34482
G1 X194.629 Y122.099 E30.36409
G1 X194.268 Y122.197 E30.38151
G1 X193.924 Y122.284 E30.39803
G1 X192.639 Y122.587 E30.45951
G1 X192.289 Y122.663 E30.47619
G1 X191.815 Y122.758 E30.4987
G1 X191.473 Y122.821 E30.51489
G1 X190.185 Y123.034 E30.57568
G1 X189.799 Y123.09 E30.59384
G1 X189.146 Y123.178 E30.62452
G1 X188.823 Y123.216 E30.63967
G1 X187.733 Y123.328 E30.69069
G1 X187.183 Y123.375 E30.71639
G1 X186.497 Y123.425 E30.74842
G1 X186.2 Y123.442 E30.76227
G1 X185.279 Y123.482 E30.8052
G1 X184.593 Y123.502 E30.83716
G1 X183.9 Y123.513 E30.86943
G1 X183.592 Y123.513 E30.88377
G1 X182.691 Y123.5 E30.92573
G1 X181.937 Y123.479 E30.96085
G1 X181.311 Y123.453 E30.99003
G1 X181 Y123.435 E31.00453
G1 X180.046 Y123.366 E31.04907
G1 X179.286 Y123.299 E31.0846
G1 X178.786 Y123.249 E31.10799
G1 X178.443 Y123.209 E31.12407
G1 X177.161 Y123.037 E31.1843
G1 X176.551 Y122.943 E31.21304
G1 X174.675 Y122.632 E31.30159
G1 X174.522 Y122.612 E31.30878
G1 X172.941 Y122.353 E31.38337
G1 X170.472 Y122.019 E31.49939
G1 X167.947 Y121.752 E31.61762
G1 X165.414 Y121.554 E31.73593
G1 X162.919 Y121.431 E31.85224
G1 X160.367 Y121.377 E31.9711
G1 X157.818 Y121.396 E32.0898
G1 X155.318 Y121.485 E32.20628
G1 X152.801 Y121.646 E32.32372
G1 X150.271 Y121.88 E32.44203
G1 X147.773 Y122.182 E32.5592
G1 X145.275 Y122.556 E32.67681
G1 X142.78 Y123.002 E32.79483
G1 X139.804 Y123.629 E32.93645
G1 X139.294 Y123.744 E32.96079
G1 X138.388 Y123.908 E33.00367
G1 X137.773 Y123.973 E33.03246
G1 X137.502 Y123.994 E33.04512
G1 X137.063 Y124.019 E33.06559
G1 X136.84 Y124.027 E33.07598
G1 X136.579 Y124.033 E33.08814
G1 X136.193 Y124.037 E33.10612
G1 X23.56 Y124.037 E38.35078
G1 X22.863 Y124.027 E38.38324
G1 X21.944 Y123.974 E38.4261
G1 X20.864 Y123.808 E38.47698
G1 X20.642 Y123.762 E38.48754
G1 X19.75 Y123.536 E38.53039
G1 X18.88 Y123.233 E38.57328
G1 X17.648 Y122.649 E38.63677
G1 X17.34 Y122.478 E38.65317
G1 X16.593 Y122.023 E38.6939
G1 X15.85 Y121.479 E38.73678
G1 X15.157 Y120.873 E38.77965
G1 X14.519 Y120.21 E38.82249
G1 X13.941 Y119.493 E38.86538
G1 X13.434 Y118.739 E38.90768
G1 X13.306 Y118.53 E38.9191
G1 X12.859 Y117.725 E38.96197
G1 X12.485 Y116.884 E39.00483
G1 X12.184 Y116.014 E39.0477
G1 X12.049 Y115.513 E39.07186
G1 X12.015 Y115.374 E39.07852
G1 X11.835 Y114.471 E39.12139
G1 X11.734 Y113.555 E39.16431
G1 X11.713 Y113.063 E39.18724
G1 X11.693 Y112.045 E39.23465
G1 X11.691 Y111.838 E39.24429
G1 X11.691 Y103.269 E39.6433
G1 X11.701 Y102.619 E39.67357
G1 X11.755 Y101.7 E39.71643
G1 X11.889 Y100.789 E39.75931
G1 X12.179 Y99.63 E39.81494
G1 X12.269 Y99.341 E39.82904
G1 X12.581 Y98.475 E39.8719
G1 X12.967 Y97.639 E39.91477
G1 X13.423 Y96.84 E39.95761
G1 X13.916 Y96.125 E39.99805
G1 X14.049 Y95.948 E40.00836
G1 X14.633 Y95.237 E40.0512
G1 X15.277 Y94.579 E40.09408
G1 X15.976 Y93.98 E40.13694
G1 X16.643 Y93.496 E40.17531
G1 X16.82 Y93.378 E40.18522
G1 X17.608 Y92.901 E40.22811
G1 X18.434 Y92.495 E40.27097
G1 X19.292 Y92.161 E40.31384
G1 X20.119 Y91.917 E40.35399
G1 X20.354 Y91.858 E40.36527
G0 F6000 X20.451 Y92.246
G1 F1200 X21.743 Y92.009 E40.42644
G1 X21.845 Y91.997 E40.43122
G1 X22.747 Y91.931 E40.47333
G1 X23.063 Y91.922 E40.48805
G1 X23.353 Y91.918 E40.50156
G1 X135.962 Y91.917 E45.7451
G1 X136.854 Y91.929 E45.78664
G1 X137.617 Y91.969 E45.82222
G1 X137.817 Y91.987 E45.83157
G1 X139.069 Y92.179 E45.89055
G1 X140.559 Y92.503 E45.96155
G1 X143.195 Y93.037 E46.08679
G1 X145.685 Y93.469 E46.20447
G1 X148.192 Y93.831 E46.32241
G1 X150.685 Y94.119 E46.43927
G1 X153.274 Y94.344 E46.56028
G1 X155.778 Y94.491 E46.67708
G1 X158.304 Y94.567 E46.79475
G1 X160.872 Y94.573 E46.91433
G1 X163.377 Y94.506 E47.03101
G1 X165.927 Y94.367 E47.14993
G1 X168.483 Y94.154 E47.26936
G1 X170.945 Y93.88 E47.38471
G1 X174.812 Y93.31 E47.56672
G1 X176.643 Y93.003 E47.65317
G1 X177.377 Y92.889 E47.68775
G1 X177.926 Y92.811 E47.71358
G1 X178.259 Y92.77 E47.7292
G1 X179.361 Y92.651 E47.78081
G1 X179.895 Y92.602 E47.80578
G1 X180.602 Y92.546 E47.8388
G1 X180.899 Y92.527 E47.85266
G1 X181.879 Y92.479 E47.89835
G1 X182.523 Y92.458 E47.92835
G1 X183.234 Y92.444 E47.96147
G1 X183.526 Y92.442 E47.97506
G1 X184.307 Y92.449 E48.01143
G1 X185.133 Y92.468 E48.0499
G1 X185.827 Y92.494 E48.08224
G1 X186.143 Y92.511 E48.09698
G1 X187.131 Y92.58 E48.14309
G1 X187.775 Y92.634 E48.17319
G1 X188.402 Y92.695 E48.20252
