;FLAVOR:Marlin
;TIME:15581
;Filament used: 17.0004m
;Layer height: 0.28
;MINX:43.954
;MINY:74.588
;MINZ:0.28
;MAXX:190.185
;MAXY:180.052
;MAXZ:8.68
;Generated with Cura_SteamEngine 4.6.1
M140 S85
M105
M190 S85
M104 S235
M105
M109 S235
M82 ;absolute extrusion mode
; Ender 3 Custom Start G-code
G92 E0 ; Reset Extruder
G28 ; Home all axes
G1 Z2.0 F3000 ; Move Z Axis up little to prevent scratching of Heat Bed
G1 X0.1 Y20 Z0.3 F5000.0 ; Move to start position
G1 X0.1 Y200.0 Z0.3 F1500.0 E15 ; Draw the first line
G1 X0.4 Y200.0 Z0.3 F5000.0 ; Move to side a little
G1 X0.4 Y20 Z0.3 F1500.0 E30 ; Draw the second line
G92 E0 ; Reset Extruder
G1 Z2.0 F3000 ; Move Z Axis up little to prevent scratching of Heat Bed
G1 X5 Y20 Z0.3 F5000.0 ; Move over to prevent blob squish
G92 E0
G92 E0
G1 F1500 E-6.5
;LAYER_COUNT:31
;LAYER:0
M107
;MESH:SideFrameMom.STL(1)
G0 F6000 X45.215 Y96.012 Z0.28
;TYPE:WALL-INNER
G1 F1500 E0
G1 F1200 X45.215 Y74.988 E0.97897
G1 X189.785 Y74.988 E7.71075
G1 X189.785 Y96.012 E8.68972
G1 X45.215 Y96.012 E15.4215
G0 F6000 X44.815 Y96.412
;TYPE:WALL-OUTER
G1 F1200 X44.815 Y74.588 E16.43772
G1 X190.185 Y74.588 E23.20675
G1 X190.185 Y96.412 E24.22297
G1 X44.815 Y96.412 E30.99201
G0 F6000 X45.085 Y96.142
G0 X45.325 Y95.622
G0 X45.605 Y95.622
;TYPE:SKIN
G1 F1200 X45.605 Y75.378 E31.93465
G1 X189.395 Y75.378 E38.63012
G1 X189.395 Y95.622 E39.57276
G1 X45.605 Y95.622 E46.26823
G0 F6000 X46.246 Y95.461
G1 F1200 X45.764 Y94.979 E46.29997
G0 F6000 X45.764 Y94.413
G1 F1200 X46.812 Y95.461 E46.36898
G0 F6000 X47.378 Y95.461
G1 F1200 X45.764 Y93.847 E46.47526
G0 F6000 X45.764 Y93.282
G1 F1200 X47.943 Y95.461 E46.61876
G0 F6000 X48.509 Y95.461
G1 F1200 X45.764 Y92.716 E46.79952
G0 F6000 X45.764 Y92.15
G1 F1200 X49.075 Y95.461 E47.01755
G0 F6000 X49.641 Y95.461
G1 F1200 X45.764 Y91.585 E47.27283
G0 F6000 X45.764 Y91.019
G1 F1200 X50.206 Y95.461 E47.56534
G0 F6000 X50.772 Y95.461
G1 F1200 X45.764 Y90.453 E47.89513
G0 F6000 X45.764 Y89.888
G1 F1200 X51.338 Y95.461 E48.26215
G0 F6000 X51.903 Y95.461
G1 F1200 X45.764 Y89.322 E48.66641
G0 F6000 X45.764 Y88.756
G1 F1200 X52.469 Y95.461 E49.10795
G0 F6000 X53.035 Y95.461
G1 F1200 X45.764 Y88.191 E49.58673
G0 F6000 X45.764 Y87.625
G1 F1200 X53.6 Y95.461 E50.10274
G0 F6000 X54.166 Y95.461
G1 F1200 X45.764 Y87.059 E50.65603
G0 F6000 X45.764 Y86.494
G1 F1200 X54.732 Y95.461 E51.24655
G0 F6000 X55.297 Y95.461
G1 F1200 X45.764 Y85.928 E51.87431
G0 F6000 X45.764 Y85.362
G1 F1200 X55.863 Y95.461 E52.53935
G0 F6000 X56.429 Y95.461
G1 F1200 X45.764 Y84.796 E53.24166
G0 F6000 X45.764 Y84.231
G1 F1200 X56.994 Y95.461 E53.98117
G0 F6000 X57.56 Y95.461
G1 F1200 X45.764 Y83.665 E54.75796
G0 F6000 X45.764 Y83.099
G1 F1200 X58.126 Y95.461 E55.57202
G0 F6000 X58.691 Y95.461
G1 F1200 X45.764 Y82.534 E56.42328
G0 F6000 X45.764 Y81.968
G1 F1200 X59.257 Y95.461 E57.31182
G0 F6000 X59.823 Y95.461
G1 F1200 X45.764 Y81.402 E58.23763
G0 F6000 X45.764 Y80.837
G1 F1200 X60.389 Y95.461 E59.20068
G0 F6000 X60.954 Y95.461
G1 F1200 X45.764 Y80.271 E60.20097
G0 F6000 X45.764 Y79.705
G1 F1200 X61.52 Y95.461 E61.23853
G0 F6000 X62.086 Y95.461
G1 F1200 X45.764 Y79.14 E62.31332
G0 F6000 X45.764 Y78.574
G1 F1200 X62.651 Y95.461 E63.42536
G0 F6000 X63.217 Y95.461
G1 F1200 X45.764 Y78.008 E64.57467
G0 F6000 X45.764 Y77.443
G1 F1200 X63.783 Y95.461 E65.76122
G0 F6000 X64.348 Y95.461
G1 F1200 X45.764 Y76.877 E66.98501
G0 F6000 X45.764 Y76.311
G1 F1200 X64.914 Y95.461 E68.24607
G0 F6000 X65.48 Y95.461
G1 F1200 X45.764 Y75.745 E69.5444
G0 F6000 X46.122 Y75.538
G1 F1200 X66.045 Y95.461 E70.85637
G0 F6000 X66.611 Y95.461
G1 F1200 X46.688 Y75.538 E72.16833
G0 F6000 X47.253 Y75.538
G1 F1200 X67.177 Y95.461 E73.48033
G0 F6000 X67.742 Y95.461
G1 F1200 X47.819 Y75.538 E74.79229
G0 F6000 X48.385 Y75.538
G1 F1200 X68.308 Y95.461 E76.10425
G0 F6000 X68.874 Y95.461
G1 F1200 X48.95 Y75.538 E77.41625
G0 F6000 X49.516 Y75.538
G1 F1200 X69.44 Y95.461 E78.72825
G0 F6000 X70.005 Y95.461
G1 F1200 X50.082 Y75.538 E80.04021
G0 F6000 X50.647 Y75.538
G1 F1200 X70.571 Y95.461 E81.35221
G0 F6000 X71.137 Y95.461
G1 F1200 X51.213 Y75.538 E82.6642
G0 F6000 X51.779 Y75.538
G1 F1200 X71.702 Y95.461 E83.97617
G0 F6000 X72.268 Y95.461
G1 F1200 X52.344 Y75.538 E85.28816
G0 F6000 X52.91 Y75.538
G1 F1200 X72.834 Y95.461 E86.60016
G0 F6000 X73.399 Y95.461
G1 F1200 X53.476 Y75.538 E87.91212
G0 F6000 X54.042 Y75.538
G1 F1200 X73.965 Y95.461 E89.22409
G0 F6000 X74.531 Y95.461
G1 F1200 X54.607 Y75.538 E90.53608
G0 F6000 X55.173 Y75.538
G1 F1200 X75.096 Y95.461 E91.84805
G0 F6000 X75.662 Y95.461
G1 F1200 X55.739 Y75.538 E93.16001
G0 F6000 X56.304 Y75.538
G1 F1200 X76.228 Y95.461 E94.47201
G0 F6000 X76.793 Y95.461
G1 F1200 X56.87 Y75.538 E95.78397
G0 F6000 X57.436 Y75.538
G1 F1200 X77.359 Y95.461 E97.09593
G0 F6000 X77.925 Y95.461
G1 F1200 X58.001 Y75.538 E98.40793
G0 F6000 X58.567 Y75.538
G1 F1200 X78.49 Y95.461 E99.71989
G0 F6000 X79.056 Y95.461
G1 F1200 X59.133 Y75.538 E101.03186
G0 F6000 X59.698 Y75.538
G1 F1200 X79.622 Y95.461 E102.34385
G0 F6000 X80.188 Y95.461
G1 F1200 X60.264 Y75.538 E103.65585
G0 F6000 X60.83 Y75.538
G1 F1200 X80.753 Y95.461 E104.96781
G0 F6000 X81.319 Y95.461
G1 F1200 X61.395 Y75.538 E106.27981
G0 F6000 X61.961 Y75.538
G1 F1200 X81.885 Y95.461 E107.59181
G0 F6000 X82.45 Y95.461
G1 F1200 X62.527 Y75.538 E108.90377
G0 F6000 X63.093 Y75.538
G1 F1200 X83.016 Y95.461 E110.21573
G0 F6000 X83.582 Y95.461
G1 F1200 X63.658 Y75.538 E111.52773
G0 F6000 X64.224 Y75.538
G1 F1200 X84.147 Y95.461 E112.83969
G0 F6000 X84.713 Y95.461
G1 F1200 X64.79 Y75.538 E114.15166
G0 F6000 X65.355 Y75.538
G1 F1200 X85.279 Y95.461 E115.46365
G0 F6000 X85.844 Y95.461
G1 F1200 X65.921 Y75.538 E116.77562
G0 F6000 X66.487 Y75.538
G1 F1200 X86.41 Y95.461 E118.08758
G0 F6000 X86.976 Y95.461
G1 F1200 X67.052 Y75.538 E119.39958
G0 F6000 X67.618 Y75.538
G1 F1200 X87.541 Y95.461 E120.71154
G0 F6000 X88.107 Y95.461
G1 F1200 X68.184 Y75.538 E122.0235
G0 F6000 X68.749 Y75.538
G1 F1200 X88.673 Y95.461 E123.3355
G0 F6000 X89.238 Y95.461
G1 F1200 X69.315 Y75.538 E124.64746
G0 F6000 X69.881 Y75.538
G1 F1200 X89.804 Y95.461 E125.95943
G0 F6000 X90.37 Y95.461
G1 F1200 X70.446 Y75.538 E127.27142
G0 F6000 X71.012 Y75.538
G1 F1200 X90.936 Y95.461 E128.58342
G0 F6000 X91.501 Y95.461
G1 F1200 X71.578 Y75.538 E129.89539
G0 F6000 X72.143 Y75.538
G1 F1200 X92.067 Y95.461 E131.20738
G0 F6000 X92.633 Y95.461
G1 F1200 X72.709 Y75.538 E132.51938
G0 F6000 X73.275 Y75.538
G1 F1200 X93.198 Y95.461 E133.83134
G0 F6000 X93.764 Y95.461
G1 F1200 X73.841 Y75.538 E135.14331
G0 F6000 X74.406 Y75.538
G1 F1200 X94.33 Y95.461 E136.4553
G0 F6000 X94.895 Y95.461
G1 F1200 X74.972 Y75.538 E137.76727
G0 F6000 X75.538 Y75.538
G1 F1200 X95.461 Y95.461 E139.07923
G0 F6000 X96.027 Y95.461
G1 F1200 X76.103 Y75.538 E140.39123
G0 F6000 X76.669 Y75.538
G1 F1200 X96.592 Y95.461 E141.70319
G0 F6000 X97.158 Y95.461
G1 F1200 X77.235 Y75.538 E143.01515
G0 F6000 X77.8 Y75.538
G1 F1200 X97.724 Y95.461 E144.32715
G0 F6000 X98.289 Y95.461
G1 F1200 X78.366 Y75.538 E145.63911
G0 F6000 X78.932 Y75.538
G1 F1200 X98.855 Y95.461 E146.95108
G0 F6000 X99.421 Y95.461
G1 F1200 X79.497 Y75.538 E148.26307
G0 F6000 X80.063 Y75.538
G1 F1200 X99.987 Y95.461 E149.57507
G0 F6000 X100.552 Y95.461
G1 F1200 X80.629 Y75.538 E150.88703
G0 F6000 X81.194 Y75.538
G1 F1200 X101.118 Y95.461 E152.19903
G0 F6000 X101.684 Y95.461
G1 F1200 X81.76 Y75.538 E153.51103
G0 F6000 X82.326 Y75.538
G1 F1200 X102.249 Y95.461 E154.82299
G0 F6000 X102.815 Y95.461
G1 F1200 X82.892 Y75.538 E156.13495
G0 F6000 X83.457 Y75.538
G1 F1200 X103.381 Y95.461 E157.44695
G0 F6000 X103.946 Y95.461
G1 F1200 X84.023 Y75.538 E158.75891
G0 F6000 X84.589 Y75.538
G1 F1200 X104.512 Y95.461 E160.07088
G0 F6000 X105.078 Y95.461
G1 F1200 X85.154 Y75.538 E161.38287
G0 F6000 X85.72 Y75.538
G1 F1200 X105.643 Y95.461 E162.69484
G0 F6000 X106.209 Y95.461
G1 F1200 X86.286 Y75.538 E164.0068
G0 F6000 X86.851 Y75.538
G1 F1200 X106.775 Y95.461 E165.3188
G0 F6000 X107.34 Y95.461
G1 F1200 X87.417 Y75.538 E166.63076
G0 F6000 X87.983 Y75.538
G1 F1200 X107.906 Y95.461 E167.94272
G0 F6000 X108.472 Y95.461
G1 F1200 X88.548 Y75.538 E169.25472
G0 F6000 X89.114 Y75.538
G1 F1200 X109.037 Y95.461 E170.56668
G0 F6000 X109.603 Y95.461
G1 F1200 X89.68 Y75.538 E171.87865
G0 F6000 X90.245 Y75.538
G1 F1200 X110.169 Y95.461 E173.19064
G0 F6000 X110.735 Y95.461
G1 F1200 X90.811 Y75.538 E174.50264
G0 F6000 X91.377 Y75.538
G1 F1200 X111.3 Y95.461 E175.8146
G0 F6000 X111.866 Y95.461
G1 F1200 X91.942 Y75.538 E177.1266
G0 F6000 X92.508 Y75.538
G1 F1200 X112.432 Y95.461 E178.4386
G0 F6000 X112.997 Y95.461
G1 F1200 X93.074 Y75.538 E179.75056
G0 F6000 X93.64 Y75.538
G1 F1200 X113.563 Y95.461 E181.06252
G0 F6000 X114.129 Y95.461
G1 F1200 X94.205 Y75.538 E182.37452
G0 F6000 X94.771 Y75.538
G1 F1200 X114.694 Y95.461 E183.68648
G0 F6000 X115.26 Y95.461
G1 F1200 X95.337 Y75.538 E184.99845
G0 F6000 X95.902 Y75.538
G1 F1200 X115.826 Y95.461 E186.31044
G0 F6000 X116.391 Y95.461
G1 F1200 X96.468 Y75.538 E187.62241
G0 F6000 X97.034 Y75.538
G1 F1200 X116.957 Y95.461 E188.93437
G0 F6000 X117.523 Y95.461
G1 F1200 X97.599 Y75.538 E190.24637
G0 F6000 X98.165 Y75.538
G1 F1200 X118.088 Y95.461 E191.55833
G0 F6000 X118.654 Y95.461
G1 F1200 X98.731 Y75.538 E192.8703
G0 F6000 X99.296 Y75.538
G1 F1200 X119.22 Y95.461 E194.18229
G0 F6000 X119.786 Y95.461
G1 F1200 X99.862 Y75.538 E195.49429
G0 F6000 X100.428 Y75.538
G1 F1200 X120.351 Y95.461 E196.80625
G0 F6000 X120.917 Y95.461
G1 F1200 X100.993 Y75.538 E198.11825
G0 F6000 X101.559 Y75.538
G1 F1200 X121.483 Y95.461 E199.43024
G0 F6000 X122.048 Y95.461
G1 F1200 X102.125 Y75.538 E200.74221
G0 F6000 X102.69 Y75.538
G1 F1200 X122.614 Y95.461 E202.0542
G0 F6000 X123.18 Y95.461
G1 F1200 X103.256 Y75.538 E203.3662
G0 F6000 X103.822 Y75.538
G1 F1200 X123.745 Y95.461 E204.67816
G0 F6000 X124.311 Y95.461
G1 F1200 X104.388 Y75.538 E205.99013
G0 F6000 X104.953 Y75.538
G1 F1200 X124.877 Y95.461 E207.30212
G0 F6000 X125.442 Y95.461
G1 F1200 X105.519 Y75.538 E208.61409
G0 F6000 X106.085 Y75.538
G1 F1200 X126.008 Y95.461 E209.92605
G0 F6000 X126.574 Y95.461
G1 F1200 X106.65 Y75.538 E211.23805
G0 F6000 X107.216 Y75.538
G1 F1200 X127.139 Y95.461 E212.55001
G0 F6000 X127.705 Y95.461
G1 F1200 X107.782 Y75.538 E213.86198
G0 F6000 X108.347 Y75.538
G1 F1200 X128.271 Y95.461 E215.17397
G0 F6000 X128.836 Y95.461
G1 F1200 X108.913 Y75.538 E216.48594
G0 F6000 X109.479 Y75.538
G1 F1200 X129.402 Y95.461 E217.7979
G0 F6000 X129.968 Y95.461
G1 F1200 X110.044 Y75.538 E219.1099
G0 F6000 X110.61 Y75.538
G1 F1200 X130.534 Y95.461 E220.42189
G0 F6000 X131.099 Y95.461
G1 F1200 X111.176 Y75.538 E221.73386
G0 F6000 X111.741 Y75.538
G1 F1200 X131.665 Y95.461 E223.04585
G0 F6000 X132.231 Y95.461
G1 F1200 X112.307 Y75.538 E224.35785
G0 F6000 X112.873 Y75.538
G1 F1200 X132.796 Y95.461 E225.66981
G0 F6000 X133.362 Y95.461
G1 F1200 X113.439 Y75.538 E226.98178
G0 F6000 X114.004 Y75.538
G1 F1200 X133.928 Y95.461 E228.29377
G0 F6000 X134.493 Y95.461
G1 F1200 X114.57 Y75.538 E229.60574
G0 F6000 X115.136 Y75.538
G1 F1200 X135.059 Y95.461 E230.9177
G0 F6000 X135.625 Y95.461
G1 F1200 X115.701 Y75.538 E232.2297
G0 F6000 X116.267 Y75.538
G1 F1200 X136.19 Y95.461 E233.54166
G0 F6000 X136.756 Y95.461
G1 F1200 X116.833 Y75.538 E234.85362
G0 F6000 X117.398 Y75.538
G1 F1200 X137.322 Y95.461 E236.16562
G0 F6000 X137.887 Y95.461
G1 F1200 X117.964 Y75.538 E237.47758
G0 F6000 X118.53 Y75.538
G1 F1200 X138.453 Y95.461 E238.78955
G0 F6000 X139.019 Y95.461
G1 F1200 X119.095 Y75.538 E240.10154
G0 F6000 X119.661 Y75.538
G1 F1200 X139.584 Y95.461 E241.41351
G0 F6000 X140.15 Y95.461
G1 F1200 X120.227 Y75.538 E242.72547
G0 F6000 X120.792 Y75.538
G1 F1200 X140.716 Y95.461 E244.03747
G0 F6000 X141.282 Y95.461
G1 F1200 X121.358 Y75.538 E245.34946
G0 F6000 X121.924 Y75.538
G1 F1200 X141.847 Y95.461 E246.66143
G0 F6000 X142.413 Y95.461
G1 F1200 X122.489 Y75.538 E247.97342
G0 F6000 X123.055 Y75.538
G1 F1200 X142.979 Y95.461 E249.28542
G0 F6000 X143.544 Y95.461
G1 F1200 X123.621 Y75.538 E250.59738
G0 F6000 X124.187 Y75.538
G1 F1200 X144.11 Y95.461 E251.90935
G0 F6000 X144.676 Y95.461
G1 F1200 X124.752 Y75.538 E253.22134
G0 F6000 X125.318 Y75.538
G1 F1200 X145.241 Y95.461 E254.53331
G0 F6000 X145.807 Y95.461
G1 F1200 X125.884 Y75.538 E255.84527
G0 F6000 X126.449 Y75.538
G1 F1200 X146.373 Y95.461 E257.15727
G0 F6000 X146.938 Y95.461
G1 F1200 X127.015 Y75.538 E258.46923
G0 F6000 X127.581 Y75.538
G1 F1200 X147.504 Y95.461 E259.78119
G0 F6000 X148.07 Y95.461
G1 F1200 X128.146 Y75.538 E261.09319
G0 F6000 X128.712 Y75.538
G1 F1200 X148.635 Y95.461 E262.40515
G0 F6000 X149.201 Y95.461
G1 F1200 X129.278 Y75.538 E263.71712
G0 F6000 X129.843 Y75.538
G1 F1200 X149.767 Y95.461 E265.02911
G0 F6000 X150.333 Y95.461
G1 F1200 X130.409 Y75.538 E266.34111
G0 F6000 X130.975 Y75.538
G1 F1200 X150.898 Y95.461 E267.65307
G0 F6000 X151.464 Y95.461
G1 F1200 X131.54 Y75.538 E268.96507
G0 F6000 X132.106 Y75.538
G1 F1200 X152.03 Y95.461 E270.27707
G0 F6000 X152.595 Y95.461
G1 F1200 X132.672 Y75.538 E271.58903
G0 F6000 X133.238 Y75.538
G1 F1200 X153.161 Y95.461 E272.90099
G0 F6000 X153.727 Y95.461
G1 F1200 X133.803 Y75.538 E274.21299
G0 F6000 X134.369 Y75.538
G1 F1200 X154.292 Y95.461 E275.52495
G0 F6000 X154.858 Y95.461
G1 F1200 X134.935 Y75.538 E276.83692
G0 F6000 X135.5 Y75.538
G1 F1200 X155.424 Y95.461 E278.14892
G0 F6000 X155.989 Y95.461
G1 F1200 X136.066 Y75.538 E279.46088
G0 F6000 X136.632 Y75.538
G1 F1200 X156.555 Y95.461 E280.77284
G0 F6000 X157.121 Y95.461
G1 F1200 X137.197 Y75.538 E282.08484
G0 F6000 X137.763 Y75.538
G1 F1200 X157.686 Y95.461 E283.3968
G0 F6000 X158.252 Y95.461
G1 F1200 X138.329 Y75.538 E284.70877
G0 F6000 X138.894 Y75.538
G1 F1200 X158.818 Y95.461 E286.02076
G0 F6000 X159.383 Y95.461
G1 F1200 X139.46 Y75.538 E287.33273
G0 F6000 X140.026 Y75.538
G1 F1200 X159.949 Y95.461 E288.64469
G0 F6000 X160.515 Y95.461
G1 F1200 X140.591 Y75.538 E289.95669
G0 F6000 X141.157 Y75.538
G1 F1200 X161.081 Y95.461 E291.26868
G0 F6000 X161.646 Y95.461
G1 F1200 X141.723 Y75.538 E292.58065
G0 F6000 X142.288 Y75.538
G1 F1200 X162.212 Y95.461 E293.89264
G0 F6000 X162.778 Y95.461
G1 F1200 X142.854 Y75.538 E295.20464
G0 F6000 X143.42 Y75.538
G1 F1200 X163.343 Y95.461 E296.5166
G0 F6000 X163.909 Y95.461
G1 F1200 X143.986 Y75.538 E297.82857
G0 F6000 X144.551 Y75.538
G1 F1200 X164.475 Y95.461 E299.14056
G0 F6000 X165.04 Y95.461
G1 F1200 X145.117 Y75.538 E300.45253
G0 F6000 X145.683 Y75.538
G1 F1200 X165.606 Y95.461 E301.76449
G0 F6000 X166.172 Y95.461
G1 F1200 X146.248 Y75.538 E303.07649
G0 F6000 X146.814 Y75.538
G1 F1200 X166.737 Y95.461 E304.38845
G0 F6000 X167.303 Y95.461
G1 F1200 X147.38 Y75.538 E305.70041
G0 F6000 X147.945 Y75.538
G1 F1200 X167.869 Y95.461 E307.01241
G0 F6000 X168.434 Y95.461
G1 F1200 X148.511 Y75.538 E308.32437
G0 F6000 X149.077 Y75.538
G1 F1200 X169 Y95.461 E309.63634
G0 F6000 X169.566 Y95.461
G1 F1200 X149.642 Y75.538 E310.94833
G0 F6000 X150.208 Y75.538
G1 F1200 X170.132 Y95.461 E312.26033
G0 F6000 X170.697 Y95.461
G1 F1200 X150.774 Y75.538 E313.57229
G0 F6000 X151.339 Y75.538
G1 F1200 X171.263 Y95.461 E314.88429
G0 F6000 X171.829 Y95.461
G1 F1200 X151.905 Y75.538 E316.19629
G0 F6000 X152.471 Y75.538
G1 F1200 X172.394 Y95.461 E317.50825
G0 F6000 X172.96 Y95.461
G1 F1200 X153.036 Y75.538 E318.82025
G0 F6000 X153.602 Y75.538
G1 F1200 X173.526 Y95.461 E320.13224
G0 F6000 X174.091 Y95.461
G1 F1200 X154.168 Y75.538 E321.44421
G0 F6000 X154.734 Y75.538
G1 F1200 X174.657 Y95.461 E322.75617
G0 F6000 X175.223 Y95.461
G1 F1200 X155.299 Y75.538 E324.06817
G0 F6000 X155.865 Y75.538
G1 F1200 X175.788 Y95.461 E325.38013
G0 F6000 X176.354 Y95.461
G1 F1200 X156.431 Y75.538 E326.69209
G0 F6000 X156.996 Y75.538
G1 F1200 X176.92 Y95.461 E328.00409
G0 F6000 X177.485 Y95.461
G1 F1200 X157.562 Y75.538 E329.31605
G0 F6000 X158.128 Y75.538
G1 F1200 X178.051 Y95.461 E330.62802
G0 F6000 X178.617 Y95.461
G1 F1200 X158.693 Y75.538 E331.94001
G0 F6000 X159.259 Y75.538
G1 F1200 X179.182 Y95.461 E333.25198
G0 F6000 X179.748 Y95.461
G1 F1200 X159.825 Y75.538 E334.56394
G0 F6000 X160.39 Y75.538
