;FLAVOR:Marlin
;TIME:33225
;Filament used: 36.3852m
;Layer height: 0.28
;MINX:34.429
;MINY:2.587
;MINZ:0.28
;MAXX:199.71
;MAXY:220.413
;MAXZ:8.68
;Generated with Cura_SteamEngine 4.6.1
M140 S85
M105
M190 S85
M104 S235
M105
M109 S235
M82 ;absolute extrusion mode
; Ender 3 Custom Start G-code
G92 E0 ; Reset Extruder
G28 ; Home all axes
G1 Z2.0 F3000 ; Move Z Axis up little to prevent scratching of Heat Bed
G1 X0.1 Y20 Z0.3 F5000.0 ; Move to start position
G1 X0.1 Y200.0 Z0.3 F1500.0 E15 ; Draw the first line
G1 X0.4 Y200.0 Z0.3 F5000.0 ; Move to side a little
G1 X0.4 Y20 Z0.3 F1500.0 E30 ; Draw the second line
G92 E0 ; Reset Extruder
G1 Z2.0 F3000 ; Move Z Axis up little to prevent scratching of Heat Bed
G1 X5 Y20 Z0.3 F5000.0 ; Move over to prevent blob squish
G92 E0
G92 E0
G1 F1500 E-6.5
;LAYER_COUNT:31
;LAYER:0
M107
;MESH:SideFrameFamily.STL(3)
G0 F6000 X51.565 Y24.013 Z0.28
;TYPE:WALL-INNER
G1 F1500 E0
G1 F1200 X51.565 Y2.987 E0.97906
G1 X183.435 Y2.987 E7.11948
G1 X183.435 Y24.013 E8.09854
G1 X51.565 Y24.013 E14.23896
G0 F6000 X51.165 Y24.413
;TYPE:WALL-OUTER
G1 F1200 X51.165 Y2.587 E15.25527
G1 X183.835 Y2.587 E21.43294
G1 X183.835 Y24.413 E22.44925
G1 X51.165 Y24.413 E28.62692
G0 F6000 X51.435 Y24.143
G0 X51.675 Y23.623
G0 X51.955 Y23.623
;TYPE:SKIN
G1 F1200 X51.955 Y3.377 E29.56966
G1 X183.045 Y3.377 E35.67376
G1 X183.045 Y23.623 E36.6165
G1 X51.955 Y23.623 E42.72059
G0 F6000 X52.312 Y23.462
G1 F1200 X52.113 Y23.263 E42.7337
G0 F6000 X52.113 Y22.698
G1 F1200 X52.878 Y23.462 E42.78404
G0 F6000 X53.443 Y23.462
G1 F1200 X52.113 Y22.132 E42.87163
G0 F6000 X52.113 Y21.566
G1 F1200 X54.009 Y23.462 E42.99648
G0 F6000 X54.575 Y23.462
G1 F1200 X52.113 Y21.001 E43.15857
G0 F6000 X52.113 Y20.435
G1 F1200 X55.14 Y23.462 E43.35791
G0 F6000 X55.706 Y23.462
G1 F1200 X52.113 Y19.869 E43.59451
G0 F6000 X52.113 Y19.304
G1 F1200 X56.272 Y23.462 E43.86836
G0 F6000 X56.837 Y23.462
G1 F1200 X52.113 Y18.738 E44.17944
G0 F6000 X52.113 Y18.172
G1 F1200 X57.403 Y23.462 E44.5278
G0 F6000 X57.969 Y23.462
G1 F1200 X52.113 Y17.606 E44.91342
G0 F6000 X52.113 Y17.041
G1 F1200 X58.535 Y23.462 E45.33629
G0 F6000 X59.1 Y23.462
G1 F1200 X52.113 Y16.475 E45.7964
G0 F6000 X52.113 Y15.909
G1 F1200 X59.666 Y23.462 E46.29377
G0 F6000 X60.232 Y23.462
G1 F1200 X52.113 Y15.344 E46.82839
G0 F6000 X52.113 Y14.778
G1 F1200 X60.797 Y23.462 E47.40025
G0 F6000 X61.363 Y23.462
G1 F1200 X52.113 Y14.212 E48.00938
G0 F6000 X52.113 Y13.647
G1 F1200 X61.929 Y23.462 E48.65574
G0 F6000 X62.494 Y23.462
G1 F1200 X52.113 Y13.081 E49.33935
G0 F6000 X52.113 Y12.515
G1 F1200 X63.06 Y23.462 E50.06023
G0 F6000 X63.626 Y23.462
G1 F1200 X52.113 Y11.95 E50.81835
G0 F6000 X52.113 Y11.384
G1 F1200 X64.191 Y23.462 E51.6137
G0 F6000 X64.757 Y23.462
G1 F1200 X52.113 Y10.818 E52.44633
G0 F6000 X52.113 Y10.253
G1 F1200 X65.323 Y23.462 E53.3162
G0 F6000 X65.888 Y23.462
G1 F1200 X52.113 Y9.687 E54.22331
G0 F6000 X52.113 Y9.121
G1 F1200 X66.454 Y23.462 E55.16769
G0 F6000 X67.02 Y23.462
G1 F1200 X52.113 Y8.555 E56.14934
G0 F6000 X52.113 Y7.99
G1 F1200 X67.585 Y23.462 E57.1682
G0 F6000 X68.151 Y23.462
G1 F1200 X52.113 Y7.424 E58.22433
G0 F6000 X52.113 Y6.858
G1 F1200 X68.717 Y23.462 E59.31773
G0 F6000 X69.283 Y23.462
G1 F1200 X52.113 Y6.293 E60.44837
G0 F6000 X52.113 Y5.727
G1 F1200 X69.848 Y23.462 E61.61625
G0 F6000 X70.414 Y23.462
G1 F1200 X52.113 Y5.161 E62.8214
G0 F6000 X52.113 Y4.596
G1 F1200 X70.98 Y23.462 E64.06379
G0 F6000 X71.545 Y23.462
G1 F1200 X52.113 Y4.03 E65.34342
G0 F6000 X52.185 Y3.536
G1 F1200 X72.111 Y23.462 E66.65558
G0 F6000 X72.677 Y23.462
G1 F1200 X52.751 Y3.536 E67.96774
G0 F6000 X53.317 Y3.536
G1 F1200 X73.242 Y23.462 E69.27987
G0 F6000 X73.808 Y23.462
G1 F1200 X53.882 Y3.536 E70.59203
G0 F6000 X54.448 Y3.536
G1 F1200 X74.374 Y23.462 E71.90419
G0 F6000 X74.939 Y23.462
G1 F1200 X55.014 Y3.536 E73.21632
G0 F6000 X55.58 Y3.536
G1 F1200 X75.505 Y23.462 E74.52845
G0 F6000 X76.071 Y23.462
G1 F1200 X56.145 Y3.536 E75.84061
G0 F6000 X56.711 Y3.536
G1 F1200 X76.636 Y23.462 E77.15274
G0 F6000 X77.202 Y23.462
G1 F1200 X57.277 Y3.536 E78.46487
G0 F6000 X57.842 Y3.536
G1 F1200 X77.768 Y23.462 E79.77703
G0 F6000 X78.333 Y23.462
G1 F1200 X58.408 Y3.536 E81.08916
G0 F6000 X58.974 Y3.536
G1 F1200 X78.899 Y23.462 E82.40129
G0 F6000 X79.465 Y23.462
G1 F1200 X59.539 Y3.536 E83.71345
G0 F6000 X60.105 Y3.536
G1 F1200 X80.031 Y23.462 E85.02561
G0 F6000 X80.596 Y23.462
G1 F1200 X60.671 Y3.536 E86.33774
G0 F6000 X61.236 Y3.536
G1 F1200 X81.162 Y23.462 E87.6499
G0 F6000 X81.728 Y23.462
G1 F1200 X61.802 Y3.536 E88.96206
G0 F6000 X62.368 Y3.536
G1 F1200 X82.293 Y23.462 E90.27419
G0 F6000 X82.859 Y23.462
G1 F1200 X62.933 Y3.536 E91.58635
G0 F6000 X63.499 Y3.536
G1 F1200 X83.425 Y23.462 E92.89851
G0 F6000 X83.99 Y23.462
G1 F1200 X64.065 Y3.536 E94.21064
G0 F6000 X64.63 Y3.536
G1 F1200 X84.556 Y23.462 E95.5228
G0 F6000 X85.122 Y23.462
G1 F1200 X65.196 Y3.536 E96.83496
G0 F6000 X65.762 Y3.536
G1 F1200 X85.687 Y23.462 E98.14709
G0 F6000 X86.253 Y23.462
G1 F1200 X66.328 Y3.536 E99.45922
G0 F6000 X66.893 Y3.536
G1 F1200 X86.819 Y23.462 E100.77138
G0 F6000 X87.384 Y23.462
G1 F1200 X67.459 Y3.536 E102.08351
G0 F6000 X68.025 Y3.536
G1 F1200 X87.95 Y23.462 E103.39563
G0 F6000 X88.516 Y23.462
G1 F1200 X68.59 Y3.536 E104.70779
G0 F6000 X69.156 Y3.536
G1 F1200 X89.082 Y23.462 E106.01996
G0 F6000 X89.647 Y23.462
G1 F1200 X69.722 Y3.536 E107.33208
G0 F6000 X70.287 Y3.536
G1 F1200 X90.213 Y23.462 E108.64425
G0 F6000 X90.779 Y23.462
G1 F1200 X70.853 Y3.536 E109.95641
G0 F6000 X71.419 Y3.536
G1 F1200 X91.344 Y23.462 E111.26853
G0 F6000 X91.91 Y23.462
G1 F1200 X71.984 Y3.536 E112.5807
G0 F6000 X72.55 Y3.536
G1 F1200 X92.476 Y23.462 E113.89286
G0 F6000 X93.041 Y23.462
G1 F1200 X73.116 Y3.536 E115.20499
G0 F6000 X73.681 Y3.536
G1 F1200 X93.607 Y23.462 E116.51715
G0 F6000 X94.173 Y23.462
G1 F1200 X74.247 Y3.536 E117.82931
G0 F6000 X74.813 Y3.536
G1 F1200 X94.738 Y23.462 E119.14144
G0 F6000 X95.304 Y23.462
G1 F1200 X75.378 Y3.536 E120.4536
G0 F6000 X75.944 Y3.536
G1 F1200 X95.87 Y23.462 E121.76576
G0 F6000 X96.435 Y23.462
G1 F1200 X76.51 Y3.536 E123.07789
G0 F6000 X77.076 Y3.536
G1 F1200 X97.001 Y23.462 E124.39001
G0 F6000 X97.567 Y23.462
G1 F1200 X77.641 Y3.536 E125.70218
G0 F6000 X78.207 Y3.536
G1 F1200 X98.132 Y23.462 E127.0143
G0 F6000 X98.698 Y23.462
G1 F1200 X78.773 Y3.536 E128.32643
G0 F6000 X79.338 Y3.536
G1 F1200 X99.264 Y23.462 E129.63859
G0 F6000 X99.83 Y23.462
G1 F1200 X79.904 Y3.536 E130.95075
G0 F6000 X80.47 Y3.536
G1 F1200 X100.395 Y23.462 E132.26288
G0 F6000 X100.961 Y23.462
G1 F1200 X81.035 Y3.536 E133.57504
G0 F6000 X81.601 Y3.536
G1 F1200 X101.527 Y23.462 E134.8872
G0 F6000 X102.092 Y23.462
G1 F1200 X82.167 Y3.536 E136.19933
G0 F6000 X82.732 Y3.536
G1 F1200 X102.658 Y23.462 E137.51149
G0 F6000 X103.224 Y23.462
G1 F1200 X83.298 Y3.536 E138.82365
G0 F6000 X83.864 Y3.536
G1 F1200 X103.789 Y23.462 E140.13578
G0 F6000 X104.355 Y23.462
G1 F1200 X84.429 Y3.536 E141.44794
G0 F6000 X84.995 Y3.536
G1 F1200 X104.921 Y23.462 E142.76011
G0 F6000 X105.486 Y23.462
G1 F1200 X85.561 Y3.536 E144.07223
G0 F6000 X86.127 Y3.536
G1 F1200 X106.052 Y23.462 E145.38436
G0 F6000 X106.618 Y23.462
G1 F1200 X86.692 Y3.536 E146.69652
G0 F6000 X87.258 Y3.536
G1 F1200 X107.183 Y23.462 E148.00865
G0 F6000 X107.749 Y23.462
G1 F1200 X87.824 Y3.536 E149.32078
G0 F6000 X88.389 Y3.536
G1 F1200 X108.315 Y23.462 E150.63294
G0 F6000 X108.881 Y23.462
G1 F1200 X88.955 Y3.536 E151.9451
G0 F6000 X89.521 Y3.536
G1 F1200 X109.446 Y23.462 E153.25723
G0 F6000 X110.012 Y23.462
G1 F1200 X90.086 Y3.536 E154.56939
G0 F6000 X90.652 Y3.536
G1 F1200 X110.578 Y23.462 E155.88155
G0 F6000 X111.143 Y23.462
G1 F1200 X91.218 Y3.536 E157.19368
G0 F6000 X91.783 Y3.536
G1 F1200 X111.709 Y23.462 E158.50584
G0 F6000 X112.275 Y23.462
G1 F1200 X92.349 Y3.536 E159.818
G0 F6000 X92.915 Y3.536
G1 F1200 X112.84 Y23.462 E161.13013
G0 F6000 X113.406 Y23.462
G1 F1200 X93.48 Y3.536 E162.44229
G0 F6000 X94.046 Y3.536
G1 F1200 X113.972 Y23.462 E163.75445
G0 F6000 X114.537 Y23.462
G1 F1200 X94.612 Y3.536 E165.06658
G0 F6000 X95.177 Y3.536
G1 F1200 X115.103 Y23.462 E166.37874
G0 F6000 X115.669 Y23.462
G1 F1200 X95.743 Y3.536 E167.6909
G0 F6000 X96.309 Y3.536
G1 F1200 X116.234 Y23.462 E169.00303
G0 F6000 X116.8 Y23.462
G1 F1200 X96.875 Y3.536 E170.31516
G0 F6000 X97.44 Y3.536
G1 F1200 X117.366 Y23.462 E171.62732
G0 F6000 X117.931 Y23.462
G1 F1200 X98.006 Y3.536 E172.93945
G0 F6000 X98.572 Y3.536
G1 F1200 X118.497 Y23.462 E174.25158
G0 F6000 X119.063 Y23.462
G1 F1200 X99.137 Y3.536 E175.56374
G0 F6000 X99.703 Y3.536
G1 F1200 X119.629 Y23.462 E176.8759
G0 F6000 X120.194 Y23.462
G1 F1200 X100.269 Y3.536 E178.18803
G0 F6000 X100.834 Y3.536
G1 F1200 X120.76 Y23.462 E179.50019
G0 F6000 X121.326 Y23.462
G1 F1200 X101.4 Y3.536 E180.81235
G0 F6000 X101.966 Y3.536
G1 F1200 X121.891 Y23.462 E182.12448
G0 F6000 X122.457 Y23.462
G1 F1200 X102.531 Y3.536 E183.43664
G0 F6000 X103.097 Y3.536
G1 F1200 X123.023 Y23.462 E184.7488
G0 F6000 X123.588 Y23.462
G1 F1200 X103.663 Y3.536 E186.06093
G0 F6000 X104.228 Y3.536
G1 F1200 X124.154 Y23.462 E187.37309
G0 F6000 X124.72 Y23.462
G1 F1200 X104.794 Y3.536 E188.68525
G0 F6000 X105.36 Y3.536
G1 F1200 X125.285 Y23.462 E189.99738
G0 F6000 X125.851 Y23.462
G1 F1200 X105.926 Y3.536 E191.30951
G0 F6000 X106.491 Y3.536
G1 F1200 X126.417 Y23.462 E192.62167
G0 F6000 X126.982 Y23.462
G1 F1200 X107.057 Y3.536 E193.9338
G0 F6000 X107.623 Y3.536
G1 F1200 X127.548 Y23.462 E195.24592
G0 F6000 X128.114 Y23.462
G1 F1200 X108.188 Y3.536 E196.55809
G0 F6000 X108.754 Y3.536
G1 F1200 X128.679 Y23.462 E197.87021
G0 F6000 X129.245 Y23.462
G1 F1200 X109.32 Y3.536 E199.18234
G0 F6000 X109.885 Y3.536
G1 F1200 X129.811 Y23.462 E200.4945
G0 F6000 X130.377 Y23.462
G1 F1200 X110.451 Y3.536 E201.80666
G0 F6000 X111.017 Y3.536
G1 F1200 X130.942 Y23.462 E203.11879
G0 F6000 X131.508 Y23.462
G1 F1200 X111.582 Y3.536 E204.43095
G0 F6000 X112.148 Y3.536
G1 F1200 X132.074 Y23.462 E205.74312
G0 F6000 X132.639 Y23.462
G1 F1200 X112.714 Y3.536 E207.05524
G0 F6000 X113.279 Y3.536
G1 F1200 X133.205 Y23.462 E208.3674
G0 F6000 X133.771 Y23.462
G1 F1200 X113.845 Y3.536 E209.67957
G0 F6000 X114.411 Y3.536
G1 F1200 X134.336 Y23.462 E210.99169
G0 F6000 X134.902 Y23.462
G1 F1200 X114.976 Y3.536 E212.30385
G0 F6000 X115.542 Y3.536
G1 F1200 X135.468 Y23.462 E213.61602
G0 F6000 X136.033 Y23.462
G1 F1200 X116.108 Y3.536 E214.92814
G0 F6000 X116.674 Y3.536
G1 F1200 X136.599 Y23.462 E216.24027
G0 F6000 X137.165 Y23.462
G1 F1200 X117.239 Y3.536 E217.55243
G0 F6000 X117.805 Y3.536
G1 F1200 X137.73 Y23.462 E218.86456
G0 F6000 X138.296 Y23.462
G1 F1200 X118.371 Y3.536 E220.17669
G0 F6000 X118.936 Y3.536
G1 F1200 X138.862 Y23.462 E221.48885
G0 F6000 X139.428 Y23.462
G1 F1200 X119.502 Y3.536 E222.80101
G0 F6000 X120.068 Y3.536
G1 F1200 X139.993 Y23.462 E224.11314
G0 F6000 X140.559 Y23.462
G1 F1200 X120.633 Y3.536 E225.4253
G0 F6000 X121.199 Y3.536
G1 F1200 X141.125 Y23.462 E226.73746
G0 F6000 X141.69 Y23.462
G1 F1200 X121.765 Y3.536 E228.04959
G0 F6000 X122.33 Y3.536
G1 F1200 X142.256 Y23.462 E229.36175
G0 F6000 X142.822 Y23.462
G1 F1200 X122.896 Y3.536 E230.67391
G0 F6000 X123.462 Y3.536
G1 F1200 X143.387 Y23.462 E231.98604
G0 F6000 X143.953 Y23.462
G1 F1200 X124.027 Y3.536 E233.2982
G0 F6000 X124.593 Y3.536
G1 F1200 X144.519 Y23.462 E234.61036
G0 F6000 X145.084 Y23.462
G1 F1200 X125.159 Y3.536 E235.92249
G0 F6000 X125.724 Y3.536
G1 F1200 X145.65 Y23.462 E237.23465
G0 F6000 X146.216 Y23.462
G1 F1200 X126.29 Y3.536 E238.54681
G0 F6000 X126.856 Y3.536
G1 F1200 X146.781 Y23.462 E239.85894
G0 F6000 X147.347 Y23.462
G1 F1200 X127.422 Y3.536 E241.17107
G0 F6000 X127.987 Y3.536
G1 F1200 X147.913 Y23.462 E242.48323
G0 F6000 X148.478 Y23.462
G1 F1200 X128.553 Y3.536 E243.79536
G0 F6000 X129.119 Y3.536
G1 F1200 X149.044 Y23.462 E245.10749
G0 F6000 X149.61 Y23.462
G1 F1200 X129.684 Y3.536 E246.41965
G0 F6000 X130.25 Y3.536
G1 F1200 X150.176 Y23.462 E247.73181
G0 F6000 X150.741 Y23.462
G1 F1200 X130.816 Y3.536 E249.04394
G0 F6000 X131.381 Y3.536
G1 F1200 X151.307 Y23.462 E250.3561
G0 F6000 X151.873 Y23.462
G1 F1200 X131.947 Y3.536 E251.66826
G0 F6000 X132.513 Y3.536
G1 F1200 X152.438 Y23.462 E252.98039
G0 F6000 X153.004 Y23.462
G1 F1200 X133.078 Y3.536 E254.29255
G0 F6000 X133.644 Y3.536
G1 F1200 X153.57 Y23.462 E255.60471
G0 F6000 X154.135 Y23.462
G1 F1200 X134.21 Y3.536 E256.91684
G0 F6000 X134.775 Y3.536
G1 F1200 X154.701 Y23.462 E258.229
G0 F6000 X155.267 Y23.462
G1 F1200 X135.341 Y3.536 E259.54116
G0 F6000 X135.907 Y3.536
G1 F1200 X155.832 Y23.462 E260.85329
G0 F6000 X156.398 Y23.462
G1 F1200 X136.473 Y3.536 E262.16542
G0 F6000 X137.038 Y3.536
G1 F1200 X156.964 Y23.462 E263.47758
G0 F6000 X157.529 Y23.462
G1 F1200 X137.604 Y3.536 E264.78971
G0 F6000 X138.17 Y3.536
G1 F1200 X158.095 Y23.462 E266.10184
G0 F6000 X158.661 Y23.462
G1 F1200 X138.735 Y3.536 E267.414
G0 F6000 X139.301 Y3.536
G1 F1200 X159.227 Y23.462 E268.72616
G0 F6000 X159.792 Y23.462
G1 F1200 X139.867 Y3.536 E270.03829
G0 F6000 X140.432 Y3.536
G1 F1200 X160.358 Y23.462 E271.35045
G0 F6000 X160.924 Y23.462
G1 F1200 X140.998 Y3.536 E272.66261
G0 F6000 X141.564 Y3.536
G1 F1200 X161.489 Y23.462 E273.97474
G0 F6000 X162.055 Y23.462
G1 F1200 X142.129 Y3.536 E275.2869
G0 F6000 X142.695 Y3.536
G1 F1200 X162.621 Y23.462 E276.59906
G0 F6000 X163.186 Y23.462
G1 F1200 X143.261 Y3.536 E277.91119
G0 F6000 X143.826 Y3.536
G1 F1200 X163.752 Y23.462 E279.22335
G0 F6000 X164.318 Y23.462
G1 F1200 X144.392 Y3.536 E280.53551
G0 F6000 X144.958 Y3.536
G1 F1200 X164.883 Y23.462 E281.84764
G0 F6000 X165.449 Y23.462
G1 F1200 X145.523 Y3.536 E283.1598
G0 F6000 X146.089 Y3.536
G1 F1200 X166.015 Y23.462 E284.47196
G0 F6000 X166.58 Y23.462
G1 F1200 X146.655 Y3.536 E285.78409
G0 F6000 X147.221 Y3.536
G1 F1200 X167.146 Y23.462 E287.09622
G0 F6000 X167.712 Y23.462
G1 F1200 X147.786 Y3.536 E288.40838
G0 F6000 X148.352 Y3.536
G1 F1200 X168.277 Y23.462 E289.72051
G0 F6000 X168.843 Y23.462
G1 F1200 X148.918 Y3.536 E291.03263
G0 F6000 X149.483 Y3.536
G1 F1200 X169.409 Y23.462 E292.34479
G0 F6000 X169.975 Y23.462
G1 F1200 X150.049 Y3.536 E293.65696
G0 F6000 X150.615 Y3.536
G1 F1200 X170.54 Y23.462 E294.96908
G0 F6000 X171.106 Y23.462
G1 F1200 X151.18 Y3.536 E296.28125
G0 F6000 X151.746 Y3.536
G1 F1200 X171.672 Y23.462 E297.59341
G0 F6000 X172.237 Y23.462
G1 F1200 X152.312 Y3.536 E298.90553
G0 F6000 X152.877 Y3.536
G1 F1200 X172.803 Y23.462 E300.2177
G0 F6000 X173.369 Y23.462
G1 F1200 X153.443 Y3.536 E301.52986
G0 F6000 X154.009 Y3.536
G1 F1200 X173.934 Y23.462 E302.84199
G0 F6000 X174.5 Y23.462
G1 F1200 X154.574 Y3.536 E304.15415
G0 F6000 X155.14 Y3.536
G1 F1200 X175.066 Y23.462 E305.46631
G0 F6000 X175.631 Y23.462
G1 F1200 X155.706 Y3.536 E306.77844
G0 F6000 X156.272 Y3.536
G1 F1200 X176.197 Y23.462 E308.09056
G0 F6000 X176.763 Y23.462
G1 F1200 X156.837 Y3.536 E309.40272
G0 F6000 X157.403 Y3.536
G1 F1200 X177.328 Y23.462 E310.71485
G0 F6000 X177.894 Y23.462
G1 F1200 X157.969 Y3.536 E312.02698
G0 F6000 X158.534 Y3.536
G1 F1200 X178.46 Y23.462 E313.33914
G0 F6000 X179.026 Y23.462
G1 F1200 X159.1 Y3.536 E314.6513
G0 F6000 X159.666 Y3.536
G1 F1200 X179.591 Y23.462 E315.96343
G0 F6000 X180.157 Y23.462
G1 F1200 X160.231 Y3.536 E317.27559
G0 F6000 X160.797 Y3.536
G1 F1200 X180.723 Y23.462 E318.58775
G0 F6000 X181.288 Y23.462
G1 F1200 X161.363 Y3.536 E319.89988
G0 F6000 X161.928 Y3.536
G1 F1200 X181.854 Y23.462 E321.21204
G0 F6000 X182.42 Y23.462
G1 F1200 X162.494 Y3.536 E322.5242
G0 F6000 X163.06 Y3.536
G1 F1200 X182.884 Y23.361 E323.82968
G0 F6000 X182.884 Y22.795
G1 F1200 X163.625 Y3.536 E325.09792
G0 F6000 X164.191 Y3.536
G1 F1200 X182.884 Y22.23 E326.32892
G0 F6000 X182.884 Y21.664
G1 F1200 X164.757 Y3.536 E327.52265
G0 F6000 X165.322 Y3.536
G1 F1200 X182.884 Y21.098 E328.67913
G0 F6000 X182.884 Y20.532
G1 F1200 X165.888 Y3.536 E329.79835
G0 F6000 X166.454 Y3.536
G1 F1200 X182.884 Y19.967 E330.88033
G0 F6000 X182.884 Y19.401
G1 F1200 X167.02 Y3.536 E331.92503
G0 F6000 X167.585 Y3.536
G1 F1200 X182.884 Y18.835 E332.93249
G0 F6000 X182.884 Y18.27
