;FLAVOR:Marlin
;TIME:642
;Filament used: 0.206509m
;Layer height: 0.2
;MINX:84.275
;MINY:104.081
;MINZ:0.28
;MAXX:150.725
;MAXY:130.918
;MAXZ:6.28
;Generated with Cura_SteamEngine 4.6.1
M140 S85
M105
M190 S85
M104 S235
M105
M109 S235
M82 ;absolute extrusion mode
; Ender 3 Custom Start G-code
G92 E0 ; Reset Extruder
G28 ; Home all axes
G1 Z2.0 F3000 ; Move Z Axis up little to prevent scratching of Heat Bed
G1 X0.1 Y20 Z0.3 F5000.0 ; Move to start position
G1 X0.1 Y200.0 Z0.3 F1500.0 E15 ; Draw the first line
G1 X0.4 Y200.0 Z0.3 F5000.0 ; Move to side a little
G1 X0.4 Y20 Z0.3 F1500.0 E30 ; Draw the second line
G92 E0 ; Reset Extruder
G1 Z2.0 F3000 ; Move Z Axis up little to prevent scratching of Heat Bed
G1 X5 Y20 Z0.3 F5000.0 ; Move over to prevent blob squish
G92 E0
G92 E0
G1 F1500 E-6.5
;LAYER_COUNT:31
;LAYER:0
M107
G0 F6000 X101.762 Y104.892 Z0.28
;TYPE:SKIRT
G1 F1500 E0
G1 F1200 X103.067 Y104.995 E0.06096
G1 X106.072 Y105.427 E0.20232
G1 X108.608 Y105.715 E0.32116
G1 X111.144 Y105.931 E0.43968
G1 X113.648 Y106.074 E0.55647
G1 X116.208 Y106.146 E0.67572
G1 X118.741 Y106.146 E0.79366
G1 X121.281 Y106.074 E0.91199
G1 X123.834 Y105.93 E1.03105
G1 X126.335 Y105.717 E1.14793
G1 X128.871 Y105.429 E1.26678
G1 X131.932 Y104.993 E1.41075
G1 X133.081 Y104.895 E1.46445
G1 X133.685 Y104.882 E1.49258
G1 X139.15 Y104.882 E1.74705
G1 X139.848 Y104.891 E1.77955
G1 X140.749 Y104.942 E1.82158
G1 X141.643 Y105.074 E1.86366
G1 X142.521 Y105.283 E1.90568
G1 X143.378 Y105.57 E1.94776
G1 X144.205 Y105.931 E1.98978
G1 X144.998 Y106.364 E2.03185
G1 X145.749 Y106.865 E2.07389
G1 X146.453 Y107.431 E2.11595
G1 X147.104 Y108.057 E2.15801
G1 X147.697 Y108.738 E2.20005
G1 X148.227 Y109.469 E2.2421
G1 X148.691 Y110.244 E2.28416
G1 X149.085 Y111.057 E2.32623
G1 X149.405 Y111.901 E2.36826
G1 X149.649 Y112.771 E2.41033
G1 X149.815 Y113.659 E2.4524
G1 X149.912 Y114.804 E2.5059
G1 X149.925 Y115.411 E2.53417
G1 X149.924 Y116.387 E2.57962
G1 X149.914 Y117.117 E2.61362
G1 X149.862 Y118.018 E2.65564
G1 X149.73 Y118.912 E2.69772
G1 X149.519 Y119.79 E2.73977
G1 X149.232 Y120.646 E2.78181
G1 X148.87 Y121.474 E2.82389
G1 X148.437 Y122.266 E2.86592
G1 X147.935 Y123.017 E2.90798
G1 X147.368 Y123.72 E2.95003
G1 X146.742 Y124.37 E2.99205
G1 X146.06 Y124.963 E3.03414
G1 X145.329 Y125.493 E3.07618
G1 X144.554 Y125.956 E3.11822
G1 X143.741 Y126.349 E3.16027
G1 X142.896 Y126.668 E3.20232
G1 X141.741 Y126.974 E3.25796
G1 X141.085 Y127.107 E3.28913
G1 X138.592 Y127.646 E3.40789
G1 X136.096 Y128.261 E3.52759
G1 X133.651 Y128.936 E3.6457
G1 X131.27 Y129.664 E3.76164
G1 X130.395 Y129.89 E3.80372
G1 X129.504 Y130.037 E3.84577
G1 X128.555 Y130.106 E3.89007
G1 X127.983 Y130.118 E3.91672
G1 X107.266 Y130.118 E4.88139
G1 X106.566 Y130.108 E4.91398
G1 X105.665 Y130.055 E4.95601
G1 X104.771 Y129.923 E4.99809
G1 X103.742 Y129.667 E5.04747
G1 X102.487 Y129.285 E5.10855
G1 X99.984 Y128.557 E5.22993
G1 X97.486 Y127.907 E5.35012
G1 X95.021 Y127.338 E5.46792
G1 X93.955 Y127.125 E5.51854
G1 X93.134 Y126.948 E5.55765
G1 X92.261 Y126.719 E5.59967
G1 X91.411 Y126.413 E5.64174
G1 X90.592 Y126.034 E5.68376
G1 X89.809 Y125.583 E5.72584
G1 X89.069 Y125.065 E5.7679
G1 X88.378 Y124.484 E5.80993
G1 X87.741 Y123.843 E5.85201
G1 X87.163 Y123.149 E5.89407
G1 X86.649 Y122.407 E5.9361
G1 X86.203 Y121.622 E5.97814
G1 X85.828 Y120.8 E6.02021
G1 X85.526 Y119.949 E6.06226
G1 X85.302 Y119.074 E6.10432
G1 X85.156 Y118.183 E6.14636
G1 X85.088 Y117.253 E6.18978
G1 X85.075 Y116.644 E6.21814
G1 X85.076 Y115.602 E6.26666
G1 X85.086 Y114.937 E6.29763
G1 X85.14 Y114.035 E6.33971
G1 X85.273 Y113.142 E6.38175
G1 X85.484 Y112.264 E6.42379
G1 X85.773 Y111.408 E6.46586
G1 X86.136 Y110.581 E6.50792
G1 X86.57 Y109.79 E6.54993
G1 X87.073 Y109.039 E6.59202
G1 X87.641 Y108.337 E6.63407
G1 X88.268 Y107.687 E6.67612
G1 X88.95 Y107.095 E6.71817
G1 X89.682 Y106.566 E6.76023
G1 X90.458 Y106.104 E6.80228
G1 X91.272 Y105.713 E6.84433
G1 X92.117 Y105.394 E6.88639
G1 X92.987 Y105.152 E6.92844
G1 X93.875 Y104.988 E6.97048
G1 X94.998 Y104.894 E7.02296
G1 X95.605 Y104.881 E7.05123
G1 X101.064 Y104.882 E7.30542
G1 X101.762 Y104.892 E7.33793
G0 F6000 X101.768 Y104.492
G1 F1200 X103.124 Y104.599 E7.40127
G1 X106.141 Y105.033 E7.5432
G1 X108.615 Y105.313 E7.65913
G1 X111.165 Y105.531 E7.7783
G1 X113.683 Y105.674 E7.89574
G1 X116.219 Y105.746 E8.01387
G1 X118.729 Y105.746 E8.13075
G1 X121.285 Y105.674 E8.24982
G1 X123.777 Y105.533 E8.36604
G1 X126.328 Y105.316 E8.48525
G1 X128.806 Y105.035 E8.60138
G1 X131.876 Y104.597 E8.74578
G1 X133.069 Y104.495 E8.80153
G1 X133.685 Y104.482 E8.83022
G1 X139.155 Y104.482 E9.08493
G1 X139.853 Y104.491 E9.11743
G1 X140.772 Y104.543 E9.16029
G1 X141.683 Y104.674 E9.20315
G1 X142.579 Y104.884 E9.246
G1 X143.454 Y105.171 E9.28888
G1 X144.301 Y105.533 E9.33177
G1 X145.113 Y105.967 E9.37464
G1 X145.884 Y106.469 E9.41748
G1 X146.609 Y107.037 E9.46037
G1 X147.282 Y107.666 E9.50326
G1 X147.897 Y108.35 E9.5461
G1 X148.451 Y109.085 E9.58895
G1 X148.939 Y109.866 E9.63184
G1 X149.358 Y110.686 E9.67471
G1 X149.704 Y111.539 E9.71758
G1 X149.974 Y112.419 E9.76044
G1 X150.167 Y113.32 E9.80334
G1 X150.281 Y114.233 E9.84619
G1 X150.312 Y114.793 E9.8723
G1 X150.325 Y115.411 E9.90109
G1 X150.324 Y116.392 E9.94677
G1 X150.314 Y117.122 E9.98076
G1 X150.261 Y118.041 E10.02362
G1 X150.129 Y118.952 E10.06649
G1 X149.919 Y119.849 E10.10939
G1 X149.631 Y120.723 E10.15223
G1 X149.268 Y121.57 E10.19514
G1 X148.834 Y122.381 E10.23798
G1 X148.331 Y123.152 E10.28084
G1 X147.762 Y123.876 E10.32372
G1 X147.133 Y124.549 E10.36661
G1 X146.448 Y125.164 E10.40948
G1 X145.712 Y125.717 E10.45235
G1 X144.931 Y126.205 E10.49523
G1 X144.111 Y126.622 E10.53806
G1 X143.258 Y126.968 E10.58093
G1 X142.377 Y127.237 E10.62382
G1 X141.82 Y127.366 E10.65044
G1 X141.17 Y127.498 E10.68133
G1 X138.674 Y128.038 E10.80024
G1 X136.226 Y128.64 E10.91762
G1 X133.76 Y129.322 E11.03676
G1 X131.387 Y130.047 E11.1523
G1 X130.496 Y130.278 E11.19516
G1 X129.588 Y130.43 E11.23803
G1 X128.566 Y130.506 E11.28575
G1 X127.984 Y130.518 E11.31286
G1 X107.261 Y130.518 E12.27781
G1 X106.561 Y130.508 E12.3104
G1 X105.641 Y130.455 E12.35331
G1 X104.73 Y130.322 E12.39618
G1 X103.625 Y130.05 E12.44917
G1 X102.337 Y129.658 E12.51186
G1 X99.877 Y128.942 E12.63117
G1 X97.401 Y128.299 E12.75028
G1 X94.951 Y127.733 E12.86737
G1 X93.871 Y127.516 E12.91866
G1 X93.05 Y127.339 E12.95777
G1 X92.159 Y127.106 E13.00066
G1 X91.292 Y126.797 E13.04351
G1 X90.455 Y126.413 E13.08639
G1 X89.655 Y125.959 E13.12923
G1 X88.897 Y125.436 E13.17211
G1 X88.187 Y124.85 E13.21497
G1 X87.53 Y124.205 E13.25785
G1 X86.932 Y123.505 E13.30072
G1 X86.397 Y122.755 E13.34361
G1 X85.929 Y121.962 E13.38649
G1 X85.532 Y121.132 E13.42933
G1 X85.208 Y120.27 E13.47221
G1 X84.961 Y119.383 E13.51508
G1 X84.791 Y118.478 E13.55796
G1 X84.688 Y117.263 E13.61474
G1 X84.675 Y116.644 E13.64357
G1 X84.676 Y115.596 E13.69237
G1 X84.686 Y114.931 E13.72334
G1 X84.74 Y114.012 E13.7662
G1 X84.873 Y113.101 E13.80907
G1 X85.085 Y112.205 E13.85195
G1 X85.374 Y111.33 E13.89486
G1 X85.738 Y110.485 E13.9377
G1 X86.173 Y109.674 E13.98055
G1 X86.678 Y108.903 E14.02347
G1 X87.247 Y108.18 E14.06631
G1 X87.877 Y107.508 E14.1092
G1 X88.563 Y106.894 E14.15207
G1 X89.299 Y106.342 E14.19491
G1 X90.081 Y105.855 E14.23781
G1 X90.902 Y105.439 E14.28066
G1 X91.756 Y105.095 E14.32353
G1 X92.636 Y104.826 E14.36638
G1 X93.537 Y104.635 E14.40927
G1 X94.451 Y104.523 E14.45215
G1 X94.987 Y104.494 E14.47714
G1 X95.605 Y104.481 E14.50592
G1 X101.07 Y104.482 E14.7604
G1 X101.768 Y104.492 E14.7929
G0 F6000 X101.774 Y104.092
G1 F1200 X102.71 Y104.146 E14.83656
G1 X103.181 Y104.203 E14.85865
G1 X106.177 Y104.634 E14.99959
G1 X108.693 Y104.919 E15.1175
G1 X111.185 Y105.132 E15.23396
G1 X113.683 Y105.274 E15.35046
G1 X116.23 Y105.346 E15.46911
G1 X118.718 Y105.346 E15.58496
G1 X121.25 Y105.274 E15.70291
G1 X123.79 Y105.131 E15.82137
G1 X126.25 Y104.922 E15.93633
G1 X128.771 Y104.636 E16.05447
G1 X131.819 Y104.201 E16.19784
G1 X133.058 Y104.095 E16.25574
G1 X133.685 Y104.082 E16.28494
G1 X139.16 Y104.082 E16.53988
G1 X139.858 Y104.091 E16.57239
G1 X140.794 Y104.143 E16.61604
G1 X141.723 Y104.275 E16.65973
G1 X142.637 Y104.485 E16.7034
G1 X143.53 Y104.772 E16.74708
G1 X144.395 Y105.135 E16.79076
G1 X145.226 Y105.569 E16.83441
G1 X146.017 Y106.073 E16.87809
G1 X146.762 Y106.643 E16.92177
G1 X147.456 Y107.274 E16.96544
G1 X148.093 Y107.961 E17.00907
G1 X148.67 Y108.701 E17.05276
G1 X149.182 Y109.487 E17.09644
G1 X149.625 Y110.314 E17.14013
G1 X149.996 Y111.175 E17.18378
G1 X150.292 Y112.065 E17.22745
G1 X150.511 Y112.977 E17.27113
G1 X150.652 Y113.904 E17.31479
G1 X150.712 Y114.782 E17.35577
G1 X150.725 Y115.411 E17.38506
G1 X150.724 Y116.398 E17.43102
G1 X150.714 Y117.128 E17.46502
G1 X150.661 Y118.064 E17.50867
G1 X150.529 Y118.993 E17.55236
G1 X150.318 Y119.906 E17.596
G1 X150.03 Y120.799 E17.63969
G1 X149.667 Y121.664 E17.68337
G1 X149.231 Y122.494 E17.72703
G1 X148.727 Y123.285 E17.7707
G1 X148.157 Y124.03 E17.81438
G1 X147.525 Y124.723 E17.85805
G1 X146.837 Y125.36 E17.90171
G1 X146.097 Y125.936 E17.94538
G1 X145.311 Y126.447 E17.98903
G1 X144.483 Y126.89 E18.03276
G1 X143.622 Y127.26 E18.07639
G1 X142.732 Y127.555 E18.12005
G1 X141.9 Y127.758 E18.15993
G1 X141.256 Y127.889 E18.19053
G1 X138.741 Y128.433 E18.31035
G1 X136.355 Y129.02 E18.42476
G1 X133.844 Y129.714 E18.54607
G1 X131.504 Y130.429 E18.66
G1 X130.596 Y130.665 E18.70369
G1 X129.671 Y130.823 E18.74739
G1 X128.576 Y130.906 E18.79852
G1 X127.984 Y130.918 E18.82609
G1 X107.255 Y130.918 E19.79132
G1 X106.555 Y130.908 E19.82392
G1 X105.619 Y130.855 E19.86757
G1 X104.69 Y130.722 E19.91127
G1 X103.509 Y130.432 E19.9679
G1 X102.261 Y130.052 E20.02864
G1 X99.77 Y129.328 E20.14943
G1 X97.325 Y128.692 E20.26707
G1 X94.848 Y128.12 E20.38545
G1 X93.787 Y127.907 E20.43584
G1 X92.966 Y127.73 E20.47495
G1 X92.058 Y127.493 E20.51864
G1 X91.174 Y127.18 E20.56231
G1 X90.32 Y126.793 E20.60597
G1 X89.502 Y126.335 E20.64962
G1 X88.726 Y125.808 E20.6933
G1 X87.997 Y125.217 E20.737
G1 X87.322 Y124.567 E20.78063
G1 X86.704 Y123.861 E20.82432
G1 X86.149 Y123.105 E20.86799
G1 X85.66 Y122.305 E20.91165
G1 X85.241 Y121.465 E20.95536
G1 X84.896 Y120.594 E20.99899
G1 X84.625 Y119.696 E21.04266
G1 X84.432 Y118.778 E21.08634
G1 X84.318 Y117.847 E21.13002
G1 X84.288 Y117.274 E21.15674
G1 X84.275 Y116.644 E21.18608
G1 X84.276 Y115.59 E21.23516
G1 X84.286 Y114.925 E21.26613
G1 X84.34 Y113.988 E21.30983
G1 X84.474 Y113.06 E21.35349
G1 X84.686 Y112.146 E21.39718
G1 X84.975 Y111.254 E21.44084
G1 X85.34 Y110.39 E21.48451
G1 X85.776 Y109.56 E21.52817
G1 X86.282 Y108.77 E21.57185
G1 X86.853 Y108.026 E21.61552
G1 X87.485 Y107.333 E21.6592
G1 X88.174 Y106.697 E21.70286
G1 X88.915 Y106.122 E21.74653
G1 X89.702 Y105.612 E21.7902
G1 X90.53 Y105.171 E21.83388
G1 X91.392 Y104.802 E21.87754
G1 X92.283 Y104.508 E21.92123
G1 X93.195 Y104.29 E21.9649
G1 X94.122 Y104.152 E22.00854
G1 X94.976 Y104.094 E22.04839
G1 X95.605 Y104.081 E22.07769
G1 X101.076 Y104.082 E22.33244
G1 X101.774 Y104.092 E22.36495
G1 F1500 E15.86495
;MESH:PictureFrameWallMount.STL
G0 F6000 X106.882 Y117.351
G0 X106.592 Y118.433
G0 X128.502 Y118.786
G0 X133.581 Y115.853
G0 X138.943 Y115.863
G0 X138.943 Y116.204
G0 X133.746 Y116.213
G0 X128.136 Y119.319
;TYPE:WALL-INNER
G1 F1500 E22.36495
G1 F1200 X106.864 Y119.319 E23.35546
G1 X101.786 Y116.386 E23.62852
G1 X95.875 Y116.386 E23.90376
G1 X95.875 Y115.681 E23.93659
G1 X101.466 Y115.681 E24.19693
G1 X106.544 Y118.614 E24.46999
G1 X128.456 Y118.614 E25.49031
G1 X133.534 Y115.681 E25.76337
G1 X139.125 Y115.681 E26.02371
G1 X139.125 Y116.386 E26.05653
G1 X133.214 Y116.386 E26.33178
G1 X128.136 Y119.319 E26.60484
G0 F6000 X128.242 Y119.719
;TYPE:WALL-OUTER
G1 F1200 X106.758 Y119.719 E27.60522
G1 X101.679 Y116.786 E27.87832
G1 X95.475 Y116.786 E28.16721
G1 X95.475 Y115.281 E28.23729
G1 X101.572 Y115.281 E28.52119
G1 X106.651 Y118.214 E28.79429
G1 X128.349 Y118.214 E29.80464
G1 X133.428 Y115.281 E30.07774
G1 X139.525 Y115.281 E30.36164
G1 X139.525 Y116.786 E30.43172
G1 X133.321 Y116.786 E30.7206
G1 X128.242 Y119.719 E30.9937
G0 F6000 X128.129 Y119.294
G0 X133.257 Y116.548
G0 X138.853 Y116.276
G0 X138.853 Y116.226
;TYPE:SKIN
G1 F1200 X138.468 Y115.841 E31.01906
G0 F6000 X138.288 Y116.226
G1 F1200 X137.902 Y115.841 E31.04444
G0 F6000 X137.722 Y116.226
G1 F1200 X137.337 Y115.841 E31.0698
G0 F6000 X137.156 Y116.226
G1 F1200 X136.771 Y115.841 E31.09515
G0 F6000 X136.591 Y116.226
G1 F1200 X136.205 Y115.841 E31.12054
G0 F6000 X136.025 Y116.226
G1 F1200 X135.64 Y115.841 E31.14589
G0 F6000 X135.459 Y116.226
G1 F1200 X135.074 Y115.841 E31.17124
G0 F6000 X134.894 Y116.226
G1 F1200 X134.508 Y115.841 E31.19663
G0 F6000 X134.328 Y116.226
G1 F1200 X133.942 Y115.841 E31.22201
G0 F6000 X133.762 Y116.226
G1 F1200 X133.45 Y115.913 E31.24259
G0 F6000 X133.196 Y116.226
G1 F1200 X133.091 Y116.121 E31.24951
G0 F6000 X132.828 Y116.423
G1 F1200 X132.733 Y116.328 E31.25576
G0 F6000 X132.469 Y116.63
G1 F1200 X132.374 Y116.535 E31.26202
G0 F6000 X132.11 Y116.837
G1 F1200 X132.016 Y116.742 E31.26824
G0 F6000 X131.752 Y117.044
G1 F1200 X131.657 Y116.949 E31.2745
G0 F6000 X131.393 Y117.251
G1 F1200 X131.299 Y117.156 E31.28072
G0 F6000 X131.035 Y117.458
G1 F1200 X130.94 Y117.364 E31.28694
G0 F6000 X130.676 Y117.666
G1 F1200 X130.582 Y117.571 E31.29317
G0 F6000 X130.318 Y117.873
G1 F1200 X130.222 Y117.777 E31.29949
G0 F6000 X129.959 Y118.08
G1 F1200 X129.864 Y117.985 E31.30574
G0 F6000 X129.601 Y118.287
G1 F1200 X129.505 Y118.192 E31.31203
G0 F6000 X129.242 Y118.494
G1 F1200 X129.147 Y118.399 E31.31829
G0 F6000 X128.884 Y118.702
G1 F1200 X128.788 Y118.606 E31.32461
G0 F6000 X128.525 Y118.909
G1 F1200 X128.39 Y118.774 E31.3335
G0 F6000 X128.167 Y119.116
G1 F1200 X127.825 Y118.774 E31.35602
G0 F6000 X127.644 Y119.158
G1 F1200 X127.259 Y118.774 E31.38134
G0 F6000 X127.078 Y119.158
G1 F1200 X126.693 Y118.774 E31.40666
G0 F6000 X126.512 Y119.158
G1 F1200 X126.128 Y118.774 E31.43195
G0 F6000 X125.947 Y119.158
G1 F1200 X125.562 Y118.774 E31.45727
G0 F6000 X125.381 Y119.158
G1 F1200 X124.996 Y118.774 E31.48259
G0 F6000 X124.815 Y119.158
G1 F1200 X124.43 Y118.774 E31.50791
G0 F6000 X124.249 Y119.158
G1 F1200 X123.865 Y118.774 E31.5332
G0 F6000 X123.684 Y119.158
G1 F1200 X123.299 Y118.774 E31.55852
G0 F6000 X123.118 Y119.158
G1 F1200 X122.733 Y118.774 E31.58384
G0 F6000 X122.552 Y119.158
G1 F1200 X122.168 Y118.774 E31.60912
G0 F6000 X121.987 Y119.158
G1 F1200 X121.602 Y118.774 E31.63444
G0 F6000 X121.421 Y119.158
G1 F1200 X121.036 Y118.774 E31.65976
G0 F6000 X120.855 Y119.158
G1 F1200 X120.471 Y118.774 E31.68505
G0 F6000 X120.29 Y119.158
G1 F1200 X119.905 Y118.774 E31.71037
G0 F6000 X119.724 Y119.158
G1 F1200 X119.339 Y118.774 E31.73569
G0 F6000 X119.158 Y119.158
G1 F1200 X118.774 Y118.774 E31.76098
G0 F6000 X118.593 Y119.158
G1 F1200 X118.208 Y118.774 E31.7863
G0 F6000 X118.027 Y119.158
G1 F1200 X117.642 Y118.774 E31.81162
G0 F6000 X117.461 Y119.158
G1 F1200 X117.077 Y118.774 E31.8369
G0 F6000 X116.896 Y119.158
G1 F1200 X116.511 Y118.774 E31.86222
G0 F6000 X116.33 Y119.158
G1 F1200 X115.945 Y118.774 E31.88754
G0 F6000 X115.764 Y119.158
G1 F1200 X115.38 Y118.774 E31.91283
G0 F6000 X115.199 Y119.158
G1 F1200 X114.814 Y118.774 E31.93815
G0 F6000 X114.633 Y119.158
G1 F1200 X114.248 Y118.774 E31.96347
G0 F6000 X114.067 Y119.158
G1 F1200 X113.682 Y118.774 E31.98879
G0 F6000 X113.501 Y119.158
G1 F1200 X113.117 Y118.774 E32.01408
G0 F6000 X112.936 Y119.158
G1 F1200 X112.551 Y118.774 E32.0394
G0 F6000 X112.37 Y119.158
G1 F1200 X111.985 Y118.774 E32.06472
G0 F6000 X111.804 Y119.158
G1 F1200 X111.42 Y118.774 E32.09001
G0 F6000 X111.239 Y119.158
G1 F1200 X110.854 Y118.774 E32.11533
G0 F6000 X110.673 Y119.158
G1 F1200 X110.288 Y118.774 E32.14065
G0 F6000 X110.107 Y119.158
G1 F1200 X109.723 Y118.774 E32.16593
G0 F6000 X109.542 Y119.158
G1 F1200 X109.157 Y118.774 E32.19125
G0 F6000 X108.976 Y119.158
G1 F1200 X108.591 Y118.774 E32.21657
G0 F6000 X108.41 Y119.158
G1 F1200 X108.026 Y118.774 E32.24186
G0 F6000 X107.845 Y119.158
G1 F1200 X107.46 Y118.774 E32.26718
