;FLAVOR:Marlin
;TIME:1977
;Filament used: 1.0601m
;Layer height: 0.2
;MINX:83.314
;MINY:80.617
;MINZ:0.2
;MAXX:136.685
;MAXY:123.493
;MAXZ:15.8
;Generated with Cura_SteamEngine 4.8.0
M140 S80
M105
M190 S80
M104 S235
M105
M109 S235
M82 ;absolute extrusion mode
; Ender 3 Custom Start G-code
G92 E0 ; Reset Extruder
G28 ; Home all axes
G1 Z2.0 F3000 ; Move Z Axis up little to prevent scratching of Heat Bed
G1 X0.1 Y20 Z0.3 F5000.0 ; Move to start position
G1 X0.1 Y200.0 Z0.3 F1500.0 E15 ; Draw the first line
G1 X0.4 Y200.0 Z0.3 F5000.0 ; Move to side a little
G1 X0.4 Y20 Z0.3 F1500.0 E30 ; Draw the second line
G92 E0 ; Reset Extruder
G1 Z2.0 F3000 ; Move Z Axis up little to prevent scratching of Heat Bed
G1 X5 Y20 Z0.3 F5000.0 ; Move over to prevent blob squish
G92 E0
G92 E0
G1 F1500 E-6.5
;LAYER_COUNT:79
;LAYER:0
M107
G0 F6000 X89.757 Y84.913 Z0.2
;TYPE:SKIRT
G1 F1500 E0
G1 F1200 X89.885 Y84.789 E0.00593
G1 X90.329 Y84.382 E0.02596
G1 X90.662 Y84.093 E0.04063
G1 X91.76 Y83.255 E0.08657
G1 X91.971 Y83.114 E0.09501
G1 X92.305 Y82.9 E0.1082
G1 X92.676 Y82.671 E0.1227
G1 X93.495 Y82.212 E0.15393
G1 X94.001 Y81.973 E0.17254
G1 X94.263 Y81.857 E0.18207
G1 X94.601 Y81.714 E0.19428
G1 X94.839 Y81.618 E0.20281
G1 X95.723 Y81.304 E0.23401
G1 X96.344 Y81.133 E0.25544
G1 X97.036 Y80.964 E0.27913
G1 X97.489 Y80.864 E0.29456
G1 X97.599 Y80.842 E0.29829
G1 X98.525 Y80.697 E0.32946
G1 X99.359 Y80.635 E0.35728
G1 X99.636 Y80.625 E0.3665
G1 X100.032 Y80.618 E0.37967
G1 X119.597 Y80.617 E1.03041
G1 X120.434 Y80.628 E1.05825
G1 X121.371 Y80.682 E1.08946
G1 X122.605 Y80.878 E1.13102
G1 X123.13 Y80.992 E1.14889
G1 X124.069 Y81.239 E1.18118
G1 X124.377 Y81.335 E1.19191
G1 X125.521 Y81.763 E1.23254
G1 X125.838 Y81.902 E1.24405
G1 X126.255 Y82.095 E1.25933
G1 X126.441 Y82.186 E1.26622
G1 X127.445 Y82.744 E1.30443
G1 X127.659 Y82.878 E1.31282
G1 X127.867 Y83.012 E1.32105
G1 X128.174 Y83.214 E1.33328
G1 X128.935 Y83.762 E1.36447
G1 X129.343 Y84.099 E1.38207
G1 X129.526 Y84.258 E1.39013
G1 X129.793 Y84.498 E1.40207
G1 X130.084 Y84.768 E1.41527
G1 X131.042 Y85.778 E1.46158
G1 X131.215 Y85.985 E1.47055
G1 X131.474 Y86.306 E1.48427
G1 X131.748 Y86.66 E1.49916
G1 X132.329 Y87.487 E1.53277
G1 X132.638 Y87.998 E1.55263
G1 X132.756 Y88.206 E1.56059
G1 X132.98 Y88.618 E1.57618
G1 X133.324 Y89.321 E1.60221
G1 X133.445 Y89.592 E1.61209
G1 X133.749 Y90.345 E1.63909
G1 X133.793 Y90.467 E1.64341
G1 X133.912 Y90.816 E1.65567
G1 X134.04 Y91.212 E1.66951
G1 X134.342 Y92.354 E1.7088
G1 X134.383 Y92.551 E1.7155
G1 X134.476 Y93.058 E1.73264
G1 X134.544 Y93.484 E1.74699
G1 X134.653 Y94.419 E1.7783
G1 X134.679 Y94.772 E1.79007
G1 X134.907 Y97.371 E1.87684
G1 X135.2 Y99.877 E1.96076
G1 X135.557 Y102.327 E2.04311
G1 X136.243 Y106.106 E2.17085
G1 X136.456 Y107.158 E2.20655
G1 X136.603 Y108.084 E2.23774
G1 X136.669 Y108.988 E2.26789
G1 X136.679 Y109.299 E2.27824
G1 X136.685 Y109.648 E2.28984
G1 X136.685 Y111.924 E2.36554
G1 X136.675 Y112.648 E2.38963
G1 X136.622 Y113.584 E2.42081
G1 X136.49 Y114.513 E2.45202
G1 X136.278 Y115.427 E2.48322
G1 X135.99 Y116.319 E2.5144
G1 X135.627 Y117.184 E2.5456
G1 X135.192 Y118.014 E2.57677
G1 X134.687 Y118.805 E2.60798
G1 X134.117 Y119.55 E2.63918
G1 X133.485 Y120.243 E2.67038
G1 X132.797 Y120.88 E2.70156
G1 X132.057 Y121.456 E2.73275
G1 X131.27 Y121.967 E2.76396
G1 X130.443 Y122.409 E2.79515
G1 X129.582 Y122.779 E2.82632
G1 X128.691 Y123.075 E2.85755
G1 X127.779 Y123.293 E2.88873
G1 X126.852 Y123.433 E2.91992
G1 X125.916 Y123.493 E2.95111
G1 X124.978 Y123.474 E2.98231
G1 X124.135 Y123.388 E3.0105
G1 X122.787 Y123.196 E3.05579
G1 X122.299 Y123.121 E3.07221
G1 X119.841 Y122.813 E3.1546
G1 X117.286 Y122.565 E3.23998
G1 X114.801 Y122.395 E3.32282
G1 X112.282 Y122.294 E3.40667
G1 X109.758 Y122.265 E3.49063
G1 X107.271 Y122.306 E3.57336
G1 X104.713 Y122.421 E3.65852
G1 X102.254 Y122.601 E3.74053
G1 X99.731 Y122.858 E3.82488
G1 X96.344 Y123.315 E3.93855
G1 X96.015 Y123.366 E3.94962
G1 X95.083 Y123.47 E3.98081
G1 X94.146 Y123.493 E4.01199
G1 X93.209 Y123.437 E4.04321
G1 X92.281 Y123.302 E4.0744
G1 X91.368 Y123.087 E4.1056
G1 X90.477 Y122.796 E4.13677
G1 X89.613 Y122.43 E4.16798
G1 X88.784 Y121.992 E4.19916
G1 X87.995 Y121.484 E4.23038
G1 X87.253 Y120.912 E4.26154
G1 X86.561 Y120.278 E4.29275
G1 X85.927 Y119.587 E4.32394
G1 X85.353 Y118.845 E4.35514
G1 X84.845 Y118.057 E4.38633
G1 X84.406 Y117.229 E4.4175
G1 X84.038 Y116.366 E4.4487
G1 X83.746 Y115.474 E4.47992
G1 X83.531 Y114.562 E4.51108
G1 X83.394 Y113.634 E4.54228
G1 X83.337 Y112.722 E4.57268
G1 X83.316 Y111.703 E4.60658
G1 X83.314 Y111.476 E4.61413
G1 X83.315 Y109.883 E4.66711
G1 X83.326 Y109.177 E4.69059
G1 X83.381 Y108.24 E4.72181
G1 X83.502 Y107.38 E4.7507
G1 X83.558 Y107.086 E4.76065
G1 X84.064 Y104.565 E4.84617
G1 X84.484 Y102.107 E4.92911
G1 X84.838 Y99.612 E5.01293
G1 X85.122 Y97.106 E5.09681
G1 X85.349 Y94.428 E5.1862
G1 X85.458 Y93.486 E5.21774
G1 X85.51 Y93.161 E5.22869
G1 X85.557 Y92.892 E5.23777
G1 X85.616 Y92.574 E5.24853
G1 X85.91 Y91.369 E5.28978
G1 X85.968 Y91.179 E5.29639
G1 X86.139 Y90.667 E5.31434
G1 X86.302 Y90.214 E5.33036
G1 X86.657 Y89.346 E5.36155
G1 X86.912 Y88.826 E5.38081
G1 X87.028 Y88.605 E5.38911
G1 X87.188 Y88.311 E5.40024
G1 X87.368 Y87.992 E5.41243
G1 X87.863 Y87.196 E5.4436
G1 X88.241 Y86.675 E5.46501
G1 X88.546 Y86.28 E5.48161
G1 X88.814 Y85.948 E5.4958
G1 X88.972 Y85.759 E5.50399
G1 X89.757 Y84.913 E5.54238
G0 F6000 X90.036 Y85.201
G1 F1200 X90.164 Y85.077 E5.54831
G1 X90.591 Y84.684 E5.56761
G1 X90.924 Y84.395 E5.58227
G1 X91.983 Y83.588 E5.62656
G1 X92.194 Y83.447 E5.635
G1 X92.515 Y83.24 E5.6477
G1 X92.886 Y83.011 E5.6622
G1 X93.69 Y82.562 E5.69283
G1 X94.163 Y82.339 E5.71022
G1 X94.425 Y82.223 E5.71975
G1 X94.751 Y82.085 E5.73153
G1 X94.989 Y81.989 E5.74006
G1 X95.857 Y81.682 E5.77069
G1 X96.439 Y81.522 E5.79076
G1 X97.131 Y81.353 E5.81445
G1 X97.567 Y81.256 E5.82931
G1 X97.677 Y81.234 E5.83304
G1 X98.587 Y81.093 E5.86367
G1 X99.374 Y81.035 E5.88992
G1 X99.651 Y81.025 E5.89914
G1 X100.032 Y81.018 E5.91181
G1 X119.597 Y81.017 E6.56254
G1 X120.428 Y81.028 E6.59019
G1 X121.348 Y81.082 E6.62084
G1 X122.52 Y81.268 E6.66031
G1 X123.045 Y81.382 E6.67818
G1 X123.95 Y81.621 E6.70931
G1 X124.258 Y81.717 E6.72004
G1 X125.361 Y82.129 E6.7592
G1 X125.678 Y82.268 E6.77071
G1 X126.079 Y82.454 E6.78541
G1 X126.265 Y82.545 E6.7923
G1 X127.233 Y83.083 E6.82914
G1 X127.447 Y83.217 E6.83753
G1 X127.954 Y83.548 E6.85767
G1 X128.701 Y84.087 E6.88831
G1 X129.08 Y84.401 E6.90468
G1 X129.263 Y84.56 E6.91274
G1 X129.521 Y84.792 E6.92428
G1 X129.812 Y85.062 E6.93749
G1 X130.735 Y86.034 E6.98207
G1 X130.908 Y86.241 E6.99104
G1 X131.157 Y86.551 E7.00427
G1 X131.431 Y86.905 E7.01915
G1 X131.992 Y87.702 E7.05157
G1 X132.29 Y88.196 E7.07076
G1 X132.408 Y88.404 E7.07871
G1 X132.535 Y88.634 E7.08745
G1 X132.627 Y88.806 E7.09394
G1 X132.959 Y89.484 E7.11905
G1 X133.08 Y89.755 E7.12892
G1 X133.372 Y90.481 E7.15495
G1 X133.416 Y90.603 E7.15926
G1 X133.531 Y90.939 E7.17107
G1 X133.659 Y91.335 E7.18491
G1 X133.951 Y92.435 E7.22277
G1 X133.992 Y92.632 E7.22946
G1 X134.081 Y93.121 E7.24599
G1 X134.149 Y93.547 E7.26034
G1 X134.254 Y94.448 E7.29051
G1 X134.282 Y94.835 E7.30342
G1 X134.509 Y97.416 E7.38959
G1 X134.801 Y99.914 E7.47324
G1 X135.159 Y102.372 E7.55586
G1 X135.854 Y106.198 E7.68519
G1 X136.064 Y107.237 E7.72045
G1 X136.207 Y108.147 E7.75109
G1 X136.27 Y109.001 E7.77957
G1 X136.28 Y109.312 E7.78992
G1 X136.285 Y109.648 E7.80109
G1 X136.285 Y111.918 E7.87659
G1 X136.275 Y112.642 E7.90068
G1 X136.222 Y113.562 E7.93133
G1 X136.09 Y114.473 E7.96194
G1 X135.879 Y115.369 E7.99256
G1 X135.592 Y116.243 E8.02316
G1 X135.229 Y117.09 E8.05381
G1 X134.794 Y117.901 E8.08441
G1 X134.291 Y118.672 E8.11503
G1 X133.722 Y119.396 E8.14566
G1 X133.093 Y120.068 E8.17627
G1 X132.408 Y120.684 E8.20691
G1 X131.672 Y121.237 E8.23753
G1 X130.891 Y121.724 E8.26815
G1 X130.071 Y122.142 E8.29876
G1 X129.217 Y122.487 E8.32939
G1 X128.337 Y122.757 E8.36001
G1 X127.437 Y122.949 E8.39062
G1 X126.523 Y123.062 E8.42125
G1 X125.603 Y123.096 E8.45187
G1 X124.684 Y123.049 E8.48247
G1 X124.191 Y122.992 E8.49898
G1 X122.848 Y122.801 E8.5441
G1 X122.373 Y122.728 E8.56008
G1 X119.862 Y122.413 E8.64425
G1 X117.315 Y122.166 E8.72936
G1 X114.845 Y121.997 E8.81171
G1 X112.267 Y121.894 E8.89752
G1 X109.791 Y121.865 E8.97988
G1 X107.211 Y121.908 E9.0657
G1 X104.737 Y122.019 E9.14807
G1 X102.186 Y122.206 E9.23315
G1 X99.694 Y122.46 E9.31646
G1 X96.286 Y122.92 E9.43084
G1 X95.954 Y122.971 E9.44201
G1 X95.039 Y123.072 E9.47263
G1 X94.119 Y123.093 E9.50323
G1 X93.2 Y123.034 E9.53386
G1 X92.29 Y122.896 E9.56448
G1 X91.395 Y122.679 E9.59511
G1 X90.522 Y122.386 E9.62573
G1 X89.678 Y122.017 E9.65637
G1 X88.87 Y121.577 E9.68697
G1 X88.102 Y121.069 E9.7176
G1 X87.382 Y120.496 E9.7482
G1 X86.714 Y119.862 E9.77884
G1 X86.103 Y119.173 E9.80946
G1 X85.555 Y118.434 E9.84006
G1 X85.073 Y117.649 E9.8707
G1 X84.66 Y116.826 E9.90133
G1 X84.321 Y115.97 E9.93195
G1 X84.057 Y115.088 E9.96257
G1 X83.871 Y114.187 E9.99317
G1 X83.764 Y113.272 E10.02381
G1 X83.737 Y112.713 E10.04243
G1 X83.716 Y111.694 E10.07632
G1 X83.714 Y111.476 E10.08358
G1 X83.715 Y109.889 E10.13636
G1 X83.726 Y109.183 E10.15984
G1 X83.781 Y108.264 E10.19047
G1 X83.896 Y107.452 E10.21774
G1 X83.95 Y107.164 E10.22749
G1 X84.457 Y104.639 E10.31315
G1 X84.881 Y102.159 E10.39683
G1 X85.238 Y99.641 E10.48141
G1 X85.521 Y97.149 E10.56483
G1 X85.748 Y94.457 E10.65469
G1 X85.853 Y93.549 E10.68509
G1 X85.905 Y93.224 E10.69603
G1 X85.95 Y92.965 E10.70478
G1 X86.009 Y92.647 E10.71553
G1 X86.293 Y91.486 E10.75529
G1 X86.351 Y91.296 E10.7619
G1 X86.515 Y90.802 E10.77921
G1 X86.678 Y90.349 E10.79522
G1 X87.027 Y89.497 E10.82584
G1 X87.266 Y89.012 E10.84383
G1 X87.382 Y88.791 E10.85213
G1 X87.536 Y88.508 E10.86284
G1 X87.716 Y88.189 E10.87503
G1 X88.203 Y87.407 E10.90567
G1 X88.558 Y86.92 E10.92571
G1 X88.863 Y86.525 E10.94231
G1 X89.12 Y86.204 E10.95599
G1 X89.278 Y86.015 E10.96418
G1 X90.036 Y85.201 E11.00117
G0 F6000 X90.314 Y85.488
G1 F1200 X90.442 Y85.364 E11.0071
G1 X90.853 Y84.987 E11.02565
G1 X91.186 Y84.698 E11.04032
G1 X92.205 Y83.92 E11.08296
G1 X92.416 Y83.779 E11.0914
G1 X92.725 Y83.58 E11.10362
G1 X93.096 Y83.351 E11.11812
G1 X93.885 Y82.911 E11.14817
G1 X94.325 Y82.704 E11.16434
G1 X94.587 Y82.588 E11.17387
G1 X94.9 Y82.456 E11.18517
G1 X95.138 Y82.36 E11.19371
G1 X95.99 Y82.059 E11.22376
G1 X96.534 Y81.91 E11.24252
G1 X97.226 Y81.741 E11.26621
G1 X97.646 Y81.648 E11.28052
G1 X97.756 Y81.626 E11.28425
G1 X98.648 Y81.488 E11.31427
G1 X99.388 Y81.435 E11.33895
G1 X99.665 Y81.425 E11.34817
G1 X100.032 Y81.418 E11.36038
G1 X119.597 Y81.417 E12.01111
G1 X120.423 Y81.428 E12.03859
G1 X121.324 Y81.482 E12.06861
G1 X122.435 Y81.659 E12.10603
G1 X122.96 Y81.773 E12.12389
G1 X123.831 Y82.003 E12.15386
G1 X124.139 Y82.099 E12.16459
G1 X125.2 Y82.496 E12.20227
G1 X125.517 Y82.635 E12.21378
G1 X125.904 Y82.814 E12.22796
G1 X126.09 Y82.905 E12.23485
G1 X127.02 Y83.422 E12.27024
G1 X127.428 Y83.68 E12.28629
G1 X127.735 Y83.882 E12.29852
G1 X128.466 Y84.411 E12.32853
G1 X128.818 Y84.703 E12.34374
G1 X129.001 Y84.862 E12.3518
G1 X129.249 Y85.085 E12.3629
G1 X129.54 Y85.355 E12.3761
G1 X130.429 Y86.291 E12.41903
G1 X130.602 Y86.498 E12.42801
G1 X130.841 Y86.796 E12.44071
G1 X131.115 Y87.15 E12.4556
G1 X131.654 Y87.917 E12.48678
G1 X131.942 Y88.393 E12.50528
G1 X132.06 Y88.601 E12.51324
G1 X132.274 Y88.995 E12.52815
G1 X132.594 Y89.647 E12.55231
G1 X132.715 Y89.918 E12.56218
G1 X132.996 Y90.616 E12.58721
G1 X133.04 Y90.738 E12.59152
G1 X133.151 Y91.062 E12.60291
G1 X133.279 Y91.458 E12.61675
G1 X133.559 Y92.517 E12.65318
G1 X133.6 Y92.714 E12.65988
G1 X133.686 Y93.184 E12.67577
G1 X133.754 Y93.61 E12.69012
G1 X133.855 Y94.477 E12.71915
G1 X133.881 Y94.833 E12.73102
G1 X134.113 Y97.465 E12.8189
G1 X134.406 Y99.977 E12.90302
G1 X134.765 Y102.444 E12.98593
G1 X135.458 Y106.261 E13.11496
G1 X135.672 Y107.317 E13.1508
G1 X135.812 Y108.209 E13.18083
G1 X135.87 Y109.014 E13.20768
G1 X135.88 Y109.325 E13.21802
G1 X135.885 Y109.648 E13.22877
G1 X135.885 Y111.913 E13.3041
G1 X135.875 Y112.637 E13.32819
G1 X135.823 Y113.538 E13.3582
G1 X135.691 Y114.432 E13.38826
G1 X135.48 Y115.31 E13.41829
G1 X135.193 Y116.166 E13.44832
G1 X134.831 Y116.994 E13.47838
G1 X134.397 Y117.786 E13.50842
G1 X133.895 Y118.536 E13.53843
G1 X133.329 Y119.24 E13.56848
G1 X132.702 Y119.89 E13.59852
G1 X132.02 Y120.483 E13.62857
G1 X131.289 Y121.013 E13.65861
G1 X130.514 Y121.476 E13.68863
G1 X129.701 Y121.868 E13.71865
G1 X128.856 Y122.188 E13.7487
G1 X127.986 Y122.431 E13.77875
G1 X127.098 Y122.596 E13.80879
G1 X126.199 Y122.683 E13.83883
G1 X125.296 Y122.689 E13.86886
G1 X124.247 Y122.595 E13.90389
G1 X122.909 Y122.405 E13.94884
G1 X122.452 Y122.335 E13.96422
G1 X119.875 Y122.011 E14.05061
G1 X117.381 Y121.77 E14.13394
G1 X114.855 Y121.597 E14.21815
G1 X112.287 Y121.494 E14.30364
G1 X109.79 Y121.465 E14.38669
G1 X107.221 Y121.508 E14.47215
G1 X104.691 Y121.621 E14.55638
G1 X102.149 Y121.808 E14.64116
G1 X99.635 Y122.063 E14.7252
G1 X96.221 Y122.524 E14.83978
G1 X95.893 Y122.575 E14.85082
G1 X94.995 Y122.674 E14.88087
G1 X94.092 Y122.692 E14.91091
G1 X93.191 Y122.631 E14.94095
G1 X92.299 Y122.49 E14.97098
G1 X91.423 Y122.271 E15.00102
G1 X90.57 Y121.975 E15.03105
G1 X89.746 Y121.605 E15.06109
G1 X88.958 Y121.163 E15.09114
G1 X88.213 Y120.653 E15.12117
G1 X87.515 Y120.08 E15.1512
G1 X86.871 Y119.447 E15.18124
G1 X86.285 Y118.759 E15.2113
G1 X85.763 Y118.023 E15.24131
G1 X85.307 Y117.243 E15.27136
G1 X84.923 Y116.426 E15.30138
G1 X84.612 Y115.578 E15.33143
G1 X84.377 Y114.706 E15.36146
G1 X84.221 Y113.816 E15.39152
G1 X84.137 Y112.705 E15.42857
G1 X84.116 Y111.686 E15.46247
G1 X84.114 Y111.476 E15.46946
G1 X84.115 Y109.895 E15.52204
G1 X84.126 Y109.189 E15.54553
G1 X84.18 Y108.288 E15.57555
G1 X84.29 Y107.523 E15.60125
G1 X84.342 Y107.243 E15.61073
G1 X84.849 Y104.714 E15.69651
G1 X85.277 Y102.212 E15.78094
G1 X85.632 Y99.711 E15.86496
G1 X85.922 Y97.157 E15.95045
G1 X86.137 Y94.629 E16.03483
G1 X86.147 Y94.486 E16.0396
G1 X86.248 Y93.612 E16.06887
G1 X86.3 Y93.287 E16.07981
G1 X86.343 Y93.038 E16.08822
G1 X86.402 Y92.72 E16.09897
G1 X86.675 Y91.603 E16.13722
G1 X86.733 Y91.413 E16.14383
G1 X86.891 Y90.938 E16.16048
G1 X87.054 Y90.485 E16.17649
G1 X87.397 Y89.649 E16.20654
G1 X87.621 Y89.197 E16.22332
G1 X87.737 Y88.976 E16.23162
G1 X87.885 Y88.704 E16.24192
G1 X88.065 Y88.385 E16.2541
G1 X88.543 Y87.619 E16.28414
G1 X88.875 Y87.164 E16.30287
G1 X89.18 Y86.769 E16.31947
G1 X89.427 Y86.461 E16.3326
G1 X89.585 Y86.272 E16.34079
G1 X90.314 Y85.488 E16.3764
G1 F1500 E9.8764
G0 F6000 X99.832 Y95.344
G0 X100.192 Y95.417
G1 F1500 E16.3764
G1 F1200 X119.807 Y95.417 E17.0288
G1 X119.891 Y95.538 E17.0337
G1 X119.837 Y95.691 E17.03909
G1 X119.772 Y95.734 E17.04168
G1 X119.026 Y96.053 E17.06867
G1 X118.536 Y96.306 E17.08701
G1 X118.088 Y96.627 E17.10534
G1 X117.691 Y97.009 E17.12367
G1 X117.345 Y97.459 E17.14255
G1 X117.126 Y97.792 E17.1558
G1 X116.857 Y98.273 E17.17413
G1 X116.661 Y98.788 E17.19246
G1 X116.542 Y99.326 E17.21079
G1 X116.502 Y99.864 E17.22873
G1 X114.614 Y99.5 E17.29268
G1 X114.33 Y99.456 E17.30224
G1 X112.384 Y99.232 E17.36739
G1 X112.097 Y99.21 E17.37697
G1 X110.152 Y99.134 E17.44171
G1 X109.858 Y99.134 E17.45148
G1 X107.913 Y99.209 E17.51622
G1 X107.625 Y99.231 E17.52583
G1 X105.678 Y99.455 E17.59101
G1 X105.395 Y99.498 E17.60054
G1 X103.498 Y99.863 E17.66479
G1 X103.459 Y99.331 E17.68253
G1 X103.34 Y98.793 E17.70086
G1 X103.144 Y98.278 E17.71918
G1 X102.871 Y97.789 E17.73781
G1 X102.652 Y97.457 E17.75104
G1 X102.316 Y97.02 E17.76937
G1 X101.921 Y96.636 E17.7877
G1 X101.474 Y96.314 E17.80602
G1 X100.969 Y96.053 E17.82493
G1 X100.21 Y95.73 E17.85236
G1 X100.13 Y95.651 E17.8561
G1 X100.115 Y95.521 E17.86045
G1 X100.192 Y95.417 E17.86476
G0 F6000 X99.924 Y95.114
G1 F1200 X100.128 Y95.017 E17.87227
G1 X119.904 Y95.017 E18.53002
G1 X120.122 Y95.159 E18.53868
G1 X120.236 Y95.311 E18.545
G1 X120.291 Y95.616 E18.5553
G1 X120.195 Y95.885 E18.5648
G1 X119.958 Y96.09 E18.57523
G1 X119.183 Y96.421 E18.60325
