;FLAVOR:Marlin
;TIME:1733
;Filament used: 2.15993m
;Layer height: 0.28
;MINX:66.035
;MINY:93.975
;MINZ:0.28
;MAXX:168.965
;MAXY:141.025
;MAXZ:1.12
;Generated with Cura_SteamEngine 4.6.1
M140 S85
M105
M190 S85
M104 S235
M105
M109 S235
M82 ;absolute extrusion mode
; Ender 3 Custom Start G-code
G92 E0 ; Reset Extruder
G28 ; Home all axes
G1 Z2.0 F3000 ; Move Z Axis up little to prevent scratching of Heat Bed
G1 X0.1 Y20 Z0.3 F5000.0 ; Move to start position
G1 X0.1 Y200.0 Z0.3 F1500.0 E15 ; Draw the first line
G1 X0.4 Y200.0 Z0.3 F5000.0 ; Move to side a little
G1 X0.4 Y20 Z0.3 F1500.0 E30 ; Draw the second line
G92 E0 ; Reset Extruder
G1 Z2.0 F3000 ; Move Z Axis up little to prevent scratching of Heat Bed
G1 X5 Y20 Z0.3 F5000.0 ; Move over to prevent blob squish
G92 E0
G92 E0
G1 F1500 E-6.5
;LAYER_COUNT:4
;LAYER:0
M107
;MESH:Back Plate.STL
G0 F6000 X73.908 Y119.856 Z0.28
;TYPE:WALL-INNER
G1 F1500 E0
G1 F1200 X74.304 Y119.672 E0.02033
G1 X74.662 Y119.421 E0.04069
G1 X74.971 Y119.112 E0.06104
G1 X75.222 Y118.753 E0.08144
G1 X75.406 Y118.359 E0.10169
G1 X75.519 Y117.936 E0.12207
G1 X75.558 Y117.5 E0.14246
G1 X75.519 Y117.064 E0.16284
G1 X75.406 Y116.641 E0.18323
G1 X75.222 Y116.247 E0.20347
G1 X74.971 Y115.888 E0.22387
G1 X74.662 Y115.579 E0.24422
G1 X74.304 Y115.328 E0.26458
G1 X73.908 Y115.144 E0.28491
G1 X73.486 Y115.031 E0.30525
G1 X73.05 Y114.992 E0.32564
G1 X72.614 Y115.031 E0.34602
G1 X72.192 Y115.144 E0.36636
G1 X71.796 Y115.328 E0.38669
G1 X71.438 Y115.579 E0.40705
G1 X71.129 Y115.888 E0.4274
G1 X70.878 Y116.247 E0.4478
G1 X70.694 Y116.641 E0.46805
G1 X70.581 Y117.064 E0.48843
G1 X70.542 Y117.5 E0.50882
G1 X70.581 Y117.936 E0.5292
G1 X70.694 Y118.359 E0.54959
G1 X70.878 Y118.753 E0.56984
G1 X71.129 Y119.112 E0.59023
G1 X71.438 Y119.421 E0.61058
G1 X71.796 Y119.672 E0.63094
G1 X72.192 Y119.856 E0.65127
G1 X72.614 Y119.969 E0.67162
G1 X73.05 Y120.008 E0.692
G1 X73.486 Y119.969 E0.71238
G1 X73.908 Y119.856 E0.73272
G0 F6000 X73.771 Y119.479
;TYPE:WALL-OUTER
G1 F1200 X74.103 Y119.324 E0.74979
G1 X74.404 Y119.113 E0.7669
G1 X74.663 Y118.854 E0.78396
G1 X74.874 Y118.552 E0.80111
G1 X75.029 Y118.221 E0.81813
G1 X75.124 Y117.866 E0.83524
G1 X75.156 Y117.5 E0.85235
G1 X75.124 Y117.134 E0.86946
G1 X75.029 Y116.779 E0.88657
G1 X74.874 Y116.448 E0.90359
G1 X74.663 Y116.146 E0.92074
G1 X74.404 Y115.887 E0.9378
G1 X74.103 Y115.676 E0.95492
G1 X73.771 Y115.521 E0.97198
G1 X73.416 Y115.426 E0.98909
G1 X73.05 Y115.394 E1.0062
G1 X72.684 Y115.426 E1.0233
G1 X72.329 Y115.521 E1.04042
G1 X71.997 Y115.676 E1.05748
G1 X71.696 Y115.887 E1.07459
G1 X71.437 Y116.146 E1.09165
G1 X71.226 Y116.448 E1.1088
G1 X71.071 Y116.779 E1.12582
G1 X70.976 Y117.134 E1.14293
G1 X70.944 Y117.5 E1.16004
G1 X70.976 Y117.866 E1.17715
G1 X71.071 Y118.221 E1.19426
G1 X71.226 Y118.552 E1.21128
G1 X71.437 Y118.854 E1.22844
G1 X71.696 Y119.113 E1.24549
G1 X71.997 Y119.324 E1.26261
G1 X72.329 Y119.479 E1.27967
G1 X72.684 Y119.574 E1.29678
G1 X73.05 Y119.606 E1.31389
G1 X73.416 Y119.574 E1.331
G1 X73.771 Y119.479 E1.34811
G0 F6000 X73.921 Y119.892
G1 F1500 E-5.15189
G0 F6000 X75.388 Y118.849
G0 X74.122 Y118.119
G0 X160.878 Y118.119
G0 X159.612 Y118.849
G0 X161.091 Y119.856
;TYPE:WALL-INNER
G1 F1500 E1.34811
G1 F1200 X161.514 Y119.969 E1.36849
G1 X161.95 Y120.008 E1.38888
G1 X162.386 Y119.969 E1.40926
G1 X162.808 Y119.856 E1.4296
G1 X163.204 Y119.672 E1.44994
G1 X163.562 Y119.421 E1.47029
G1 X163.871 Y119.112 E1.49064
G1 X164.122 Y118.753 E1.51104
G1 X164.306 Y118.359 E1.53129
G1 X164.419 Y117.936 E1.55168
G1 X164.458 Y117.5 E1.57206
G1 X164.419 Y117.064 E1.59244
G1 X164.306 Y116.641 E1.61283
G1 X164.122 Y116.247 E1.63308
G1 X163.871 Y115.888 E1.65347
G1 X163.562 Y115.579 E1.67382
G1 X163.204 Y115.328 E1.69418
G1 X162.808 Y115.144 E1.71451
G1 X162.386 Y115.031 E1.73486
G1 X161.95 Y114.992 E1.75524
G1 X161.514 Y115.031 E1.77562
G1 X161.091 Y115.144 E1.79601
G1 X160.697 Y115.328 E1.81626
G1 X160.338 Y115.579 E1.83666
G1 X160.029 Y115.888 E1.857
G1 X159.778 Y116.247 E1.8774
G1 X159.594 Y116.641 E1.89765
G1 X159.481 Y117.064 E1.91804
G1 X159.442 Y117.5 E1.93842
G1 X159.481 Y117.936 E1.9588
G1 X159.594 Y118.359 E1.97919
G1 X159.778 Y118.753 E1.99944
G1 X160.029 Y119.112 E2.01984
G1 X160.338 Y119.421 E2.04018
G1 X160.697 Y119.672 E2.06058
G1 X161.091 Y119.856 E2.08083
G0 F6000 X161.229 Y119.479
;TYPE:WALL-OUTER
G1 F1200 X161.584 Y119.574 E2.09794
G1 X161.95 Y119.606 E2.11505
G1 X162.316 Y119.574 E2.13216
G1 X162.671 Y119.479 E2.14927
G1 X163.003 Y119.324 E2.16633
G1 X163.304 Y119.113 E2.18345
G1 X163.563 Y118.854 E2.2005
G1 X163.774 Y118.552 E2.21766
G1 X163.929 Y118.221 E2.23468
G1 X164.024 Y117.866 E2.25179
G1 X164.056 Y117.5 E2.26889
G1 X164.024 Y117.134 E2.286
G1 X163.929 Y116.779 E2.30311
G1 X163.774 Y116.448 E2.32013
G1 X163.563 Y116.146 E2.33729
G1 X163.304 Y115.887 E2.35434
G1 X163.003 Y115.676 E2.37146
G1 X162.671 Y115.521 E2.38852
G1 X162.316 Y115.426 E2.40563
G1 X161.95 Y115.394 E2.42274
G1 X161.584 Y115.426 E2.43985
G1 X161.229 Y115.521 E2.45696
G1 X160.898 Y115.676 E2.47398
G1 X160.596 Y115.887 E2.49113
G1 X160.337 Y116.146 E2.50819
G1 X160.126 Y116.448 E2.52534
G1 X159.971 Y116.779 E2.54236
G1 X159.876 Y117.134 E2.55947
G1 X159.844 Y117.5 E2.57658
G1 X159.876 Y117.866 E2.59369
G1 X159.971 Y118.221 E2.6108
G1 X160.126 Y118.552 E2.62782
G1 X160.337 Y118.854 E2.64498
G1 X160.596 Y119.113 E2.66203
G1 X160.898 Y119.324 E2.67919
G1 X161.229 Y119.479 E2.6962
G0 F6000 X161.079 Y119.892
G1 F1500 E-3.8038
G0 F6000 X159.882 Y119.235
G0 X161.004 Y118.3
G0 X159.882 Y141.025
G0 X159.882 Y139.55
G0 X67.3 Y139.76
;TYPE:WALL-INNER
G1 F1500 E2.6962
G1 F1200 X67.3 Y95.24 E4.76924
G1 X167.7 Y95.24 E9.44429
G1 X167.7 Y139.76 E11.51732
G1 X67.3 Y139.76 E16.19237
G0 F6000 X66.9 Y140.16
;TYPE:WALL-OUTER
G1 F1200 X66.9 Y94.84 E18.30266
G1 X168.1 Y94.84 E23.01495
G1 X168.1 Y140.16 E25.12524
G1 X66.9 Y140.16 E29.83754
G0 F6000 X67.17 Y139.89
G0 X67.41 Y139.37
G0 X67.69 Y139.37
;TYPE:SKIN
G1 F1200 X67.69 Y95.63 E31.87426
G1 X167.31 Y95.63 E36.51298
G1 X167.31 Y139.37 E38.5497
G1 X67.69 Y139.37 E43.18842
G1 F1500 E36.68842
G0 F6000 X67.41 Y139.37
G0 X67.51 Y119.961
G0 X66.035 Y119.961
G0 X71.978 Y118.119
G0 X70.712 Y118.849
G0 X72.155 Y119.961
G0 X72.058 Y120.224
G1 F1500 E43.18842
G1 F1200 X72.546 Y120.355 E43.21195
G1 X73.05 Y120.4 E43.23551
G1 X73.554 Y120.355 E43.25907
G1 X74.042 Y120.224 E43.2826
G1 X74.499 Y120.011 E43.30608
G1 X74.914 Y119.721 E43.32965
G1 X75.271 Y119.364 E43.35316
G1 X75.561 Y118.948 E43.37678
G1 X75.774 Y118.493 E43.40017
G1 X75.905 Y118.004 E43.42374
G1 X75.95 Y117.5 E43.4473
G1 X75.905 Y116.996 E43.47087
G1 X75.774 Y116.507 E43.49444
G1 X75.561 Y116.052 E43.51783
G1 X75.271 Y115.636 E43.54145
G1 X74.914 Y115.279 E43.56495
G1 X74.499 Y114.989 E43.58853
G1 X74.042 Y114.776 E43.61201
G1 X73.554 Y114.645 E43.63553
G1 X73.05 Y114.6 E43.6591
G1 X72.546 Y114.645 E43.68266
G1 X72.058 Y114.776 E43.70619
G1 X71.601 Y114.989 E43.72966
G1 X71.186 Y115.279 E43.75324
G1 X70.829 Y115.636 E43.77675
G1 X70.539 Y116.052 E43.80036
G1 X70.326 Y116.507 E43.82375
G1 X70.195 Y116.996 E43.84733
G1 X70.15 Y117.5 E43.87089
G1 X70.195 Y118.004 E43.89445
G1 X70.326 Y118.493 E43.91802
G1 X70.539 Y118.948 E43.94142
G1 X70.829 Y119.364 E43.96503
G1 X71.186 Y119.721 E43.98854
G1 X71.601 Y120.011 E44.01211
G1 X72.058 Y120.224 E44.03559
G1 F1500 E37.53559
G0 F6000 X72.155 Y119.961
G0 X73.457 Y119.811
G0 X74.077 Y119.586
G0 X75.388 Y118.849
G0 X74.122 Y118.119
G0 X160.712 Y117.5
G0 X159.251 Y117.5
G0 X159.372 Y117.957
G0 X159.095 Y118.004
G1 F1500 E44.03559
G1 F1200 X159.226 Y118.493 E44.05916
G1 X159.439 Y118.948 E44.08256
G1 X159.729 Y119.364 E44.10617
G1 X160.086 Y119.721 E44.12968
G1 X160.502 Y120.011 E44.15329
G1 X160.957 Y120.224 E44.17668
G1 X161.446 Y120.355 E44.20026
G1 X161.95 Y120.4 E44.22382
G1 X162.454 Y120.355 E44.24738
G1 X162.942 Y120.224 E44.27091
G1 X163.399 Y120.011 E44.29439
G1 X163.814 Y119.721 E44.31796
G1 X164.171 Y119.364 E44.34147
G1 X164.461 Y118.948 E44.36508
G1 X164.674 Y118.493 E44.38848
G1 X164.805 Y118.004 E44.41205
G1 X164.85 Y117.5 E44.43561
G1 X164.805 Y116.996 E44.45917
G1 X164.674 Y116.507 E44.48275
G1 X164.461 Y116.052 E44.50614
G1 X164.171 Y115.636 E44.52975
G1 X163.814 Y115.279 E44.55326
G1 X163.399 Y114.989 E44.57684
G1 X162.942 Y114.776 E44.60031
G1 X162.454 Y114.645 E44.62384
G1 X161.95 Y114.6 E44.6474
G1 X161.446 Y114.645 E44.67096
G1 X160.957 Y114.776 E44.69454
G1 X160.502 Y114.989 E44.71793
G1 X160.086 Y115.279 E44.74154
G1 X159.729 Y115.636 E44.76505
G1 X159.439 Y116.052 E44.78867
G1 X159.226 Y116.507 E44.81206
G1 X159.095 Y116.996 E44.83563
G1 X159.05 Y117.5 E44.85919
G1 X159.095 Y118.004 E44.88276
G1 F1500 E38.38276
G0 F6000 X159.372 Y117.957
G0 X159.745 Y116.697
G0 X160.075 Y116.127
G0 X161.025 Y114.964
G0 X161.733 Y116.28
G0 X168.965 Y114.964
G0 X167.49 Y114.964
G0 X167.59 Y95.873
G0 X167.149 Y95.873
G1 F1500 E44.88276
G1 F1200 X167.065 Y95.789 E44.88829
G0 F6000 X166.5 Y95.789
G1 F1200 X167.149 Y96.438 E44.93102
G0 F6000 X167.149 Y97.004
G1 F1200 X165.934 Y95.789 E45.01103
G0 F6000 X165.368 Y95.789
G1 F1200 X167.149 Y97.57 E45.12832
G0 F6000 X167.149 Y98.135
G1 F1200 X164.803 Y95.789 E45.2828
G0 F6000 X164.237 Y95.789
G1 F1200 X167.149 Y98.701 E45.47456
G0 F6000 X167.149 Y99.267
G1 F1200 X163.671 Y95.789 E45.7036
G0 F6000 X163.106 Y95.789
G1 F1200 X167.149 Y99.832 E45.96984
G0 F6000 X167.149 Y100.398
G1 F1200 X162.54 Y95.789 E46.27335
G0 F6000 X161.974 Y95.789
G1 F1200 X167.149 Y100.964 E46.61413
G0 F6000 X167.149 Y101.529
G1 F1200 X161.409 Y95.789 E46.99212
G0 F6000 X160.843 Y95.789
G1 F1200 X167.149 Y102.095 E47.40738
G0 F6000 X167.149 Y102.661
G1 F1200 X160.277 Y95.789 E47.85991
G0 F6000 X159.712 Y95.789
G1 F1200 X167.149 Y103.226 E48.34965
G0 F6000 X167.149 Y103.792
G1 F1200 X159.146 Y95.789 E48.87666
G0 F6000 X158.58 Y95.789
G1 F1200 X167.149 Y104.358 E49.44094
G0 F6000 X167.149 Y104.924
G1 F1200 X158.015 Y95.789 E50.04247
G0 F6000 X157.449 Y95.789
G1 F1200 X167.149 Y105.489 E50.68123
G0 F6000 X167.149 Y106.055
G1 F1200 X156.883 Y95.789 E51.35726
G0 F6000 X156.317 Y95.789
G1 F1200 X167.149 Y106.621 E52.07057
G0 F6000 X167.149 Y107.186
G1 F1200 X155.752 Y95.789 E52.82108
G0 F6000 X155.186 Y95.789
G1 F1200 X167.149 Y107.752 E53.60886
G0 F6000 X167.149 Y108.318
G1 F1200 X154.62 Y95.789 E54.43392
G0 F6000 X154.055 Y95.789
G1 F1200 X167.149 Y108.883 E55.29618
G0 F6000 X167.149 Y109.449
G1 F1200 X153.489 Y95.789 E56.19572
G0 F6000 X152.923 Y95.789
G1 F1200 X167.149 Y110.015 E57.13252
G0 F6000 X167.149 Y110.58
G1 F1200 X152.358 Y95.789 E58.10654
G0 F6000 X151.792 Y95.789
G1 F1200 X167.149 Y111.146 E59.11782
G0 F6000 X167.149 Y111.712
G1 F1200 X151.226 Y95.789 E60.16638
G0 F6000 X150.661 Y95.789
G1 F1200 X167.149 Y112.277 E61.25214
G0 F6000 X167.149 Y112.843
G1 F1200 X150.095 Y95.789 E62.37517
G0 F6000 X149.529 Y95.789
G1 F1200 X167.149 Y113.409 E63.53548
G0 F6000 X167.149 Y113.975
G1 F1200 X148.964 Y95.789 E64.73303
G0 F6000 X148.398 Y95.789
G1 F1200 X167.149 Y114.54 E65.96781
G0 F6000 X167.149 Y115.106
G1 F1200 X147.832 Y95.789 E67.23987
G0 F6000 X147.267 Y95.789
G1 F1200 X167.149 Y115.672 E68.54917
G0 F6000 X167.149 Y116.237
G1 F1200 X146.701 Y95.789 E69.8957
G0 F6000 X146.135 Y95.789
G1 F1200 X167.149 Y116.803 E71.27951
G0 F6000 X167.149 Y117.369
G1 F1200 X145.569 Y95.789 E72.70059
G0 F6000 X145.004 Y95.789
G1 F1200 X167.149 Y117.934 E74.15888
G0 F6000 X167.149 Y118.5
G1 F1200 X164.548 Y115.899 E74.33016
G0 F6000 X164.188 Y116.149
G0 X164.505 Y116.958
G0 X164.929 Y116.846
G1 F1200 X167.149 Y119.066 E74.47635
G0 F6000 X167.149 Y119.631
G1 F1200 X165.009 Y117.492 E74.61724
G0 F6000 X164.964 Y118.012
G1 F1200 X167.149 Y120.197 E74.76112
G0 F6000 X167.149 Y120.763
G1 F1200 X164.847 Y118.46 E74.91275
G0 F6000 X164.678 Y118.858
G1 F1200 X167.149 Y121.328 E75.07543
G0 F6000 X167.149 Y121.894
G1 F1200 X164.468 Y119.213 E75.25198
G0 F6000 X164.225 Y119.536
G1 F1200 X167.149 Y122.46 E75.44453
G0 F6000 X167.149 Y123.025
G1 F1200 X163.942 Y119.819 E75.65569
G0 F6000 X163.613 Y120.056
G1 F1200 X167.149 Y123.591 E75.8885
G0 F6000 X167.149 Y124.157
G1 F1200 X163.249 Y120.257 E76.14533
G0 F6000 X162.842 Y120.416
G1 F1200 X167.149 Y124.723 E76.42895
G0 F6000 X167.149 Y125.288
G1 F1200 X162.382 Y120.522 E76.74283
G0 F6000 X161.846 Y120.551
G1 F1200 X167.149 Y125.854 E77.09204
G0 F6000 X167.149 Y126.42
G1 F1200 X161.178 Y120.449 E77.48524
G0 F6000 X161.292 Y120.025
G0 X160.32 Y119.543
G0 X160.067 Y119.904
G1 F1200 X167.149 Y126.985 E77.95157
G0 F6000 X167.149 Y127.551
G1 F1200 X135.387 Y95.789 E80.04315
G0 F6000 X135.953 Y95.789
G1 F1200 X159.545 Y119.382 E81.59676
G0 F6000 X159.907 Y119.13
G0 X159.426 Y118.157
G0 X159 Y118.27
G1 F1200 X136.518 Y95.789 E83.07721
G0 F6000 X137.084 Y95.789
G1 F1200 X158.897 Y117.602 E84.51363
G0 F6000 X158.927 Y117.066
G1 F1200 X137.65 Y95.789 E85.91476
G0 F6000 X138.216 Y95.789
G1 F1200 X159.033 Y116.606 E87.28559
G0 F6000 X159.191 Y116.199
G1 F1200 X138.781 Y95.789 E88.62962
G0 F6000 X139.347 Y95.789
G1 F1200 X159.393 Y115.836 E89.94972
G0 F6000 X159.63 Y115.506
G1 F1200 X139.913 Y95.789 E91.24812
G0 F6000 X140.478 Y95.789
G1 F1200 X159.912 Y115.223 E92.52788
G0 F6000 X160.234 Y114.979
G1 F1200 X141.044 Y95.789 E93.79158
G0 F6000 X141.61 Y95.789
G1 F1200 X160.59 Y114.769 E95.04144
G0 F6000 X160.987 Y114.601
G1 F1200 X142.175 Y95.789 E96.28024
G0 F6000 X142.741 Y95.789
G1 F1200 X161.436 Y114.484 E97.51134
G0 F6000 X161.956 Y114.438
G1 F1200 X143.307 Y95.789 E98.73941
G0 F6000 X143.872 Y95.789
G1 F1200 X162.602 Y114.519 E99.97281
G0 F6000 X162.487 Y114.943
G0 X163.294 Y115.255
G0 X163.546 Y114.897
G1 F1200 X144.438 Y95.789 E101.23111
G0 F6000 X144.438 Y95.35
G0 X134.821 Y95.35
G0 X134.821 Y95.789
G1 F1200 X167.149 Y128.117 E103.35996
G0 F6000 X167.149 Y128.682
G1 F1200 X134.256 Y95.789 E105.52602
G0 F6000 X133.69 Y95.789
G1 F1200 X167.149 Y129.248 E107.72935
G0 F6000 X167.149 Y129.814
G1 F1200 X133.124 Y95.789 E109.96996
G0 F6000 X132.559 Y95.789
G1 F1200 X167.149 Y130.379 E112.24777
G0 F6000 X167.149 Y130.945
G1 F1200 X131.993 Y95.789 E114.56285
G0 F6000 X131.427 Y95.789
G1 F1200 X167.149 Y131.511 E116.91521
G0 F6000 X167.149 Y132.076
G1 F1200 X130.862 Y95.789 E119.30477
G0 F6000 X130.296 Y95.789
G1 F1200 X167.149 Y132.642 E121.7316
G0 F6000 X167.149 Y133.208
G1 F1200 X129.73 Y95.789 E124.1957
G0 F6000 X129.165 Y95.789
G1 F1200 X167.149 Y133.773 E126.69702
G0 F6000 X167.149 Y134.339
G1 F1200 X128.599 Y95.789 E129.2356
G0 F6000 X128.033 Y95.789
G1 F1200 X167.149 Y134.905 E131.81145
G0 F6000 X167.149 Y135.471
G1 F1200 X127.468 Y95.789 E134.42455
G0 F6000 X126.902 Y95.789
G1 F1200 X167.149 Y136.036 E137.07488
G0 F6000 X167.149 Y136.602
G1 F1200 X126.336 Y95.789 E139.76249
G0 F6000 X125.77 Y95.789
G1 F1200 X167.149 Y137.168 E142.48737
G0 F6000 X167.149 Y137.733
G1 F1200 X125.205 Y95.789 E145.24945
G0 F6000 X124.639 Y95.789
G1 F1200 X167.149 Y138.299 E148.04881
G0 F6000 X167.149 Y138.865
G1 F1200 X124.073 Y95.789 E150.88543
G0 F6000 X123.508 Y95.789
G1 F1200 X166.928 Y139.209 E153.74472
G0 F6000 X166.362 Y139.209
G1 F1200 X122.942 Y95.789 E156.604
G0 F6000 X122.376 Y95.789
G1 F1200 X165.796 Y139.209 E159.46328
G0 F6000 X165.231 Y139.209
G1 F1200 X121.811 Y95.789 E162.32256
G0 F6000 X121.245 Y95.789
G1 F1200 X164.665 Y139.209 E165.18184
G0 F6000 X164.099 Y139.209
G1 F1200 X120.679 Y95.789 E168.04112
G0 F6000 X120.114 Y95.789
G1 F1200 X163.533 Y139.209 E170.90037
G0 F6000 X162.968 Y139.209
G1 F1200 X119.548 Y95.789 E173.75965
G0 F6000 X118.982 Y95.789
G1 F1200 X162.402 Y139.209 E176.61893
G0 F6000 X161.836 Y139.209
G1 F1200 X118.417 Y95.789 E179.47818
G0 F6000 X117.851 Y95.789
G1 F1200 X161.271 Y139.209 E182.33746
G0 F6000 X160.705 Y139.209
G1 F1200 X117.285 Y95.789 E185.19674
G0 F6000 X116.719 Y95.789
G1 F1200 X160.139 Y139.209 E188.05602
G0 F6000 X159.574 Y139.209
G1 F1200 X116.154 Y95.789 E190.9153
G0 F6000 X115.588 Y95.789
G1 F1200 X159.008 Y139.209 E193.77459
G0 F6000 X158.442 Y139.209
G1 F1200 X115.022 Y95.789 E196.63387
G0 F6000 X114.457 Y95.789
G1 F1200 X157.877 Y139.209 E199.49315
