;FLAVOR:Marlin
;TIME:14998
;Filament used: 14.2287m
;Layer height: 0.28
;MINX:56.51
;MINY:93.975
;MINZ:0.28
;MAXX:178.49
;MAXY:141.025
;MAXZ:24.08
;Generated with Cura_SteamEngine 4.6.1
M140 S85
M105
M190 S85
M104 S235
M105
M109 S235
M82 ;absolute extrusion mode
; Ender 3 Custom Start G-code
G92 E0 ; Reset Extruder
G28 ; Home all axes
G1 Z2.0 F3000 ; Move Z Axis up little to prevent scratching of Heat Bed
G1 X0.1 Y20 Z0.3 F5000.0 ; Move to start position
G1 X0.1 Y200.0 Z0.3 F1500.0 E15 ; Draw the first line
G1 X0.4 Y200.0 Z0.3 F5000.0 ; Move to side a little
G1 X0.4 Y20 Z0.3 F1500.0 E30 ; Draw the second line
G92 E0 ; Reset Extruder
G1 Z2.0 F3000 ; Move Z Axis up little to prevent scratching of Heat Bed
G1 X5 Y20 Z0.3 F5000.0 ; Move over to prevent blob squish
G92 E0
G92 E0
G1 F1500 E-6.5
;LAYER_COUNT:86
;LAYER:0
M107
G0 F6000 X59.375 Y101.92 Z0.28
;TYPE:SKIRT
G1 F1500 E0
G1 F1200 X63.7 Y101.92 E0.20139
G1 X63.7 Y102.346 E0.22123
G1 X59.375 Y102.346 E0.42262
G1 X59.375 Y101.92 E0.44245
G0 F6000 X58.975 Y101.52
G1 F1200 X64.1 Y101.52 E0.68109
G1 X64.1 Y102.746 E0.73818
G1 X58.975 Y102.746 E0.97682
G1 X58.975 Y101.52 E1.03391
G0 F6000 X58.575 Y101.12
G1 F1200 X64.5 Y101.12 E1.3098
G1 X64.5 Y103.146 E1.40414
G1 X58.575 Y103.146 E1.68004
G1 X58.575 Y101.12 E1.77437
G0 F6000 X58.175 Y100.72
G1 F1200 X64.9 Y100.72 E2.08752
G1 X64.9 Y103.546 E2.21911
G1 X58.175 Y103.546 E2.53225
G1 X58.175 Y100.72 E2.66384
G0 F6000 X57.775 Y100.32
G1 F1200 X65.3 Y100.32 E3.01424
G1 X65.3 Y103.946 E3.18308
G1 X57.775 Y103.946 E3.53348
G1 X57.775 Y100.32 E3.70232
G0 F6000 X57.375 Y99.92
G1 F1200 X65.7 Y99.92 E4.08997
G1 X65.7 Y104.346 E4.29606
G1 X57.375 Y104.346 E4.68371
G1 X57.375 Y99.92 E4.8898
G0 F6000 X57.375 Y117.065
G1 F1200 X65.7 Y117.065 E5.27745
G1 X65.7 Y121.491 E5.48354
G1 X57.375 Y121.491 E5.87119
G1 X57.375 Y117.065 E6.07728
G0 F6000 X57.775 Y117.465
G1 F1200 X65.3 Y117.465 E6.42767
G1 X65.3 Y121.091 E6.59652
G1 X57.775 Y121.091 E6.94691
G1 X57.775 Y117.465 E7.11575
G0 F6000 X58.175 Y117.865
G1 F1200 X64.9 Y117.865 E7.4289
G1 X64.9 Y120.691 E7.56049
G1 X58.175 Y120.691 E7.87363
G1 X58.175 Y117.865 E8.00522
G0 F6000 X58.575 Y118.265
G1 F1200 X64.5 Y118.265 E8.28112
G1 X64.5 Y120.291 E8.37545
G1 X58.575 Y120.291 E8.65135
G1 X58.575 Y118.265 E8.74569
G0 F6000 X58.975 Y118.665
G1 F1200 X64.1 Y118.665 E8.98433
G1 X64.1 Y119.891 E9.04142
G1 X58.975 Y119.891 E9.28006
G1 X58.975 Y118.665 E9.33714
G0 F6000 X59.375 Y119.065
G1 F1200 X63.7 Y119.065 E9.53853
G1 X63.7 Y119.491 E9.55837
G1 X59.375 Y119.491 E9.75976
G1 X59.375 Y119.065 E9.7796
G1 F1500 E3.2796
G0 F6000 X66.039 Y140.517
G0 X66.543 Y141.021
G0 X168.457 Y141.021
G0 X168.961 Y140.517
G0 X169.3 Y117.065
G1 F1500 E9.7796
G1 F1200 X177.625 Y117.065 E10.16724
G1 X177.625 Y121.491 E10.37334
G1 X169.3 Y121.491 E10.76098
G1 X169.3 Y117.065 E10.96708
G0 F6000 X169.7 Y117.465
G1 F1200 X177.225 Y117.465 E11.31747
G1 X177.225 Y121.091 E11.48631
G1 X169.7 Y121.091 E11.83671
G1 X169.7 Y117.465 E12.00555
G0 F6000 X170.1 Y117.865
G1 F1200 X176.825 Y117.865 E12.3187
G1 X176.825 Y120.691 E12.45029
G1 X170.1 Y120.691 E12.76343
G1 X170.1 Y117.865 E12.89502
G0 F6000 X170.5 Y118.265
G1 F1200 X176.425 Y118.265 E13.17091
G1 X176.425 Y120.291 E13.26525
G1 X170.5 Y120.291 E13.54115
G1 X170.5 Y118.265 E13.63548
G0 F6000 X170.9 Y118.665
G1 F1200 X176.025 Y118.665 E13.87413
G1 X176.025 Y119.891 E13.93121
G1 X170.9 Y119.891 E14.16986
G1 X170.9 Y118.665 E14.22694
G0 F6000 X171.3 Y119.065
G1 F1200 X175.625 Y119.065 E14.42833
G1 X175.625 Y119.491 E14.44817
G1 X171.3 Y119.491 E14.64956
G1 X171.3 Y119.065 E14.6694
G0 F6000 X171.3 Y101.92
G1 F1200 X175.625 Y101.92 E14.87079
G1 X175.625 Y102.346 E14.89062
G1 X171.3 Y102.346 E15.09201
G1 X171.3 Y101.92 E15.11185
G0 F6000 X170.9 Y101.52
G1 F1200 X176.025 Y101.52 E15.35049
G1 X176.025 Y102.746 E15.40758
G1 X170.9 Y102.746 E15.64622
G1 X170.9 Y101.52 E15.70331
G0 F6000 X170.5 Y101.12
G1 F1200 X176.425 Y101.12 E15.9792
G1 X176.425 Y103.146 E16.07354
G1 X170.5 Y103.146 E16.34943
G1 X170.5 Y101.12 E16.44377
G0 F6000 X170.1 Y100.72
G1 F1200 X176.825 Y100.72 E16.75692
G1 X176.825 Y103.546 E16.88851
G1 X170.1 Y103.546 E17.20165
G1 X170.1 Y100.72 E17.33324
G0 F6000 X169.7 Y100.32
G1 F1200 X177.225 Y100.32 E17.68364
G1 X177.225 Y103.946 E17.85248
G1 X169.7 Y103.946 E18.20287
G1 X169.7 Y100.32 E18.37171
G0 F6000 X169.3 Y99.92
G1 F1200 X177.625 Y99.92 E18.75936
G1 X177.625 Y104.346 E18.96545
G1 X169.3 Y104.346 E19.3531
G1 X169.3 Y99.92 E19.55919
G1 F1500 E13.05919
;MESH:BaseFrame.STL
G0 F6000 X151.425 Y112.44
G0 X152.688 Y111.705
G0 X152.766 Y113.69
G0 X152.713 Y114.299
G0 X152.554 Y114.892
G0 X152.295 Y115.446
G0 X151.943 Y115.95
G0 X151.51 Y116.383
G0 X151.007 Y116.735
G0 X150.452 Y116.994
G0 X149.919 Y117.137
G0 X147.958 Y117.24
;TYPE:WALL-INNER
G1 F1500 E19.55919
G1 F1200 X148.595 Y117.41 E19.58989
G1 X149.25 Y117.468 E19.62051
G1 X149.905 Y117.41 E19.65113
G1 X150.542 Y117.24 E19.68183
G1 X151.139 Y116.962 E19.7125
G1 X151.678 Y116.583 E19.74318
G1 X152.144 Y116.118 E19.77383
G1 X152.522 Y115.578 E19.80452
G1 X152.8 Y114.982 E19.83515
G1 X152.97 Y114.345 E19.86585
G1 X153.028 Y113.69 E19.89647
G1 X152.97 Y113.035 E19.92708
G1 X152.8 Y112.398 E19.95778
G1 X152.522 Y111.801 E19.98845
G1 X152.143 Y111.262 E20.01913
G1 X151.678 Y110.797 E20.04975
G1 X151.139 Y110.418 E20.08043
G1 X150.542 Y110.14 E20.1111
G1 X149.905 Y109.97 E20.1418
G1 X149.25 Y109.912 E20.17242
G1 X148.595 Y109.97 E20.20304
G1 X147.958 Y110.14 E20.23374
G1 X147.362 Y110.418 E20.26436
G1 X146.822 Y110.796 E20.29505
G1 X146.357 Y111.262 E20.32571
G1 X145.978 Y111.801 E20.35639
G1 X145.7 Y112.398 E20.38705
G1 X145.53 Y113.035 E20.41775
G1 X145.472 Y113.69 E20.44837
G1 X145.53 Y114.345 E20.47899
G1 X145.7 Y114.982 E20.50969
G1 X145.978 Y115.578 E20.54031
G1 X146.356 Y116.118 E20.571
G1 X146.822 Y116.584 E20.60169
G1 X147.362 Y116.962 E20.63238
G1 X147.958 Y117.24 E20.66301
G0 F6000 X148.095 Y116.863
;TYPE:WALL-OUTER
G1 F1200 X148.664 Y117.015 E20.69043
G1 X149.25 Y117.066 E20.71782
G1 X149.836 Y117.015 E20.74521
G1 X150.405 Y116.863 E20.77263
G1 X150.938 Y116.614 E20.80003
G1 X151.42 Y116.276 E20.82744
G1 X151.836 Y115.86 E20.85483
G1 X152.174 Y115.377 E20.88229
G1 X152.423 Y114.845 E20.90964
G1 X152.575 Y114.276 E20.93706
G1 X152.626 Y113.69 E20.96445
G1 X152.575 Y113.104 E20.99184
G1 X152.423 Y112.535 E21.01926
G1 X152.174 Y112.002 E21.04666
G1 X151.836 Y111.52 E21.07407
G1 X151.42 Y111.104 E21.10146
G1 X150.938 Y110.766 E21.12888
G1 X150.405 Y110.517 E21.15627
G1 X149.836 Y110.365 E21.18369
G1 X149.25 Y110.314 E21.21108
G1 X148.664 Y110.365 E21.23847
G1 X148.095 Y110.517 E21.2659
G1 X147.563 Y110.766 E21.29325
G1 X147.08 Y111.104 E21.3207
G1 X146.664 Y111.52 E21.34809
G1 X146.326 Y112.002 E21.37551
G1 X146.077 Y112.535 E21.4029
G1 X145.925 Y113.104 E21.43032
G1 X145.874 Y113.69 E21.45771
G1 X145.925 Y114.276 E21.4851
G1 X146.077 Y114.845 E21.51253
G1 X146.326 Y115.377 E21.53988
G1 X146.664 Y115.86 E21.56733
G1 X147.08 Y116.276 E21.59472
G1 X147.563 Y116.614 E21.62217
G1 X148.095 Y116.863 E21.64953
G0 F6000 X147.945 Y117.276
G1 F1500 E15.14953
G0 F6000 X145.52 Y115.048
G0 X146.892 Y114.549
G0 X137.581 Y113.088
G0 X138.95 Y112.655
G0 X136.707 Y107.008
G0 X134.596 Y107.009
G0 X133.249 Y111.311
;TYPE:WALL-INNER
G1 F1500 E21.64953
G1 F1200 X133.218 Y111.184 E21.65561
G1 X133.054 Y110.524 E21.68728
G1 X132.113 Y106.74 E21.86884
G1 X129.594 Y106.74 E21.98614
G1 X127.12 Y114.571 E22.36855
G1 X126.731 Y115.804 E22.42875
G1 X126.731 Y114.512 E22.45918
G1 X126.731 Y114.511 E22.45923
G1 X126.731 Y106.74 E22.82108
G1 X119.558 Y106.74 E23.15508
G1 X119.558 Y109.317 E23.27508
G1 X123.903 Y109.317 E23.4774
G1 X123.903 Y110.622 E23.53817
G1 X120.377 Y110.622 E23.70235
G1 X120.377 Y113.199 E23.82235
G1 X123.903 Y113.199 E23.98653
G1 X123.903 Y114.253 E24.03561
G1 X119.796 Y114.253 E24.22685
G1 X119.796 Y116.83 E24.34685
G1 X129.397 Y116.83 E24.79391
G1 X130.56 Y112.959 E24.98212
G1 X130.591 Y112.854 E24.98722
G1 X130.631 Y112.707 E24.99431
G1 X130.776 Y112.176 E25.01994
G1 X130.92 Y112.774 E25.03205
G1 X130.923 Y112.786 E25.03262
G1 X130.95 Y112.892 E25.03734
G1 X131.95 Y116.83 E25.22653
G1 X134.549 Y116.83 E25.34755
G1 X135.548 Y112.885 E25.53704
G1 X135.573 Y112.786 E25.5418
G1 X135.575 Y112.776 E25.54227
G1 X135.72 Y112.174 E25.5711
G1 X135.866 Y112.704 E25.5802
G1 X135.908 Y112.855 E25.58674
G1 X135.937 Y112.953 E25.59117
G1 X137.101 Y116.83 E25.77966
G1 X139.817 Y116.83 E25.90613
G1 X139.818 Y116.83 E25.90617
G1 X140.089 Y116.83 E25.91879
G1 X140.008 Y116.571 E25.92634
G1 X136.904 Y106.74 E26.40638
G1 X134.385 Y106.74 E26.52368
G1 X133.441 Y110.538 E26.70591
G1 X133.277 Y111.198 E26.72452
G1 X133.249 Y111.311 E26.72476
G1 F1500 E20.22476
G0 F6000 X133.248 Y112.488
G0 X133.249 Y113.051
;TYPE:WALL-OUTER
G1 F1500 E26.72476
G1 F1200 X133.14 Y112.562 E26.74808
G1 X132.83 Y111.279 E26.80955
G1 X131.8 Y107.14 E27.00815
G1 X129.887 Y107.14 E27.09723
G1 X126.953 Y116.43 E27.55087
G1 X129.099 Y116.43 E27.6508
G1 X130.206 Y112.744 E27.83001
G1 X130.619 Y111.236 E27.90281
G1 X130.801 Y110.487 E27.9387
G1 X130.954 Y111.205 E27.97289
G1 X131.311 Y112.69 E28.04401
G1 X132.261 Y116.43 E28.22369
G1 X134.238 Y116.43 E28.31574
G1 X135.185 Y112.69 E28.49539
G1 X135.541 Y111.205 E28.5665
G1 X135.696 Y110.487 E28.6007
G1 X135.876 Y111.237 E28.63661
G1 X136.292 Y112.744 E28.70941
G1 X137.399 Y116.43 E28.88862
G1 X139.543 Y116.43 E28.98845
G1 X136.611 Y107.14 E29.44207
G1 X134.698 Y107.14 E29.53115
G1 X133.668 Y111.279 E29.72975
G1 X133.356 Y112.561 E29.79119
G1 X133.249 Y113.051 E29.81454
G1 F1500 E23.31454
G0 F6000 X133.266 Y112.449
G0 X134.596 Y107.009
G0 X136.707 Y107.008
G0 X139.711 Y116.553
G0 X137.302 Y116.562
G0 X135.841 Y111.768
G0 X134.7 Y117.025
G0 X133.572 Y115.574
G0 X135.814 Y123.005
G0 X135.835 Y123.053
G0 X134.7 Y121.629
G0 X134.854 Y123.999
G0 X135.565 Y124.457
G0 X135.555 Y124.52
G0 X134.312 Y124.971
G0 X134.312 Y126.879
G0 X135.2 Y127.151
;TYPE:WALL-INNER
G1 F1500 E29.81454
G1 F1200 X134.719 Y129.53 E29.92756
G1 X137.196 Y129.53 E30.0429
G1 X137.21 Y129.46 E30.04623
G1 X137.679 Y127.151 E30.15594
G1 X138.04 Y127.151 E30.17275
G1 X138.026 Y127.221
G1 X137.605 Y129.291 E30.27111
G1 X137.557 Y129.53 E30.28229
G1 X137.8 Y129.53 E30.28922
G1 X137.801 Y129.53 E30.28927
G1 X140.035 Y129.53 E30.39329
G1 X140.518 Y127.151 E30.50633
G1 X142.232 Y127.151 E30.58614
G1 X142.232 Y124.699 E30.70032
G1 X141.268 Y124.699 E30.74521
G1 X141.267 Y124.699 E30.74525
G1 X141.021 Y124.699 E30.75671
G1 X141.073 Y124.458 E30.76372
G1 X141.114 Y124.271 E30.77263
G1 X142.774 Y124.271 E30.84993
G1 X142.774 Y121.819 E30.9641
G1 X141.857 Y121.819 E31.0068
G1 X141.856 Y121.819 E31.00685
G1 X141.613 Y121.819 E31.01817
G1 X141.661 Y121.58 E31.02513
G1 X142.096 Y119.44 E31.12681
G1 X139.615 Y119.44 E31.24234
G1 X139.601 Y119.509 E31.24562
G1 X139.134 Y121.819 E31.35535
G1 X138.774 Y121.819 E31.37212
G1 X138.788 Y121.749
G1 X139.208 Y119.678 E31.47052
G1 X139.256 Y119.44 E31.48182
G1 X139.014 Y119.44 E31.48872
G1 X139.013 Y119.44 E31.48877
G1 X136.776 Y119.44 E31.59293
G1 X136.295 Y121.819 E31.70595
G1 X134.582 Y121.819 E31.78572
G1 X134.582 Y124.271 E31.89989
G1 X135.546 Y124.271 E31.94478
G1 X135.547 Y124.271 E31.94483
G1 X135.792 Y124.271 E31.95623
G1 X135.741 Y124.511 E31.96322
G1 X135.701 Y124.699 E31.97217
G1 X134.04 Y124.699 E32.04951
G1 X134.04 Y126.535 E32.135
G1 X134.04 Y127.151 E32.16369
G1 X135.2 Y127.151 E32.2177
G0 F6000 X135.689 Y126.751
;TYPE:WALL-OUTER
G1 F1200 X135.208 Y129.13 E32.33072
G1 X136.869 Y129.13 E32.40806
G1 X137.352 Y126.751 E32.5211
G1 X138.529 Y126.751 E32.5759
G1 X138.046 Y129.13 E32.68894
G1 X139.708 Y129.13 E32.76633
G1 X140.191 Y126.751 E32.87937
G1 X141.832 Y126.751 E32.95578
G1 X141.832 Y125.099 E33.0327
G1 X140.526 Y125.099 E33.09351
G1 X140.791 Y123.871 E33.15201
G1 X142.374 Y123.871 E33.22572
G1 X142.374 Y122.219 E33.30265
G1 X141.124 Y122.219 E33.36085
G1 X141.607 Y119.84 E33.47389
G1 X139.942 Y119.84 E33.55142
G1 X139.461 Y122.219 E33.66444
G1 X138.285 Y122.219 E33.7192
G1 X138.767 Y119.84 E33.83222
G1 X137.103 Y119.84 E33.9097
G1 X136.622 Y122.219 E34.02272
G1 X134.982 Y122.219 E34.09909
G1 X134.982 Y123.871 E34.17601
G1 X136.286 Y123.871 E34.23673
G1 X136.024 Y125.099 E34.2952
G1 X134.44 Y125.099 E34.36896
G1 X134.44 Y126.751 E34.44588
G1 X135.689 Y126.751 E34.50404
G1 F1500 E28.00404
G0 F6000 X135.49 Y126.951
G0 X133.613 Y127.366
G0 X134.193 Y129.253
G0 X131.784 Y129.262
G0 X130.216 Y125.667
G0 X128.821 Y129.261
G0 X126.64 Y129.261
G0 X125.245 Y125.672
G0 X123.678 Y129.262
G0 X116.285 Y129.26
G0 X114.088 Y129.223
G0 X112.322 Y128.277
G0 X103.123 Y128.081
G0 X103.056 Y128.277
G0 X100.19 Y128.197
G0 X99.059 Y127.962
G0 X98.993 Y127.993
G0 X93.858 Y127.883
G0 X93.79 Y128.277
G0 X93.468 Y128.277
G0 X93.398 Y127.874
G0 X90.101 Y127.803
G0 X90.034 Y128.277
G0 X89.324 Y128.27
G0 X88.894 Y127.778
G0 X83.967 Y127.673
G0 X83.899 Y128.277
G0 X83.577 Y128.277
G0 X83.508 Y127.663
G0 X78.881 Y127.565
G0 X79.742 Y128.745
G0 X77.196 Y129.313
G0 X76.35 Y129.379
G0 X73.297 Y129.223
;TYPE:WALL-INNER
G1 F1500 E34.50404
G1 F1200 X74.927 Y129.578 E34.58172
G1 X76.153 Y129.657 E34.63892
G1 X77.236 Y129.571 E34.68951
G1 X78.043 Y129.379 E34.72814
G1 X78.866 Y129.052 E34.76938
G1 X79.629 Y128.59 E34.81091
G1 X80.298 Y128.014 E34.85202
G1 X80.811 Y127.406 E34.88906
G1 X81.205 Y126.759 E34.92433
G1 X81.5 Y126.044 E34.96035
G1 X81.69 Y125.253 E34.99823
G1 X81.766 Y124.353 E35.04028
G1 X81.764 Y123.955 E35.05882
G1 X81.645 Y123.032 E35.10215
G1 X81.439 Y122.305 E35.13734
G1 X81.147 Y121.669 E35.16992
G1 X80.761 Y121.091 E35.20229
G1 X80.27 Y120.575 E35.23545
G1 X79.765 Y120.188 E35.26508
G1 X79.111 Y119.83 E35.2998
G1 X78.341 Y119.553 E35.3379
G1 X77.44 Y119.376 E35.38066
G1 X76.447 Y119.315 E35.42698
G1 X76.228 Y119.317 E35.43718
G1 X74.746 Y119.463 E35.50652
G1 X73.058 Y119.879 E35.58747
G1 X73.058 Y125.398 E35.84446
G1 X77.991 Y125.398 E36.07416
G1 X77.991 Y122.843 E36.19314
G1 X77.991 Y122.821 E36.19416
G1 X77.978 Y122.821 E36.19476
G1 X76.011 Y122.821 E36.28636
G1 X76.011 Y121.919 E36.32836
G1 X76.424 Y121.895 E36.34762
G1 X76.912 Y121.92 E36.37037
G1 X77.383 Y122.016 E36.39276
G1 X77.685 Y122.128 E36.40776
G1 X77.951 Y122.277 E36.42195
G1 X78.165 Y122.446 E36.43465
G1 X78.252 Y122.532 E36.44035
G1 X78.261 Y122.541 E36.44093
G1 X78.297 Y122.589 E36.44372
G1 X78.31 Y122.606 E36.4447
G1 X78.44 Y122.778 E36.45474
G1 X78.572 Y123.031 E36.46803
G1 X78.695 Y123.389 E36.48566
G1 X78.783 Y123.865 E36.5082
G1 X78.815 Y124.378 E36.53213
G1 X78.813 Y124.583 E36.54168
G1 X78.763 Y125.02 E36.56216
G1 X78.657 Y125.423 E36.58156
G1 X78.494 Y125.786 E36.60009
G1 X78.291 Y126.1 E36.6175
G1 X78.063 Y126.351 E36.63329
G1 X77.8 Y126.567 E36.64914
G1 X77.479 Y126.757 E36.66651
G1 X77.069 Y126.919 E36.68703
G1 X76.569 Y127.032 E36.7109
G1 X76.027 Y127.074 E36.73622
G1 X75.014 Y127.018 E36.78346
G1 X73.531 Y126.752 E36.85362
G1 X73.297 Y126.71 E36.86469
G1 X73.297 Y126.947 E36.87148
G1 X73.297 Y126.948 E36.87153
G1 X73.297 Y129.223 E36.97746
G0 F6000 X73.697 Y128.901
;TYPE:WALL-OUTER
G1 F1200 X74.983 Y129.181 E37.03875
G1 X76.15 Y129.256 E37.0932
G1 X77.174 Y129.175 E37.14103
G1 X77.922 Y128.997 E37.17683
G1 X78.687 Y128.693 E37.21517
G1 X79.393 Y128.265 E37.25361
G1 X80.013 Y127.732 E37.29168
G1 X80.485 Y127.172 E37.32578
G1 X80.847 Y126.578 E37.35817
G1 X81.118 Y125.92 E37.39131
G1 X81.294 Y125.189 E37.42632
G1 X81.366 Y124.337 E37.46613
G1 X81.364 Y123.982 E37.48267
G1 X81.252 Y123.112 E37.52351
G1 X81.063 Y122.444 E37.55584
G1 X80.797 Y121.865 E37.58551
G1 X80.447 Y121.342 E37.61481
G1 X80.002 Y120.873 E37.64491
G1 X79.546 Y120.524 E37.67165
G1 X78.946 Y120.196 E37.70349
G1 X78.234 Y119.94 E37.73872
G1 X77.389 Y119.774 E37.77882
G1 X76.437 Y119.715 E37.82324
G1 X76.25 Y119.717 E37.83195
G1 X74.814 Y119.858 E37.89913
G1 X73.458 Y120.192 E37.96416
G1 X73.458 Y124.998 E38.18795
G1 X77.591 Y124.998 E38.3804
G1 X77.591 Y123.221 E38.46314
G1 X75.611 Y123.221 E38.55534
G1 X75.611 Y121.569 E38.63226
G1 X75.917 Y121.524 E38.64667
