;FLAVOR:Marlin
;TIME:9349
;Filament used: 11.0262m
;Layer height: 0.28
;MINX:19.098
;MINY:19.098
;MINZ:0.28
;MAXX:216.001
;MAXY:216.001
;MAXZ:12.6
;Generated with Cura_SteamEngine 4.6.1
M140 S85
M105
M190 S85
M104 S235
M105
M109 S235
M82 ;absolute extrusion mode
; Ender 3 Custom Start G-code
G92 E0 ; Reset Extruder
G28 ; Home all axes
G1 Z2.0 F3000 ; Move Z Axis up little to prevent scratching of Heat Bed
G1 X0.1 Y20 Z0.3 F5000.0 ; Move to start position
G1 X0.1 Y200.0 Z0.3 F1500.0 E15 ; Draw the first line
G1 X0.4 Y200.0 Z0.3 F5000.0 ; Move to side a little
G1 X0.4 Y20 Z0.3 F1500.0 E30 ; Draw the second line
G92 E0 ; Reset Extruder
G1 Z2.0 F3000 ; Move Z Axis up little to prevent scratching of Heat Bed
G1 X5 Y20 Z0.3 F5000.0 ; Move over to prevent blob squish
G92 E0
G92 E0
G1 F1500 E-6.5
;LAYER_COUNT:45
;LAYER:0
M107
;MESH:SideFrames.STL
G0 F6000 X198.322 Y215.435 Z0.28
;TYPE:WALL-INNER
G1 F1500 E0
G1 F1200 X19.664 Y36.777 E11.76493
G1 X36.777 Y19.664 E12.89185
G1 X215.435 Y198.322 E24.65679
G1 X198.322 Y215.435 E25.78371
G0 F6000 X198.322 Y216.001
;TYPE:WALL-OUTER
G1 F1200 X19.098 Y36.777 E37.58592
G1 X36.777 Y19.098 E38.75011
G1 X216.001 Y198.322 E50.55231
G1 X198.322 Y216.001 E51.71651
G0 F6000 X198.322 Y215.619
G0 X198.125 Y215.082
G0 X198.322 Y214.885
;TYPE:SKIN
G1 F1200 X20.214 Y36.777 E63.44522
G1 X36.777 Y20.214 E64.53592
G1 X214.885 Y198.322 E76.26464
G1 X198.322 Y214.885 E77.35534
G1 F1500 E70.85534
G0 F6000 X198.125 Y215.082
G0 X19.92 Y36.777
G0 X20.379 Y36.218
G0 X20.687 Y36.527
G1 F1500 E77.35534
G1 F1200 X198.571 Y214.41 E89.06927
G0 F6000 X198.853 Y214.127
G1 F1200 X20.97 Y36.244 E100.78317
G0 F6000 X21.253 Y35.961
G1 F1200 X199.136 Y213.844 E112.49707
G0 F6000 X199.419 Y213.561
G1 F1200 X21.536 Y35.678 E124.21097
G0 F6000 X21.819 Y35.395
G1 F1200 X199.702 Y213.278 E135.92487
G0 F6000 X199.985 Y212.996
G1 F1200 X22.102 Y35.112 E147.6388
G0 F6000 X22.384 Y34.829
G1 F1200 X200.268 Y212.713 E159.35277
G0 F6000 X200.551 Y212.43
G1 F1200 X22.667 Y34.547 E171.0667
G0 F6000 X22.95 Y34.264
G1 F1200 X200.833 Y212.147 E182.7806
G0 F6000 X201.116 Y211.864
G1 F1200 X23.233 Y33.981 E194.4945
G0 F6000 X23.516 Y33.698
G1 F1200 X201.399 Y211.581 E206.2084
G0 F6000 X201.682 Y211.299
G1 F1200 X23.799 Y33.415 E217.92233
G0 F6000 X24.081 Y33.132
G1 F1200 X201.965 Y211.016 E229.6363
G0 F6000 X202.248 Y210.733
G1 F1200 X24.364 Y32.85 E241.35023
G0 F6000 X24.647 Y32.567
G1 F1200 X202.53 Y210.45 E253.06413
G0 F6000 X202.813 Y210.167
G1 F1200 X24.93 Y32.284 E264.77803
G0 F6000 X25.213 Y32.001
G1 F1200 X203.096 Y209.884 E276.49193
G0 F6000 X203.379 Y209.602
G1 F1200 X25.496 Y31.718 E288.20586
G0 F6000 X25.778 Y31.435
G1 F1200 X203.662 Y209.319 E299.91982
G0 F6000 X203.945 Y209.036
G1 F1200 X26.061 Y31.153 E311.63376
G0 F6000 X26.344 Y30.87
G1 F1200 X204.227 Y208.753 E323.34766
G0 F6000 X204.51 Y208.47
G1 F1200 X26.627 Y30.587 E335.06156
G0 F6000 X26.91 Y30.304
G1 F1200 X204.793 Y208.187 E346.77545
G0 F6000 X205.076 Y207.904
G1 F1200 X27.193 Y30.021 E358.48935
G0 F6000 X27.476 Y29.738
G1 F1200 X205.359 Y207.622 E370.20329
G0 F6000 X205.642 Y207.339
G1 F1200 X27.758 Y29.455 E381.91725
G0 F6000 X28.041 Y29.173
G1 F1200 X205.925 Y207.056 E393.63118
G0 F6000 X206.207 Y206.773
G1 F1200 X28.324 Y28.89 E405.34508
G0 F6000 X28.607 Y28.607
G1 F1200 X206.49 Y206.49 E417.05898
G0 F6000 X206.773 Y206.207
G1 F1200 X28.89 Y28.324 E428.77288
G0 F6000 X29.173 Y28.041
G1 F1200 X207.056 Y205.925 E440.48681
G0 F6000 X207.339 Y205.642
G1 F1200 X29.455 Y27.758 E452.20078
G0 F6000 X29.738 Y27.476
G1 F1200 X207.622 Y205.359 E463.91471
G0 F6000 X207.904 Y205.076
G1 F1200 X30.021 Y27.193 E475.62861
G0 F6000 X30.304 Y26.91
G1 F1200 X208.187 Y204.793 E487.34251
G0 F6000 X208.47 Y204.51
G1 F1200 X30.587 Y26.627 E499.05641
G0 F6000 X30.87 Y26.344
G1 F1200 X208.753 Y204.227 E510.77031
G0 F6000 X209.036 Y203.945
G1 F1200 X31.153 Y26.061 E522.48424
G0 F6000 X31.435 Y25.778
G1 F1200 X209.319 Y203.662 E534.19821
G0 F6000 X209.602 Y203.379
G1 F1200 X31.718 Y25.496 E545.91214
G0 F6000 X32.001 Y25.213
G1 F1200 X209.884 Y203.096 E557.62604
G0 F6000 X210.167 Y202.813
G1 F1200 X32.284 Y24.93 E569.33994
G0 F6000 X32.567 Y24.647
G1 F1200 X210.45 Y202.53 E581.05384
G0 F6000 X210.733 Y202.248
G1 F1200 X32.85 Y24.364 E592.76777
G0 F6000 X33.132 Y24.081
G1 F1200 X211.016 Y201.965 E604.48173
G0 F6000 X211.299 Y201.682
G1 F1200 X33.415 Y23.799 E616.19567
G0 F6000 X33.698 Y23.516
G1 F1200 X211.581 Y201.399 E627.90957
G0 F6000 X211.864 Y201.116
G1 F1200 X33.981 Y23.233 E639.62346
G0 F6000 X34.264 Y22.95
G1 F1200 X212.147 Y200.833 E651.33736
G0 F6000 X212.43 Y200.551
G1 F1200 X34.547 Y22.667 E663.0513
G0 F6000 X34.829 Y22.384
G1 F1200 X212.713 Y200.268 E674.76526
G0 F6000 X212.996 Y199.985
G1 F1200 X35.112 Y22.102 E686.47919
G0 F6000 X35.395 Y21.819
G1 F1200 X213.278 Y199.702 E698.19309
G0 F6000 X213.561 Y199.419
G1 F1200 X35.678 Y21.536 E709.90699
G0 F6000 X35.961 Y21.253
G1 F1200 X213.844 Y199.136 E721.62089
G0 F6000 X214.127 Y198.853
G1 F1200 X36.244 Y20.97 E733.33479
G0 F6000 X36.527 Y20.687
G1 F1200 X214.41 Y198.571 E745.04872
G0 F6000 X214.66 Y198.817
;MESH:NONMESH
G0 F300 X214.66 Y198.817 Z0.56
G0 F6000 X214.722 Y198.879
G0 X198.322 Y215.435
;TIME_ELAPSED:813.185120
;LAYER:1
M140 S85
M106 S85
;TYPE:WALL-INNER
;MESH:SideFrames.STL
G1 F1350 X19.862 Y36.975 E756.80062
G1 X36.975 Y19.862 E757.92754
G1 X215.435 Y198.322 E769.67944
G1 X198.322 Y215.435 E770.80636
G0 F7500 X198.322 Y216.001
;TYPE:WALL-OUTER
G1 F1350 X19.296 Y36.975 E782.59552
G1 X36.975 Y19.296 E783.75972
G1 X216.001 Y198.322 E795.54888
G1 X198.322 Y216.001 E796.71308
G0 F7500 X198.322 Y215.619
G0 X198.125 Y215.082
G0 X198.322 Y214.885
;TYPE:SKIN
G1 F1800 X20.412 Y36.975 E808.42875
G1 X36.975 Y20.412 E809.51945
G1 X214.885 Y198.322 E821.23513
G1 X198.322 Y214.885 E822.32583
G0 F7500 X198.125 Y215.082
G0 X198.322 Y215.179
G0 X215.179 Y198.322
G0 X214.953 Y197.996
G0 X214.643 Y198.306
G1 F1800 X198.306 Y214.643 E823.40165
G0 F7500 X198.023 Y214.36
G1 F1800 X214.36 Y198.023 E824.47747
G0 F7500 X214.077 Y197.74
G1 F1800 X197.74 Y214.077 E825.55329
G0 F7500 X197.458 Y213.795
G1 F1800 X213.795 Y197.458 E826.62911
G0 F7500 X213.512 Y197.175
G1 F1800 X197.175 Y213.512 E827.70493
G0 F7500 X196.892 Y213.229
G1 F1800 X213.229 Y196.892 E828.78075
G0 F7500 X212.946 Y196.609
G1 F1800 X196.609 Y212.946 E829.85657
G0 F7500 X196.326 Y212.663
G1 F1800 X212.663 Y196.326 E830.93239
G0 F7500 X212.38 Y196.043
G1 F1800 X196.043 Y212.38 E832.00821
G0 F7500 X195.761 Y212.098
G1 F1800 X212.098 Y195.761 E833.08403
G0 F7500 X211.815 Y195.478
G1 F1800 X195.478 Y211.815 E834.15985
G0 F7500 X195.195 Y211.532
G1 F1800 X211.532 Y195.195 E835.23567
G0 F7500 X211.249 Y194.912
G1 F1800 X194.912 Y211.249 E836.31149
G0 F7500 X194.629 Y210.966
G1 F1800 X210.966 Y194.629 E837.3873
G0 F7500 X210.683 Y194.346
G1 F1800 X194.346 Y210.683 E838.46312
G0 F7500 X194.064 Y210.401
G1 F1800 X210.401 Y194.064 E839.53894
G0 F7500 X210.118 Y193.781
G1 F1800 X193.781 Y210.118 E840.61476
G0 F7500 X193.498 Y209.835
G1 F1800 X209.835 Y193.498 E841.69058
G0 F7500 X209.552 Y193.215
G1 F1800 X193.215 Y209.552 E842.7664
G0 F7500 X192.932 Y209.269
G1 F1800 X209.269 Y192.932 E843.84222
G0 F7500 X208.986 Y192.649
G1 F1800 X192.649 Y208.986 E844.91804
G0 F7500 X192.366 Y208.703
G1 F1800 X208.703 Y192.366 E845.99386
G0 F7500 X208.421 Y192.084
G1 F1800 X192.084 Y208.421 E847.06968
G0 F7500 X191.801 Y208.138
G1 F1800 X208.138 Y191.801 E848.1455
G0 F7500 X207.855 Y191.518
G1 F1800 X191.518 Y207.855 E849.22132
G0 F7500 X191.235 Y207.572
G1 F1800 X207.572 Y191.235 E850.29714
G0 F7500 X207.289 Y190.952
G1 F1800 X190.952 Y207.289 E851.37296
G0 F7500 X190.669 Y207.006
G1 F1800 X207.006 Y190.669 E852.44878
G0 F7500 X206.724 Y190.387
G1 F1800 X190.387 Y206.724 E853.5246
G0 F7500 X190.104 Y206.441
G1 F1800 X206.441 Y190.104 E854.60041
G0 F7500 X206.158 Y189.821
G1 F1800 X189.821 Y206.158 E855.67623
G0 F7500 X189.538 Y205.875
G1 F1800 X205.875 Y189.538 E856.75205
G0 F7500 X205.592 Y189.255
G1 F1800 X189.255 Y205.592 E857.82787
G0 F7500 X188.972 Y205.309
G1 F1800 X205.309 Y188.972 E858.90369
G0 F7500 X205.027 Y188.69
G1 F1800 X188.69 Y205.027 E859.97951
G0 F7500 X188.407 Y204.744
G1 F1800 X204.744 Y188.407 E861.05533
G0 F7500 X204.461 Y188.124
G1 F1800 X188.124 Y204.461 E862.13115
G0 F7500 X187.841 Y204.178
G1 F1800 X204.178 Y187.841 E863.20697
G0 F7500 X203.895 Y187.558
G1 F1800 X187.558 Y203.895 E864.28279
G0 F7500 X187.275 Y203.612
G1 F1800 X203.612 Y187.275 E865.35861
G0 F7500 X203.329 Y186.992
G1 F1800 X186.992 Y203.329 E866.43443
G0 F7500 X186.71 Y203.047
G1 F1800 X203.047 Y186.71 E867.51025
G0 F7500 X202.764 Y186.427
G1 F1800 X186.427 Y202.764 E868.58607
G0 F7500 X186.144 Y202.481
G1 F1800 X202.481 Y186.144 E869.66189
G0 F7500 X202.198 Y185.861
G1 F1800 X185.861 Y202.198 E870.7377
G0 F7500 X185.578 Y201.915
G1 F1800 X201.915 Y185.578 E871.81352
G0 F7500 X201.632 Y185.295
G1 F1800 X185.295 Y201.632 E872.88934
G0 F7500 X185.013 Y201.35
G1 F1800 X201.35 Y185.013 E873.96516
G0 F7500 X201.067 Y184.73
G1 F1800 X184.73 Y201.067 E875.04098
G0 F7500 X184.447 Y200.784
G1 F1800 X200.784 Y184.447 E876.1168
G0 F7500 X200.501 Y184.164
G1 F1800 X184.164 Y200.501 E877.19262
G0 F7500 X183.881 Y200.218
G1 F1800 X200.218 Y183.881 E878.26844
G0 F7500 X199.935 Y183.598
G1 F1800 X183.598 Y199.935 E879.34426
G0 F7500 X183.316 Y199.653
G1 F1800 X199.653 Y183.316 E880.42008
G0 F7500 X199.37 Y183.033
G1 F1800 X183.033 Y199.37 E881.4959
G0 F7500 X182.75 Y199.087
G1 F1800 X199.087 Y182.75 E882.57172
G0 F7500 X198.804 Y182.467
G1 F1800 X182.467 Y198.804 E883.64754
G0 F7500 X182.184 Y198.521
G1 F1800 X198.521 Y182.184 E884.72336
G0 F7500 X198.238 Y181.901
G1 F1800 X181.901 Y198.238 E885.79918
G0 F7500 X181.618 Y197.955
G1 F1800 X197.955 Y181.618 E886.87499
G0 F7500 X197.673 Y181.336
G1 F1800 X181.336 Y197.673 E887.95081
G0 F7500 X181.053 Y197.39
G1 F1800 X197.39 Y181.053 E889.02663
G0 F7500 X197.107 Y180.77
G1 F1800 X180.77 Y197.107 E890.10245
G0 F7500 X180.487 Y196.824
G1 F1800 X196.824 Y180.487 E891.17827
G0 F7500 X196.541 Y180.204
G1 F1800 X180.204 Y196.541 E892.25409
G0 F7500 X179.921 Y196.258
G1 F1800 X196.258 Y179.921 E893.32991
G0 F7500 X195.976 Y179.639
G1 F1800 X179.639 Y195.976 E894.40573
G0 F7500 X179.356 Y195.693
G1 F1800 X195.693 Y179.356 E895.48155
G0 F7500 X195.41 Y179.073
G1 F1800 X179.073 Y195.41 E896.55737
G0 F7500 X178.79 Y195.127
G1 F1800 X195.127 Y178.79 E897.63319
G0 F7500 X194.844 Y178.507
G1 F1800 X178.507 Y194.844 E898.70901
G0 F7500 X178.224 Y194.561
G1 F1800 X194.561 Y178.224 E899.78483
G0 F7500 X194.279 Y177.942
G1 F1800 X177.942 Y194.279 E900.86065
G0 F7500 X177.659 Y193.996
G1 F1800 X193.996 Y177.659 E901.93647
G0 F7500 X193.713 Y177.376
G1 F1800 X177.376 Y193.713 E903.01229
G0 F7500 X177.093 Y193.43
G1 F1800 X193.43 Y177.093 E904.0881
G0 F7500 X193.147 Y176.81
G1 F1800 X176.81 Y193.147 E905.16392
G0 F7500 X176.527 Y192.864
G1 F1800 X192.864 Y176.527 E906.23974
G0 F7500 X192.581 Y176.244
G1 F1800 X176.244 Y192.581 E907.31556
G0 F7500 X175.962 Y192.299
G1 F1800 X192.299 Y175.962 E908.39138
G0 F7500 X192.016 Y175.679
G1 F1800 X175.679 Y192.016 E909.4672
G0 F7500 X175.396 Y191.733
G1 F1800 X191.733 Y175.396 E910.54302
G0 F7500 X191.45 Y175.113
G1 F1800 X175.113 Y191.45 E911.61884
G0 F7500 X174.83 Y191.167
G1 F1800 X191.167 Y174.83 E912.69466
G0 F7500 X190.884 Y174.547
G1 F1800 X174.547 Y190.884 E913.77048
G0 F7500 X174.265 Y190.602
G1 F1800 X190.602 Y174.265 E914.8463
G0 F7500 X190.319 Y173.982
G1 F1800 X173.982 Y190.319 E915.92212
G0 F7500 X173.699 Y190.036
G1 F1800 X190.036 Y173.699 E916.99794
G0 F7500 X189.753 Y173.416
G1 F1800 X173.416 Y189.753 E918.07376
G0 F7500 X173.133 Y189.47
G1 F1800 X189.47 Y173.133 E919.14958
G0 F7500 X189.187 Y172.85
G1 F1800 X172.85 Y189.187 E920.22539
G0 F7500 X172.567 Y188.904
G1 F1800 X188.904 Y172.567 E921.30121
G0 F7500 X188.622 Y172.285
G1 F1800 X172.285 Y188.622 E922.37703
G0 F7500 X172.002 Y188.339
G1 F1800 X188.339 Y172.002 E923.45285
G0 F7500 X188.056 Y171.719
G1 F1800 X171.719 Y188.056 E924.52867
G0 F7500 X171.436 Y187.773
G1 F1800 X187.773 Y171.436 E925.60449
G0 F7500 X187.49 Y171.153
G1 F1800 X171.153 Y187.49 E926.68031
G0 F7500 X170.87 Y187.207
G1 F1800 X187.207 Y170.87 E927.75613
G0 F7500 X186.925 Y170.588
G1 F1800 X170.588 Y186.925 E928.83195
G0 F7500 X170.305 Y186.642
G1 F1800 X186.642 Y170.305 E929.90777
G0 F7500 X186.359 Y170.022
G1 F1800 X170.022 Y186.359 E930.98359
G0 F7500 X169.739 Y186.076
G1 F1800 X186.076 Y169.739 E932.05941
G0 F7500 X185.793 Y169.456
G1 F1800 X169.456 Y185.793 E933.13523
G0 F7500 X169.173 Y185.51
G1 F1800 X185.51 Y169.173 E934.21105
G0 F7500 X185.228 Y168.891
G1 F1800 X168.891 Y185.228 E935.28687
G0 F7500 X168.608 Y184.945
G1 F1800 X184.945 Y168.608 E936.36268
G0 F7500 X184.662 Y168.325
G1 F1800 X168.325 Y184.662 E937.4385
G0 F7500 X168.042 Y184.379
G1 F1800 X184.379 Y168.042 E938.51432
G0 F7500 X184.096 Y167.759
G1 F1800 X167.759 Y184.096 E939.59014
G0 F7500 X167.476 Y183.813
G1 F1800 X183.813 Y167.476 E940.66596
G0 F7500 X183.53 Y167.193
G1 F1800 X167.193 Y183.53 E941.74178
G0 F7500 X166.911 Y183.248
G1 F1800 X183.248 Y166.911 E942.8176
G0 F7500 X182.965 Y166.628
G1 F1800 X166.628 Y182.965 E943.89342
G0 F7500 X166.345 Y182.682
G1 F1800 X182.682 Y166.345 E944.96924
G0 F7500 X182.399 Y166.062
G1 F1800 X166.062 Y182.399 E946.04506
G0 F7500 X165.779 Y182.116
G1 F1800 X182.116 Y165.779 E947.12088
G0 F7500 X181.833 Y165.496
G1 F1800 X165.496 Y181.833 E948.1967
G0 F7500 X165.214 Y181.551
G1 F1800 X181.551 Y165.214 E949.27252
G0 F7500 X181.268 Y164.931
G1 F1800 X164.931 Y181.268 E950.34834
G0 F7500 X164.648 Y180.985
G1 F1800 X180.985 Y164.648 E951.42416
G0 F7500 X180.702 Y164.365
G1 F1800 X164.365 Y180.702 E952.49998
G0 F7500 X164.082 Y180.419
G1 F1800 X180.419 Y164.082 E953.57579
G0 F7500 X180.136 Y163.799
G1 F1800 X163.799 Y180.136 E954.65161
G0 F7500 X163.517 Y179.854
G1 F1800 X179.854 Y163.517 E955.72743
G0 F7500 X179.571 Y163.234
G1 F1800 X163.234 Y179.571 E956.80325
G0 F7500 X162.951 Y179.288
G1 F1800 X179.288 Y162.951 E957.87907
G0 F7500 X179.005 Y162.668
G1 F1800 X162.668 Y179.005 E958.95489
G0 F7500 X162.385 Y178.722
G1 F1800 X178.722 Y162.385 E960.03071
G0 F7500 X178.439 Y162.102
G1 F1800 X162.102 Y178.439 E961.10653
G0 F7500 X161.819 Y178.156
G1 F1800 X178.156 Y161.819 E962.18235
G0 F7500 X177.874 Y161.537
G1 F1800 X161.537 Y177.874 E963.25817
G0 F7500 X161.254 Y177.591
G1 F1800 X177.591 Y161.254 E964.33399
G0 F7500 X177.308 Y160.971
G1 F1800 X160.971 Y177.308 E965.40981
G0 F7500 X160.688 Y177.025
G1 F1800 X177.025 Y160.688 E966.48563
G0 F7500 X176.742 Y160.405
G1 F1800 X160.405 Y176.742 E967.56145
G0 F7500 X160.122 Y176.459
G1 F1800 X176.459 Y160.122 E968.63727
G0 F7500 X176.177 Y159.84
G1 F1800 X159.84 Y176.177 E969.71308
G0 F7500 X159.557 Y175.894
G1 F1800 X175.894 Y159.557 E970.7889
G0 F7500 X175.611 Y159.274
G1 F1800 X159.274 Y175.611 E971.86472
G0 F7500 X158.991 Y175.328
G1 F1800 X175.328 Y158.991 E972.94054
G0 F7500 X175.045 Y158.708
G1 F1800 X158.708 Y175.045 E974.01636
G0 F7500 X158.425 Y174.762
G1 F1800 X174.762 Y158.425 E975.09218
G0 F7500 X174.48 Y158.143
G1 F1800 X158.143 Y174.48 E976.168
G0 F7500 X157.86 Y174.197
G1 F1800 X174.197 Y157.86 E977.24382
G0 F7500 X173.914 Y157.577
G1 F1800 X157.577 Y173.914 E978.31964
G0 F7500 X157.294 Y173.631
G1 F1800 X173.631 Y157.294 E979.39546
G0 F7500 X173.348 Y157.011
G1 F1800 X157.011 Y173.348 E980.47128
G0 F7500 X156.728 Y173.065
G1 F1800 X173.065 Y156.728 E981.5471
G0 F7500 X172.782 Y156.445
G1 F1800 X156.445 Y172.782 E982.62292
G0 F7500 X156.163 Y172.5
G1 F1800 X172.5 Y156.163 E983.69874
G0 F7500 X172.217 Y155.88
G1 F1800 X155.88 Y172.217 E984.77456
G0 F7500 X155.597 Y171.934
G1 F1800 X171.934 Y155.597 E985.85037
G0 F7500 X171.651 Y155.314
G1 F1800 X155.314 Y171.651 E986.92619
G0 F7500 X155.031 Y171.368
G1 F1800 X171.368 Y155.031 E988.00201
G0 F7500 X171.085 Y154.748
G1 F1800 X154.748 Y171.085 E989.07783
G0 F7500 X154.466 Y170.803
G1 F1800 X170.803 Y154.466 E990.15365
G0 F7500 X170.52 Y154.183
