;FLAVOR:Marlin
;TIME:4512
;Filament used: 4.82508m
;Layer height: 0.28
;MINX:54.34
;MINY:98.65
;MINZ:0.28
;MAXX:180.66
;MAXY:123.65
;MAXZ:12.6
;Generated with Cura_SteamEngine 4.6.1
M140 S85
M105
M190 S85
M104 S235
M105
M109 S235
M82 ;absolute extrusion mode
; Ender 3 Custom Start G-code
G92 E0 ; Reset Extruder
G28 ; Home all axes
G1 Z2.0 F3000 ; Move Z Axis up little to prevent scratching of Heat Bed
G1 X0.1 Y20 Z0.3 F5000.0 ; Move to start position
G1 X0.1 Y200.0 Z0.3 F1500.0 E15 ; Draw the first line
G1 X0.4 Y200.0 Z0.3 F5000.0 ; Move to side a little
G1 X0.4 Y20 Z0.3 F1500.0 E30 ; Draw the second line
G92 E0 ; Reset Extruder
G1 Z2.0 F3000 ; Move Z Axis up little to prevent scratching of Heat Bed
G1 X5 Y20 Z0.3 F5000.0 ; Move over to prevent blob squish
G92 E0
G92 E0
G1 F1500 E-6.5
;LAYER_COUNT:45
;LAYER:0
M107
;MESH:TopFrame.STL
G0 F6000 X54.74 Y123.25 Z0.28
;TYPE:WALL-INNER
G1 F1500 E0
G1 F1200 X54.74 Y99.05 E1.12685
G1 X180.26 Y99.05 E6.97159
G1 X180.26 Y123.25 E8.09844
G1 X54.74 Y123.25 E13.94318
G0 F6000 X54.34 Y123.65
;TYPE:WALL-OUTER
G1 F1200 X54.34 Y98.65 E15.10729
G1 X180.66 Y98.65 E20.98927
G1 X180.66 Y123.65 E22.15338
G1 X54.34 Y123.65 E28.03537
G0 F6000 X54.61 Y123.38
G0 X54.85 Y122.86
G0 X55.13 Y122.86
;TYPE:SKIN
G1 F1200 X55.13 Y99.44 E29.1259
G1 X179.87 Y99.44 E34.93432
G1 X179.87 Y122.86 E36.02485
G1 X55.13 Y122.86 E41.83327
G0 F6000 X55.382 Y122.699
G1 F1200 X55.289 Y122.605 E41.83942
G0 F6000 X55.289 Y122.04
G1 F1200 X55.948 Y122.699 E41.88282
G0 F6000 X56.514 Y122.699
G1 F1200 X55.289 Y121.474 E41.96349
G0 F6000 X55.289 Y120.908
G1 F1200 X57.079 Y122.699 E42.0814
G0 F6000 X57.645 Y122.699
G1 F1200 X55.289 Y120.343 E42.23654
G0 F6000 X55.289 Y119.777
G1 F1200 X58.211 Y122.699 E42.42896
G0 F6000 X58.776 Y122.699
G1 F1200 X55.289 Y119.211 E42.65862
G0 F6000 X55.289 Y118.646
G1 F1200 X59.342 Y122.699 E42.92552
G0 F6000 X59.908 Y122.699
G1 F1200 X55.289 Y118.08 E43.22969
G0 F6000 X55.289 Y117.514
G1 F1200 X60.473 Y122.699 E43.57109
G0 F6000 X61.039 Y122.699
G1 F1200 X55.289 Y116.949 E43.94974
G0 F6000 X55.289 Y116.383
G1 F1200 X61.605 Y122.699 E44.36566
G0 F6000 X62.17 Y122.699
G1 F1200 X55.289 Y115.817 E44.81882
G0 F6000 X55.289 Y115.252
G1 F1200 X62.736 Y122.699 E45.30922
G0 F6000 X63.302 Y122.699
G1 F1200 X55.289 Y114.686 E45.83689
G0 F6000 X55.289 Y114.12
G1 F1200 X63.868 Y122.699 E46.40183
G0 F6000 X64.433 Y122.699
G1 F1200 X55.289 Y113.554 E47.00401
G0 F6000 X55.289 Y112.989
G1 F1200 X64.999 Y122.699 E47.64343
G0 F6000 X65.565 Y122.699
G1 F1200 X55.289 Y112.423 E48.32012
G0 F6000 X55.289 Y111.857
G1 F1200 X66.13 Y122.699 E49.03405
G0 F6000 X66.696 Y122.699
G1 F1200 X55.289 Y111.292 E49.78522
G0 F6000 X55.289 Y110.726
G1 F1200 X67.262 Y122.699 E50.57367
G0 F6000 X67.827 Y122.699
G1 F1200 X55.289 Y110.16 E51.39935
G0 F6000 X55.289 Y109.595
G1 F1200 X68.393 Y122.699 E52.26227
G0 F6000 X68.959 Y122.699
G1 F1200 X55.289 Y109.029 E53.16246
G0 F6000 X55.289 Y108.463
G1 F1200 X69.524 Y122.699 E54.09989
G0 F6000 X70.09 Y122.699
G1 F1200 X55.289 Y107.898 E55.07456
G0 F6000 X55.289 Y107.332
G1 F1200 X70.656 Y122.699 E56.08651
G0 F6000 X71.221 Y122.699
G1 F1200 X55.289 Y106.766 E57.13569
G0 F6000 X55.289 Y106.201
G1 F1200 X71.787 Y122.699 E58.22211
G0 F6000 X72.353 Y122.699
G1 F1200 X55.289 Y105.635 E59.3458
G0 F6000 X55.289 Y105.069
G1 F1200 X72.918 Y122.699 E60.50674
G0 F6000 X73.484 Y122.699
G1 F1200 X55.289 Y104.504 E61.70491
G0 F6000 X55.289 Y103.938
G1 F1200 X74.05 Y122.699 E62.94035
G0 F6000 X74.616 Y122.699
G1 F1200 X55.289 Y103.372 E64.21307
G0 F6000 X55.289 Y102.806
G1 F1200 X75.181 Y122.699 E65.52302
G0 F6000 X75.747 Y122.699
G1 F1200 X55.289 Y102.241 E66.87022
G0 F6000 X55.289 Y101.675
G1 F1200 X76.313 Y122.699 E68.25468
G0 F6000 X76.878 Y122.699
G1 F1200 X55.289 Y101.109 E69.67639
G0 F6000 X55.289 Y100.544
G1 F1200 X77.444 Y122.699 E71.13533
G0 F6000 X78.01 Y122.699
G1 F1200 X55.289 Y99.978 E72.63155
G0 F6000 X55.476 Y99.599
G1 F1200 X78.575 Y122.699 E74.15269
G0 F6000 X79.141 Y122.699
G1 F1200 X56.041 Y99.599 E75.67387
G0 F6000 X56.607 Y99.599
G1 F1200 X79.707 Y122.699 E77.19504
G0 F6000 X80.272 Y122.699
G1 F1200 X57.173 Y99.599 E78.71618
G0 F6000 X57.738 Y99.599
G1 F1200 X80.838 Y122.699 E80.23736
G0 F6000 X81.404 Y122.699
G1 F1200 X58.304 Y99.599 E81.75853
G0 F6000 X58.87 Y99.599
G1 F1200 X81.969 Y122.699 E83.27967
G0 F6000 X82.535 Y122.699
G1 F1200 X59.435 Y99.599 E84.80085
G0 F6000 X60.001 Y99.599
G1 F1200 X83.101 Y122.699 E86.32202
G0 F6000 X83.666 Y122.699
G1 F1200 X60.567 Y99.599 E87.84316
G0 F6000 X61.132 Y99.599
G1 F1200 X84.232 Y122.699 E89.36434
G0 F6000 X84.798 Y122.699
G1 F1200 X61.698 Y99.599 E90.88551
G0 F6000 X62.264 Y99.599
G1 F1200 X85.364 Y122.699 E92.40669
G0 F6000 X85.929 Y122.699
G1 F1200 X62.829 Y99.599 E93.92786
G0 F6000 X63.395 Y99.599
G1 F1200 X86.495 Y122.699 E95.44904
G0 F6000 X87.061 Y122.699
G1 F1200 X63.961 Y99.599 E96.97021
G0 F6000 X64.527 Y99.599
G1 F1200 X87.626 Y122.699 E98.49135
G0 F6000 X88.192 Y122.699
G1 F1200 X65.092 Y99.599 E100.01253
G0 F6000 X65.658 Y99.599
G1 F1200 X88.758 Y122.699 E101.5337
G0 F6000 X89.323 Y122.699
G1 F1200 X66.224 Y99.599 E103.05484
G0 F6000 X66.789 Y99.599
G1 F1200 X89.889 Y122.699 E104.57602
G0 F6000 X90.455 Y122.699
G1 F1200 X67.355 Y99.599 E106.09719
G0 F6000 X67.921 Y99.599
G1 F1200 X91.02 Y122.699 E107.61833
G0 F6000 X91.586 Y122.699
G1 F1200 X68.486 Y99.599 E109.13951
G0 F6000 X69.052 Y99.599
G1 F1200 X92.152 Y122.699 E110.66068
G0 F6000 X92.717 Y122.699
G1 F1200 X69.618 Y99.599 E112.18182
G0 F6000 X70.183 Y99.599
G1 F1200 X93.283 Y122.699 E113.703
G0 F6000 X93.849 Y122.699
G1 F1200 X70.749 Y99.599 E115.22417
G0 F6000 X71.315 Y99.599
G1 F1200 X94.415 Y122.699 E116.74535
G0 F6000 X94.98 Y122.699
G1 F1200 X71.88 Y99.599 E118.26652
G0 F6000 X72.446 Y99.599
G1 F1200 X95.546 Y122.699 E119.7877
G0 F6000 X96.112 Y122.699
G1 F1200 X73.012 Y99.599 E121.30887
G0 F6000 X73.577 Y99.599
G1 F1200 X96.677 Y122.699 E122.83004
G0 F6000 X97.243 Y122.699
G1 F1200 X74.143 Y99.599 E124.35122
G0 F6000 X74.709 Y99.599
G1 F1200 X97.809 Y122.699 E125.87239
G0 F6000 X98.374 Y122.699
G1 F1200 X75.275 Y99.599 E127.39354
G0 F6000 X75.84 Y99.599
G1 F1200 X98.94 Y122.699 E128.91471
G0 F6000 X99.506 Y122.699
G1 F1200 X76.406 Y99.599 E130.43588
G0 F6000 X76.972 Y99.599
G1 F1200 X100.071 Y122.699 E131.95703
G0 F6000 X100.637 Y122.699
G1 F1200 X77.537 Y99.599 E133.4782
G0 F6000 X78.103 Y99.599
G1 F1200 X101.203 Y122.699 E134.99937
G0 F6000 X101.768 Y122.699
G1 F1200 X78.669 Y99.599 E136.52052
G0 F6000 X79.234 Y99.599
G1 F1200 X102.334 Y122.699 E138.04169
G0 F6000 X102.9 Y122.699
G1 F1200 X79.8 Y99.599 E139.56287
G0 F6000 X80.366 Y99.599
G1 F1200 X103.465 Y122.699 E141.08401
G0 F6000 X104.031 Y122.699
G1 F1200 X80.931 Y99.599 E142.60518
G0 F6000 X81.497 Y99.599
G1 F1200 X104.597 Y122.699 E144.12636
G0 F6000 X105.163 Y122.699
G1 F1200 X82.063 Y99.599 E145.64753
G0 F6000 X82.628 Y99.599
G1 F1200 X105.728 Y122.699 E147.1687
G0 F6000 X106.294 Y122.699
G1 F1200 X83.194 Y99.599 E148.68988
G0 F6000 X83.76 Y99.599
G1 F1200 X106.86 Y122.699 E150.21105
G0 F6000 X107.425 Y122.699
G1 F1200 X84.326 Y99.599 E151.73219
G0 F6000 X84.891 Y99.599
G1 F1200 X107.991 Y122.699 E153.25337
G0 F6000 X108.557 Y122.699
G1 F1200 X85.457 Y99.599 E154.77454
G0 F6000 X86.023 Y99.599
G1 F1200 X109.122 Y122.699 E156.29569
G0 F6000 X109.688 Y122.699
G1 F1200 X86.588 Y99.599 E157.81686
G0 F6000 X87.154 Y99.599
G1 F1200 X110.254 Y122.699 E159.33803
G0 F6000 X110.819 Y122.699
G1 F1200 X87.72 Y99.599 E160.85918
G0 F6000 X88.285 Y99.599
G1 F1200 X111.385 Y122.699 E162.38035
G0 F6000 X111.951 Y122.699
G1 F1200 X88.851 Y99.599 E163.90152
G0 F6000 X89.417 Y99.599
G1 F1200 X112.516 Y122.699 E165.42267
G0 F6000 X113.082 Y122.699
G1 F1200 X89.982 Y99.599 E166.94384
G0 F6000 X90.548 Y99.599
G1 F1200 X113.648 Y122.699 E168.46501
G0 F6000 X114.214 Y122.699
G1 F1200 X91.114 Y99.599 E169.98619
G0 F6000 X91.679 Y99.599
G1 F1200 X114.779 Y122.699 E171.50736
G0 F6000 X115.345 Y122.699
G1 F1200 X92.245 Y99.599 E173.02854
G0 F6000 X92.811 Y99.599
G1 F1200 X115.911 Y122.699 E174.54971
G0 F6000 X116.476 Y122.699
G1 F1200 X93.376 Y99.599 E176.07089
G0 F6000 X93.942 Y99.599
G1 F1200 X117.042 Y122.699 E177.59206
G0 F6000 X117.608 Y122.699
G1 F1200 X94.508 Y99.599 E179.11324
G0 F6000 X95.074 Y99.599
G1 F1200 X118.173 Y122.699 E180.63438
G0 F6000 X118.739 Y122.699
G1 F1200 X95.639 Y99.599 E182.15555
G0 F6000 X96.205 Y99.599
G1 F1200 X119.305 Y122.699 E183.67673
G0 F6000 X119.87 Y122.699
G1 F1200 X96.771 Y99.599 E185.19787
G0 F6000 X97.336 Y99.599
G1 F1200 X120.436 Y122.699 E186.71904
G0 F6000 X121.002 Y122.699
G1 F1200 X97.902 Y99.599 E188.24022
G0 F6000 X98.468 Y99.599
G1 F1200 X121.567 Y122.699 E189.76136
G0 F6000 X122.133 Y122.699
G1 F1200 X99.033 Y99.599 E191.28253
G0 F6000 X99.599 Y99.599
G1 F1200 X122.699 Y122.699 E192.80371
G0 F6000 X123.264 Y122.699
G1 F1200 X100.165 Y99.599 E194.32485
G0 F6000 X100.73 Y99.599
G1 F1200 X123.83 Y122.699 E195.84602
G0 F6000 X124.396 Y122.699
G1 F1200 X101.296 Y99.599 E197.3672
G0 F6000 X101.862 Y99.599
G1 F1200 X124.962 Y122.699 E198.88837
G0 F6000 X125.527 Y122.699
G1 F1200 X102.427 Y99.599 E200.40955
G0 F6000 X102.993 Y99.599
G1 F1200 X126.093 Y122.699 E201.93072
G0 F6000 X126.659 Y122.699
G1 F1200 X103.559 Y99.599 E203.4519
G0 F6000 X104.125 Y99.599
G1 F1200 X127.224 Y122.699 E204.97304
G0 F6000 X127.79 Y122.699
G1 F1200 X104.69 Y99.599 E206.49421
G0 F6000 X105.256 Y99.599
G1 F1200 X128.356 Y122.699 E208.01539
G0 F6000 X128.921 Y122.699
G1 F1200 X105.822 Y99.599 E209.53653
G0 F6000 X106.387 Y99.599
G1 F1200 X129.487 Y122.699 E211.0577
G0 F6000 X130.053 Y122.699
G1 F1200 X106.953 Y99.599 E212.57888
G0 F6000 X107.519 Y99.599
G1 F1200 X130.618 Y122.699 E214.10002
G0 F6000 X131.184 Y122.699
G1 F1200 X108.084 Y99.599 E215.62119
G0 F6000 X108.65 Y99.599
G1 F1200 X131.75 Y122.699 E217.14237
G0 F6000 X132.315 Y122.699
G1 F1200 X109.216 Y99.599 E218.66351
G0 F6000 X109.781 Y99.599
G1 F1200 X132.881 Y122.699 E220.18468
G0 F6000 X133.447 Y122.699
G1 F1200 X110.347 Y99.599 E221.70586
G0 F6000 X110.913 Y99.599
G1 F1200 X134.012 Y122.699 E223.227
G0 F6000 X134.578 Y122.699
G1 F1200 X111.478 Y99.599 E224.74817
G0 F6000 X112.044 Y99.599
G1 F1200 X135.144 Y122.699 E226.26935
G0 F6000 X135.71 Y122.699
G1 F1200 X112.61 Y99.599 E227.79052
G0 F6000 X113.175 Y99.599
G1 F1200 X136.275 Y122.699 E229.3117
G0 F6000 X136.841 Y122.699
G1 F1200 X113.741 Y99.599 E230.83287
G0 F6000 X114.307 Y99.599
G1 F1200 X137.407 Y122.699 E232.35405
G0 F6000 X137.972 Y122.699
G1 F1200 X114.873 Y99.599 E233.87519
G0 F6000 X115.438 Y99.599
G1 F1200 X138.538 Y122.699 E235.39636
G0 F6000 X139.104 Y122.699
G1 F1200 X116.004 Y99.599 E236.91754
G0 F6000 X116.57 Y99.599
G1 F1200 X139.669 Y122.699 E238.43868
G0 F6000 X140.235 Y122.699
G1 F1200 X117.135 Y99.599 E239.95985
G0 F6000 X117.701 Y99.599
G1 F1200 X140.801 Y122.699 E241.48103
G0 F6000 X141.366 Y122.699
G1 F1200 X118.267 Y99.599 E243.00217
G0 F6000 X118.832 Y99.599
G1 F1200 X141.932 Y122.699 E244.52334
G0 F6000 X142.498 Y122.699
G1 F1200 X119.398 Y99.599 E246.04452
G0 F6000 X119.964 Y99.599
G1 F1200 X143.063 Y122.699 E247.56566
G0 F6000 X143.629 Y122.699
G1 F1200 X120.529 Y99.599 E249.08683
G0 F6000 X121.095 Y99.599
G1 F1200 X144.195 Y122.699 E250.60801
G0 F6000 X144.761 Y122.699
G1 F1200 X121.661 Y99.599 E252.12918
G0 F6000 X122.226 Y99.599
G1 F1200 X145.326 Y122.699 E253.65036
G0 F6000 X145.892 Y122.699
G1 F1200 X122.792 Y99.599 E255.17153
G0 F6000 X123.358 Y99.599
G1 F1200 X146.458 Y122.699 E256.6927
G0 F6000 X147.023 Y122.699
G1 F1200 X123.923 Y99.599 E258.21388
G0 F6000 X124.489 Y99.599
G1 F1200 X147.589 Y122.699 E259.73505
G0 F6000 X148.155 Y122.699
G1 F1200 X125.055 Y99.599 E261.25623
G0 F6000 X125.621 Y99.599
G1 F1200 X148.72 Y122.699 E262.77737
G0 F6000 X149.286 Y122.699
G1 F1200 X126.186 Y99.599 E264.29854
G0 F6000 X126.752 Y99.599
G1 F1200 X149.852 Y122.699 E265.81972
G0 F6000 X150.417 Y122.699
G1 F1200 X127.318 Y99.599 E267.34086
G0 F6000 X127.883 Y99.599
G1 F1200 X150.983 Y122.699 E268.86203
G0 F6000 X151.549 Y122.699
G1 F1200 X128.449 Y99.599 E270.38321
G0 F6000 X129.015 Y99.599
G1 F1200 X152.114 Y122.699 E271.90435
G0 F6000 X152.68 Y122.699
G1 F1200 X129.58 Y99.599 E273.42552
G0 F6000 X130.146 Y99.599
G1 F1200 X153.246 Y122.699 E274.9467
G0 F6000 X153.811 Y122.699
G1 F1200 X130.712 Y99.599 E276.46784
G0 F6000 X131.277 Y99.599
G1 F1200 X154.377 Y122.699 E277.98902
G0 F6000 X154.943 Y122.699
G1 F1200 X131.843 Y99.599 E279.51019
G0 F6000 X132.409 Y99.599
G1 F1200 X155.509 Y122.699 E281.03136
G0 F6000 X156.074 Y122.699
G1 F1200 X132.974 Y99.599 E282.55254
G0 F6000 X133.54 Y99.599
G1 F1200 X156.64 Y122.699 E284.07371
G0 F6000 X157.206 Y122.699
G1 F1200 X134.106 Y99.599 E285.59489
G0 F6000 X134.672 Y99.599
G1 F1200 X157.771 Y122.699 E287.11603
G0 F6000 X158.337 Y122.699
G1 F1200 X135.237 Y99.599 E288.6372
G0 F6000 X135.803 Y99.599
G1 F1200 X158.903 Y122.699 E290.15838
G0 F6000 X159.468 Y122.699
G1 F1200 X136.369 Y99.599 E291.67952
G0 F6000 X136.934 Y99.599
G1 F1200 X160.034 Y122.699 E293.20069
G0 F6000 X160.6 Y122.699
G1 F1200 X137.5 Y99.599 E294.72187
G0 F6000 X138.066 Y99.599
G1 F1200 X161.165 Y122.699 E296.24301
G0 F6000 X161.731 Y122.699
G1 F1200 X138.631 Y99.599 E297.76418
G0 F6000 X139.197 Y99.599
G1 F1200 X162.297 Y122.699 E299.28536
G0 F6000 X162.862 Y122.699
G1 F1200 X139.763 Y99.599 E300.8065
G0 F6000 X140.328 Y99.599
G1 F1200 X163.428 Y122.699 E302.32767
G0 F6000 X163.994 Y122.699
G1 F1200 X140.894 Y99.599 E303.84885
G0 F6000 X141.46 Y99.599
G1 F1200 X164.56 Y122.699 E305.37002
G0 F6000 X165.125 Y122.699
G1 F1200 X142.025 Y99.599 E306.8912
G0 F6000 X142.591 Y99.599
G1 F1200 X165.691 Y122.699 E308.41237
G0 F6000 X166.257 Y122.699
G1 F1200 X143.157 Y99.599 E309.93355
G0 F6000 X143.722 Y99.599
G1 F1200 X166.822 Y122.699 E311.45472
G0 F6000 X167.388 Y122.699
G1 F1200 X144.288 Y99.599 E312.9759
G0 F6000 X144.854 Y99.599
G1 F1200 X167.954 Y122.699 E314.49707
G0 F6000 X168.519 Y122.699
G1 F1200 X145.42 Y99.599 E316.01821
G0 F6000 X145.985 Y99.599
G1 F1200 X169.085 Y122.699 E317.53939
G0 F6000 X169.651 Y122.699
G1 F1200 X146.551 Y99.599 E319.06056
G0 F6000 X147.117 Y99.599
G1 F1200 X170.216 Y122.699 E320.5817
G0 F6000 X170.782 Y122.699
G1 F1200 X147.682 Y99.599 E322.10288
G0 F6000 X148.248 Y99.599
G1 F1200 X171.348 Y122.699 E323.62405
G0 F6000 X171.913 Y122.699
G1 F1200 X148.814 Y99.599 E325.14519
G0 F6000 X149.379 Y99.599
G1 F1200 X172.479 Y122.699 E326.66637
G0 F6000 X173.045 Y122.699
G1 F1200 X149.945 Y99.599 E328.18754
G0 F6000 X150.511 Y99.599
G1 F1200 X173.61 Y122.699 E329.70868
G0 F6000 X174.176 Y122.699
G1 F1200 X151.076 Y99.599 E331.22986
G0 F6000 X151.642 Y99.599
G1 F1200 X174.742 Y122.699 E332.75103
G0 F6000 X175.308 Y122.699
G1 F1200 X152.208 Y99.599 E334.27221
G0 F6000 X152.773 Y99.599
G1 F1200 X175.873 Y122.699 E335.79338
G0 F6000 X176.439 Y122.699
G1 F1200 X153.339 Y99.599 E337.31456
G0 F6000 X153.905 Y99.599
G1 F1200 X177.005 Y122.699 E338.83573
G0 F6000 X177.57 Y122.699
G1 F1200 X154.471 Y99.599 E340.35687
G0 F6000 X155.036 Y99.599
G1 F1200 X178.136 Y122.699 E341.87805
G0 F6000 X178.702 Y122.699
G1 F1200 X155.602 Y99.599 E343.39922
G0 F6000 X156.168 Y99.599
G1 F1200 X179.267 Y122.699 E344.92036
G0 F6000 X179.709 Y122.575
G1 F1200 X156.733 Y99.599 E346.43337
G0 F6000 X157.299 Y99.599
G1 F1200 X179.709 Y122.009 E347.90911
G0 F6000 X179.709 Y121.444
G1 F1200 X157.865 Y99.599 E349.34761
G0 F6000 X158.43 Y99.599
G1 F1200 X179.709 Y120.878 E350.74886
G0 F6000 X179.709 Y120.312
G1 F1200 X158.996 Y99.599 E352.11285
G0 F6000 X159.562 Y99.599
G1 F1200 X179.709 Y119.747 E353.4396
G0 F6000 X179.709 Y119.181
G1 F1200 X160.127 Y99.599 E354.72911
G0 F6000 X160.693 Y99.599
G1 F1200 X179.709 Y118.615 E355.98134
G0 F6000 X179.709 Y118.05
G1 F1200 X161.259 Y99.599 E357.19634
G0 F6000 X161.824 Y99.599
G1 F1200 X179.709 Y117.484 E358.3741
G0 F6000 X179.709 Y116.918
G1 F1200 X162.39 Y99.599 E359.51458
G0 F6000 X162.956 Y99.599
G1 F1200 X179.709 Y116.353 E360.61783
G0 F6000 X179.709 Y115.787
G1 F1200 X163.521 Y99.599 E361.68384
