;FLAVOR:Marlin
;TIME:4587
;Filament used: 4.33931m
;Layer height: 0.28
;MINX:24.926
;MINY:24.926
;MINZ:0.28
;MAXX:195.074
;MAXY:195.074
;MAXZ:15.68
;Generated with Cura_SteamEngine 4.8.0
M140 S80
M105
M190 S80
M104 S235
M105
M109 S235
M82 ;absolute extrusion mode
; Ender 3 Custom Start G-code
G92 E0 ; Reset Extruder
G28 ; Home all axes
G1 Z2.0 F3000 ; Move Z Axis up little to prevent scratching of Heat Bed
G1 X0.1 Y20 Z0.3 F5000.0 ; Move to start position
G1 X0.1 Y200.0 Z0.3 F1500.0 E15 ; Draw the first line
G1 X0.4 Y200.0 Z0.3 F5000.0 ; Move to side a little
G1 X0.4 Y20 Z0.3 F1500.0 E30 ; Draw the second line
G92 E0 ; Reset Extruder
G1 Z2.0 F3000 ; Move Z Axis up little to prevent scratching of Heat Bed
G1 X5 Y20 Z0.3 F5000.0 ; Move over to prevent blob squish
G92 E0
G92 E0
G1 F1500 E-6.5
;LAYER_COUNT:56
;LAYER:0
M107
G0 F6000 X171.445 Y28.51 Z0.28
;TYPE:SKIRT
G1 F1500 E0
G1 F1200 X171.926 Y28.042 E0.03125
G1 X172.626 Y27.417 E0.07495
G1 X173.376 Y26.854 E0.11861
G1 X174.171 Y26.357 E0.16227
G1 X175.006 Y25.93 E0.20594
G1 X175.874 Y25.575 E0.24961
G1 X176.769 Y25.296 E0.29326
G1 X177.685 Y25.093 E0.33695
G1 X178.615 Y24.97 E0.38063
G1 X179.552 Y24.926 E0.42431
G1 X180.489 Y24.962 E0.46797
G1 X181.42 Y25.078 E0.51166
G1 X182.337 Y25.273 E0.55531
G1 X183.235 Y25.545 E0.599
G1 X184.106 Y25.892 E0.64266
G1 X184.944 Y26.313 E0.68633
G1 X185.743 Y26.803 E0.72997
G1 X186.498 Y27.36 E0.77366
G1 X187.126 Y27.907 E0.81244
G1 X187.355 Y28.122 E0.82707
G1 X187.604 Y28.363 E0.8432
G1 X191.49 Y32.25 E1.09914
G1 X191.958 Y32.731 E1.13039
G1 X192.583 Y33.431 E1.17408
G1 X193.146 Y34.181 E1.21775
G1 X193.643 Y34.976 E1.26141
G1 X194.07 Y35.811 E1.30508
G1 X194.425 Y36.679 E1.34874
G1 X194.704 Y37.574 E1.3924
G1 X194.907 Y38.49 E1.43609
G1 X195.03 Y39.42 E1.47977
G1 X195.074 Y40.357 E1.52345
G1 X195.038 Y41.294 E1.56711
G1 X194.922 Y42.225 E1.61079
G1 X194.727 Y43.142 E1.65445
G1 X194.455 Y44.04 E1.69814
G1 X194.108 Y44.911 E1.7418
G1 X193.687 Y45.749 E1.78547
G1 X193.197 Y46.548 E1.82911
G1 X192.64 Y47.303 E1.8728
G1 X192.099 Y47.925 E1.91118
G1 X191.889 Y48.149 E1.92548
G1 X191.642 Y48.404 E1.94201
G1 X48.565 Y191.48 E11.36384
G1 X48.076 Y191.956 E11.39562
G1 X47.376 Y192.581 E11.43932
G1 X46.626 Y193.144 E11.48298
G1 X45.831 Y193.641 E11.52664
G1 X44.996 Y194.069 E11.57033
G1 X44.128 Y194.424 E11.614
G1 X43.233 Y194.704 E11.65767
G1 X42.317 Y194.906 E11.70134
G1 X41.388 Y195.03 E11.74499
G1 X40.451 Y195.074 E11.78866
G1 X39.514 Y195.038 E11.83233
G1 X38.583 Y194.922 E11.87601
G1 X37.665 Y194.728 E11.9197
G1 X36.768 Y194.456 E11.96335
G1 X35.897 Y194.109 E12.00701
G1 X35.058 Y193.688 E12.05072
G1 X34.259 Y193.198 E12.09436
G1 X33.504 Y192.641 E12.13805
G1 X32.83 Y192.052 E12.17973
G1 X32.594 Y191.828 E12.19488
G1 X32.389 Y191.628 E12.20822
G1 X28.518 Y187.756 E12.46316
G1 X28.05 Y187.276 E12.49438
G1 X27.424 Y186.577 E12.53807
G1 X26.861 Y185.828 E12.5817
G1 X26.363 Y185.033 E12.62538
G1 X25.935 Y184.199 E12.66903
G1 X25.579 Y183.331 E12.71272
G1 X25.299 Y182.436 E12.75638
G1 X25.095 Y181.52 E12.80008
G1 X24.971 Y180.591 E12.84372
G1 X24.926 Y179.654 E12.8874
G1 X24.961 Y178.717 E12.93106
G1 X25.076 Y177.786 E12.97475
G1 X25.27 Y176.868 E13.01844
G1 X25.541 Y175.97 E13.06211
G1 X25.888 Y175.099 E13.10577
G1 X26.307 Y174.26 E13.14944
G1 X26.797 Y173.46 E13.19312
G1 X27.353 Y172.705 E13.23678
G1 X27.918 Y172.056 E13.27685
G1 X28.128 Y171.833 E13.29111
G1 X28.358 Y171.596 E13.30649
G1 X171.445 Y28.51 E22.72898
G0 F6000 X171.724 Y28.797
G1 F1200 X172.205 Y28.329 E22.76023
G1 X172.892 Y27.716 E22.8031
G1 X173.63 Y27.165 E22.84599
G1 X174.413 Y26.68 E22.88888
G1 X175.234 Y26.265 E22.93171
G1 X176.089 Y25.923 E22.97459
G1 X176.97 Y25.657 E23.01744
G1 X177.871 Y25.467 E23.06032
G1 X178.785 Y25.357 E23.10319
G1 X179.705 Y25.327 E23.14605
G1 X180.625 Y25.376 E23.18895
G1 X181.536 Y25.505 E23.23179
G1 X182.433 Y25.713 E23.27467
G1 X183.309 Y25.997 E23.31755
G1 X184.156 Y26.357 E23.3604
G1 X184.97 Y26.788 E23.40329
G1 X185.742 Y27.289 E23.44615
G1 X186.468 Y27.855 E23.48901
G1 X186.852 Y28.198 E23.51299
G1 X187.081 Y28.413 E23.52761
G1 X187.321 Y28.646 E23.54319
G1 X191.203 Y32.529 E23.79886
G1 X191.671 Y33.01 E23.83011
G1 X192.284 Y33.697 E23.87298
G1 X192.835 Y34.435 E23.91587
G1 X193.32 Y35.218 E23.95875
G1 X193.735 Y36.039 E24.00159
G1 X194.077 Y36.894 E24.04447
G1 X194.343 Y37.775 E24.08732
G1 X194.533 Y38.676 E24.1302
G1 X194.643 Y39.59 E24.17306
G1 X194.673 Y40.51 E24.21593
G1 X194.624 Y41.43 E24.25883
G1 X194.495 Y42.341 E24.30167
G1 X194.287 Y43.238 E24.34455
G1 X194.003 Y44.114 E24.38743
G1 X193.643 Y44.961 E24.43028
G1 X193.212 Y45.775 E24.47317
G1 X192.711 Y46.547 E24.51602
G1 X192.145 Y47.273 E24.55889
G1 X191.807 Y47.652 E24.58253
G1 X191.597 Y47.876 E24.59683
G1 X191.359 Y48.121 E24.61274
G1 X48.286 Y191.194 E34.03434
G1 X47.797 Y191.67 E34.06611
G1 X47.11 Y192.283 E34.10899
G1 X46.372 Y192.834 E34.15187
G1 X45.59 Y193.318 E34.1947
G1 X44.768 Y193.734 E34.23759
G1 X43.913 Y194.076 E34.28047
G1 X43.032 Y194.343 E34.32334
G1 X42.131 Y194.532 E34.36621
G1 X41.217 Y194.643 E34.40908
G1 X40.297 Y194.673 E34.45194
G1 X39.378 Y194.624 E34.49479
G1 X38.466 Y194.496 E34.53768
G1 X37.569 Y194.288 E34.58055
G1 X36.693 Y194.004 E34.62343
G1 X35.846 Y193.644 E34.66629
G1 X35.033 Y193.213 E34.70914
G1 X34.26 Y192.712 E34.75203
G1 X33.533 Y192.147 E34.7949
G1 X33.106 Y191.762 E34.82167
G1 X32.87 Y191.538 E34.83682
G1 X32.672 Y191.345 E34.8497
G1 X28.804 Y187.477 E35.10441
G1 X28.336 Y186.997 E35.13563
G1 X27.723 Y186.31 E35.1785
G1 X27.171 Y185.573 E35.22138
G1 X26.686 Y184.791 E35.26423
G1 X26.27 Y183.97 E35.30708
G1 X25.927 Y183.115 E35.34998
G1 X25.659 Y182.234 E35.39286
G1 X25.469 Y181.334 E35.43569
G1 X25.358 Y180.42 E35.47856
G1 X25.326 Y179.5 E35.52143
G1 X25.375 Y178.58 E35.56433
G1 X25.503 Y177.668 E35.60721
G1 X25.71 Y176.771 E35.65008
G1 X25.993 Y175.895 E35.69294
G1 X26.352 Y175.048 E35.73578
G1 X26.783 Y174.234 E35.77867
G1 X27.283 Y173.461 E35.82154
G1 X27.848 Y172.734 E35.86441
G1 X28.209 Y172.33 E35.88964
G1 X28.419 Y172.107 E35.9039
G1 X28.641 Y171.879 E35.91872
G1 X171.724 Y28.797 E45.34094
G0 F6000 X172.003 Y29.083
G1 F1200 X172.484 Y28.615 E45.37219
G1 X173.159 Y28.015 E45.41425
G1 X173.884 Y27.476 E45.45631
G1 X174.653 Y27.004 E45.49833
G1 X175.462 Y26.602 E45.54039
G1 X176.303 Y26.273 E45.58244
G1 X177.17 Y26.019 E45.62451
G1 X178.055 Y25.843 E45.66653
G1 X178.953 Y25.746 E45.70859
G1 X179.856 Y25.729 E45.75064
G1 X180.757 Y25.792 E45.7927
G1 X181.649 Y25.935 E45.83476
G1 X182.525 Y26.155 E45.87682
G1 X183.377 Y26.452 E45.91883
G1 X184.201 Y26.824 E45.96093
G1 X184.988 Y27.267 E46.00298
G1 X185.732 Y27.778 E46.04501
G1 X186.579 Y28.49 E46.09654
G1 X186.808 Y28.705 E46.11116
G1 X187.038 Y28.929 E46.12611
G1 X190.917 Y32.808 E46.38155
G1 X191.385 Y33.289 E46.4128
G1 X191.985 Y33.964 E46.45485
G1 X192.524 Y34.689 E46.49692
G1 X192.996 Y35.458 E46.53894
G1 X193.398 Y36.267 E46.581
G1 X193.727 Y37.108 E46.62305
G1 X193.981 Y37.975 E46.66512
G1 X194.157 Y38.86 E46.70713
G1 X194.254 Y39.758 E46.74919
G1 X194.271 Y40.661 E46.79125
G1 X194.208 Y41.562 E46.8333
G1 X194.065 Y42.454 E46.87537
G1 X193.845 Y43.33 E46.91743
G1 X193.548 Y44.182 E46.95944
G1 X193.176 Y45.006 E47.00154
G1 X192.733 Y45.793 E47.04359
G1 X192.222 Y46.537 E47.08562
G1 X191.515 Y47.378 E47.13678
G1 X191.305 Y47.602 E47.15108
G1 X191.076 Y47.838 E47.16639
G1 X48.007 Y190.907 E56.58773
G1 X47.518 Y191.383 E56.6195
G1 X46.843 Y191.984 E56.66159
G1 X46.118 Y192.522 E56.70363
G1 X45.349 Y192.995 E56.74567
G1 X44.54 Y193.397 E56.78773
G1 X43.699 Y193.727 E56.8298
G1 X42.833 Y193.98 E56.87181
G1 X41.947 Y194.156 E56.91387
G1 X41.049 Y194.254 E56.95593
G1 X40.146 Y194.271 E56.99799
G1 X39.245 Y194.208 E57.04004
G1 X38.353 Y194.066 E57.0821
G1 X37.478 Y193.845 E57.12413
G1 X36.625 Y193.548 E57.16618
G1 X35.801 Y193.177 E57.20826
G1 X35.014 Y192.734 E57.25031
G1 X34.269 Y192.224 E57.29236
G1 X33.381 Y191.472 E57.34654
G1 X33.145 Y191.248 E57.36169
G1 X32.955 Y191.062 E57.37407
G1 X29.091 Y187.198 E57.62852
G1 X28.623 Y186.718 E57.65974
G1 X28.022 Y186.044 E57.70179
G1 X27.482 Y185.319 E57.74388
G1 X27.009 Y184.55 E57.78592
G1 X26.606 Y183.742 E57.82796
G1 X26.276 Y182.901 E57.87003
G1 X26.022 Y182.035 E57.91206
G1 X25.845 Y181.149 E57.95413
G1 X25.747 Y180.251 E57.99619
G1 X25.729 Y179.348 E58.03824
G1 X25.791 Y178.447 E58.0803
G1 X25.932 Y177.555 E58.12235
G1 X26.152 Y176.679 E58.16441
G1 X26.449 Y175.826 E58.20646
G1 X26.819 Y175.003 E58.24848
G1 X27.261 Y174.215 E58.29055
G1 X27.771 Y173.47 E58.33259
G1 X28.5 Y172.604 E58.3853
G1 X28.71 Y172.381 E58.39957
G1 X28.924 Y172.162 E58.41382
G1 X172.003 Y29.083 E67.83582
G1 F1500 E61.33582
;MESH:Toothbrush1.STL
G0 F6000 X178.554 Y36.015
G0 X179.597 Y37.057
G0 X182.983 Y40.403
G0 X40.403 Y183.239
;TYPE:WALL-INNER
G1 F1500 E67.83582
G1 F1200 X36.761 Y179.597 E68.07565
G1 X179.597 Y36.761 E77.48165
G1 X183.239 Y40.403 E77.72148
G1 X40.403 Y183.239 E87.12747
G0 F6000 X40.403 Y183.805
;TYPE:WALL-OUTER
G1 F1200 X36.195 Y179.597 E87.40458
G1 X179.597 Y36.195 E96.84784
G1 X183.805 Y40.403 E97.12495
G1 X40.403 Y183.805 E106.56821
G0 F6000 X40.403 Y183.423
G0 X40.206 Y182.886
G0 X40.403 Y182.689
;TYPE:SKIN
G1 F1200 X37.311 Y179.597 E106.77183
G1 X179.597 Y37.311 E116.1416
G1 X182.689 Y40.403 E116.34522
G1 X40.403 Y182.689 E125.71499
G0 F6000 X40.439 Y182.426
G1 F1200 X37.572 Y179.559 E125.90379
G0 F6000 X37.855 Y179.277
G1 F1200 X40.722 Y182.143 E126.09255
G0 F6000 X41.005 Y181.86
G1 F1200 X38.138 Y178.994 E126.28132
G0 F6000 X38.421 Y178.711
G1 F1200 X41.287 Y181.577 E126.47005
G0 F6000 X41.57 Y181.295
G1 F1200 X38.704 Y178.428 E126.65881
G0 F6000 X38.987 Y178.145
G1 F1200 X41.853 Y181.012 E126.84758
G0 F6000 X42.136 Y180.729
G1 F1200 X39.269 Y177.862 E127.03637
G0 F6000 X39.552 Y177.579
G1 F1200 X42.419 Y180.446 E127.22517
G0 F6000 X42.702 Y180.163
G1 F1200 X39.835 Y177.297 E127.41393
G0 F6000 X40.118 Y177.014
G1 F1200 X42.985 Y179.88 E127.6027
G0 F6000 X43.267 Y179.598
G1 F1200 X40.401 Y176.731 E127.79146
G0 F6000 X40.684 Y176.448
G1 F1200 X43.55 Y179.315 E127.98023
G0 F6000 X43.833 Y179.032
G1 F1200 X40.966 Y176.165 E128.16902
G0 F6000 X41.249 Y175.882
G1 F1200 X44.116 Y178.749 E128.35782
G0 F6000 X44.399 Y178.466
G1 F1200 X41.532 Y175.6 E128.54658
G0 F6000 X41.815 Y175.317
G1 F1200 X44.682 Y178.183 E128.73535
G0 F6000 X44.964 Y177.9
G1 F1200 X42.098 Y175.034 E128.92408
G0 F6000 X42.381 Y174.751
G1 F1200 X45.247 Y177.618 E129.11284
G0 F6000 X45.53 Y177.335
G1 F1200 X42.663 Y174.468 E129.30164
G0 F6000 X42.946 Y174.185
G1 F1200 X45.813 Y177.052 E129.49044
G0 F6000 X46.096 Y176.769
G1 F1200 X43.229 Y173.903 E129.6792
G0 F6000 X43.512 Y173.62
G1 F1200 X46.379 Y176.486 E129.86796
G0 F6000 X46.661 Y176.203
G1 F1200 X43.795 Y173.337 E130.0567
G0 F6000 X44.078 Y173.054
G1 F1200 X46.944 Y175.921 E130.24546
G0 F6000 X47.227 Y175.638
G1 F1200 X44.361 Y172.771 E130.43422
G0 F6000 X44.643 Y172.488
G1 F1200 X47.51 Y175.355 E130.62302
G0 F6000 X47.793 Y175.072
G1 F1200 X44.926 Y172.205 E130.81182
G0 F6000 X45.209 Y171.923
G1 F1200 X48.076 Y174.789 E131.00058
G0 F6000 X48.359 Y174.506
G1 F1200 X45.492 Y171.64 E131.18934
G0 F6000 X45.775 Y171.357
G1 F1200 X48.641 Y174.224 E131.37811
G0 F6000 X48.924 Y173.941
G1 F1200 X46.058 Y171.074 E131.56687
G0 F6000 X46.34 Y170.791
G1 F1200 X49.207 Y173.658 E131.75567
G0 F6000 X49.49 Y173.375
G1 F1200 X46.623 Y170.508 E131.94447
G0 F6000 X46.906 Y170.226
G1 F1200 X49.773 Y173.092 E132.13323
G0 F6000 X50.056 Y172.809
G1 F1200 X47.189 Y169.943 E132.32199
G0 F6000 X47.472 Y169.66
G1 F1200 X50.338 Y172.526 E132.51072
G0 F6000 X50.621 Y172.244
G1 F1200 X47.755 Y169.377 E132.69949
G0 F6000 X48.038 Y169.094
G1 F1200 X50.904 Y171.961 E132.88825
G0 F6000 X51.187 Y171.678
G1 F1200 X48.32 Y168.811 E133.07705
G0 F6000 X48.603 Y168.529
G1 F1200 X51.47 Y171.395 E133.26581
G0 F6000 X51.753 Y171.112
G1 F1200 X48.886 Y168.246 E133.45458
G0 F6000 X49.169 Y167.963
G1 F1200 X52.035 Y170.829 E133.64331
G0 F6000 X52.318 Y170.547
G1 F1200 X49.452 Y167.68 E133.83207
G0 F6000 X49.735 Y167.397
G1 F1200 X52.601 Y170.264 E134.02084
G0 F6000 X52.884 Y169.981
G1 F1200 X50.017 Y167.114 E134.20963
G0 F6000 X50.3 Y166.831
G1 F1200 X53.167 Y169.698 E134.39843
G0 F6000 X53.45 Y169.415
G1 F1200 X50.583 Y166.549 E134.58719
G0 F6000 X50.866 Y166.266
G1 F1200 X53.733 Y169.132 E134.77596
G0 F6000 X54.015 Y168.85
G1 F1200 X51.149 Y165.983 E134.96472
G0 F6000 X51.432 Y165.7
G1 F1200 X54.298 Y168.567 E135.15349
G0 F6000 X54.581 Y168.284
G1 F1200 X51.714 Y165.417 E135.34228
G0 F6000 X51.997 Y165.134
G1 F1200 X54.864 Y168.001 E135.53108
G0 F6000 X55.147 Y167.718
G1 F1200 X52.28 Y164.852 E135.71984
G0 F6000 X52.563 Y164.569
G1 F1200 X55.43 Y167.435 E135.90861
G0 F6000 X55.712 Y167.152
G1 F1200 X52.846 Y164.286 E136.09734
G0 F6000 X53.129 Y164.003
G1 F1200 X55.995 Y166.87 E136.2861
G0 F6000 X56.278 Y166.587
G1 F1200 X53.412 Y163.72 E136.47487
G0 F6000 X53.694 Y163.437
G1 F1200 X56.561 Y166.304 E136.66366
G0 F6000 X56.844 Y166.021
G1 F1200 X53.977 Y163.154 E136.85246
G0 F6000 X54.26 Y162.872
G1 F1200 X57.127 Y165.738 E137.04122
G0 F6000 X57.409 Y165.455
G1 F1200 X54.543 Y162.589 E137.22995
G0 F6000 X54.826 Y162.306
G1 F1200 X57.692 Y165.173 E137.41872
G0 F6000 X57.975 Y164.89
G1 F1200 X55.109 Y162.023 E137.60748
G0 F6000 X55.391 Y161.74
G1 F1200 X58.258 Y164.607 E137.79628
G0 F6000 X58.541 Y164.324
G1 F1200 X55.674 Y161.457 E137.98508
G0 F6000 X55.957 Y161.175
G1 F1200 X58.824 Y164.041 E138.17384
G0 F6000 X59.107 Y163.758
G1 F1200 X56.24 Y160.892 E138.3626
G0 F6000 X56.523 Y160.609
G1 F1200 X59.389 Y163.476 E138.55137
G0 F6000 X59.672 Y163.193
G1 F1200 X56.806 Y160.326 E138.74013
G0 F6000 X57.088 Y160.043
G1 F1200 X59.955 Y162.91 E138.92893
G0 F6000 X60.238 Y162.627
G1 F1200 X57.371 Y159.76 E139.11773
G0 F6000 X57.654 Y159.478
G1 F1200 X60.521 Y162.344 E139.30649
G0 F6000 X60.804 Y162.061
G1 F1200 X57.937 Y159.195 E139.49525
G0 F6000 X58.22 Y158.912
G1 F1200 X61.086 Y161.778 E139.68398
G0 F6000 X61.369 Y161.496
G1 F1200 X58.503 Y158.629 E139.87275
G0 F6000 X58.786 Y158.346
G1 F1200 X61.652 Y161.213 E140.06151
G0 F6000 X61.935 Y160.93
G1 F1200 X59.068 Y158.063 E140.25031
G0 F6000 X59.351 Y157.78
G1 F1200 X62.218 Y160.647 E140.43911
G0 F6000 X62.501 Y160.364
G1 F1200 X59.634 Y157.498 E140.62787
G0 F6000 X59.917 Y157.215
G1 F1200 X62.784 Y160.081 E140.81663
G0 F6000 X63.066 Y159.799
G1 F1200 X60.2 Y156.932 E141.0054
G0 F6000 X60.483 Y156.649
G1 F1200 X63.349 Y159.516 E141.19416
G0 F6000 X63.632 Y159.233
G1 F1200 X60.765 Y156.366 E141.38296
G0 F6000 X61.048 Y156.083
G1 F1200 X63.915 Y158.95 E141.57176
G0 F6000 X64.198 Y158.667
G1 F1200 X61.331 Y155.801 E141.76052
G0 F6000 X61.614 Y155.518
G1 F1200 X64.481 Y158.384 E141.94928
G0 F6000 X64.763 Y158.102
G1 F1200 X61.897 Y155.235 E142.13805
G0 F6000 X62.18 Y154.952
G1 F1200 X65.046 Y157.819 E142.32681
G0 F6000 X65.329 Y157.536
G1 F1200 X62.462 Y154.669 E142.51561
G0 F6000 X62.745 Y154.386
G1 F1200 X65.612 Y157.253 E142.7044
G0 F6000 X65.895 Y156.97
G1 F1200 X63.028 Y154.104 E142.89317
G0 F6000 X63.311 Y153.821
G1 F1200 X66.178 Y156.687 E143.08193
G0 F6000 X66.46 Y156.404
G1 F1200 X63.594 Y153.538 E143.27066
G0 F6000 X63.877 Y153.255
G1 F1200 X66.743 Y156.122 E143.45943
G0 F6000 X67.026 Y155.839
G1 F1200 X64.16 Y152.972 E143.64819
G0 F6000 X64.442 Y152.689
G1 F1200 X67.309 Y155.556 E143.83699
G0 F6000 X67.592 Y155.273
G1 F1200 X64.725 Y152.406 E144.02579
G0 F6000 X65.008 Y152.124
G1 F1200 X67.875 Y154.99 E144.21455
G0 F6000 X68.158 Y154.707
G1 F1200 X65.291 Y151.841 E144.40331
G0 F6000 X65.574 Y151.558
G1 F1200 X68.44 Y154.425 E144.59208
G0 F6000 X68.723 Y154.142
G1 F1200 X65.857 Y151.275 E144.78084
G0 F6000 X66.139 Y150.992
G1 F1200 X69.006 Y153.859 E144.96964
G0 F6000 X69.289 Y153.576
G1 F1200 X66.422 Y150.709 E145.15843
G0 F6000 X66.705 Y150.427
G1 F1200 X69.572 Y153.293 E145.3472
G0 F6000 X69.855 Y153.01
G1 F1200 X66.988 Y150.144 E145.53596
G0 F6000 X67.271 Y149.861
G1 F1200 X70.137 Y152.727 E145.72469
G0 F6000 X70.42 Y152.445
G1 F1200 X67.554 Y149.578 E145.91346
