;FLAVOR:Marlin
;TIME:4684
;Filament used: 2.85232m
;Layer height: 0.2
;MINX:34.719
;MINY:35.855
;MINZ:0.2
;MAXX:184.779
;MAXY:185.915
;MAXZ:11.4
;Generated with Cura_SteamEngine 4.8.0
M140 S80
M105
M190 S80
M104 S235
M105
M109 S235
M82 ;absolute extrusion mode
; Ender 3 Custom Start G-code
G92 E0 ; Reset Extruder
G28 ; Home all axes
G1 Z2.0 F3000 ; Move Z Axis up little to prevent scratching of Heat Bed
G1 X0.1 Y20 Z0.3 F5000.0 ; Move to start position
G1 X0.1 Y200.0 Z0.3 F1500.0 E15 ; Draw the first line
G1 X0.4 Y200.0 Z0.3 F5000.0 ; Move to side a little
G1 X0.4 Y20 Z0.3 F1500.0 E30 ; Draw the second line
G92 E0 ; Reset Extruder
G1 Z2.0 F3000 ; Move Z Axis up little to prevent scratching of Heat Bed
G1 X5 Y20 Z0.3 F5000.0 ; Move over to prevent blob squish
G92 E0
G92 E0
G1 F1500 E-6.5
;LAYER_COUNT:57
;LAYER:0
M107
G0 F6000 X71.525 Y130.175 Z0.2
;TYPE:SKIRT
G1 F1500 E0
G1 F1200 X162.093 Y39.606 E4.26006
G1 X162.616 Y39.098 E4.28431
G1 X163.316 Y38.474 E4.3155
G1 X164.066 Y37.912 E4.34668
G1 X164.858 Y37.418 E4.37772
G1 X165.061 Y37.303 E4.38548
G1 X165.896 Y36.876 E4.41667
G1 X166.764 Y36.522 E4.44785
G1 X167.66 Y36.242 E4.47908
G1 X168.576 Y36.041 E4.51027
G1 X169.41 Y35.926 E4.53827
G1 X169.614 Y35.906 E4.54509
G1 X170.55 Y35.855 E4.57626
G1 X171.488 Y35.883 E4.60748
G1 X172.419 Y35.991 E4.63865
G1 X173.338 Y36.178 E4.66984
G1 X174.238 Y36.443 E4.70105
G1 X175.112 Y36.783 E4.73224
G1 X175.669 Y37.047 E4.75274
G1 X175.919 Y37.174 E4.76206
G1 X176.736 Y37.634 E4.79325
G1 X177.511 Y38.162 E4.82444
G1 X178.028 Y38.571 E4.84637
G1 X178.079 Y38.614 E4.84858
G1 X178.65 Y39.132 E4.87423
G1 X179.205 Y39.672 E4.89998
G1 X181 Y41.465 E4.98437
G1 X181.539 Y42.02 E5.0101
G1 X182.163 Y42.72 E5.04129
G1 X182.725 Y43.471 E5.07249
G1 X183.257 Y44.33 E5.10609
G1 X183.369 Y44.531 E5.11374
G1 X183.79 Y45.369 E5.14494
G1 X184.138 Y46.24 E5.17613
G1 X184.411 Y47.137 E5.20732
G1 X184.607 Y48.054 E5.23851
G1 X184.702 Y48.759 E5.26217
G1 X184.723 Y48.963 E5.26899
G1 X184.779 Y49.899 E5.30017
G1 X184.756 Y50.836 E5.33135
G1 X184.652 Y51.768 E5.36254
G1 X184.469 Y52.688 E5.39374
G1 X184.209 Y53.589 E5.42493
G1 X183.873 Y54.465 E5.45613
G1 X183.596 Y55.054 E5.47778
G1 X183.467 Y55.309 E5.48729
G1 X183.009 Y56.128 E5.5185
G1 X182.482 Y56.904 E5.5497
G1 X182.029 Y57.473 E5.57389
G1 X181.989 Y57.52 E5.57594
G1 X181.497 Y58.06 E5.60024
G1 X180.964 Y58.607 E5.62564
G1 X88.12 Y151.452 E9.99276
G1 X86.298 Y153.326 E10.07969
G1 X84.581 Y155.195 E10.16411
G1 X82.936 Y157.091 E10.24759
G1 X82.267 Y157.904 E10.28261
G1 X81.236 Y159.116 E10.33553
G1 X80.869 Y159.537 E10.35411
G1 X80.615 Y159.842 E10.36731
G1 X79.784 Y160.815 E10.40987
G1 X79.101 Y161.545 E10.44312
G1 X77.294 Y163.377 E10.52871
G1 X76.659 Y164.058 E10.55968
G1 X75.691 Y165.08 E10.60649
G1 X75.256 Y165.515 E10.62696
G1 X74.657 Y166.08 E10.65434
G1 X72.632 Y168.049 E10.74828
G1 X70.614 Y170.058 E10.84299
G1 X70.04 Y170.642 E10.87023
G1 X66.832 Y173.848 E11.02108
G1 X66.659 Y174.016 E11.0291
G1 X64.662 Y176.021 E11.12322
G1 X58.347 Y182.334 E11.42021
G1 X57.854 Y182.812 E11.44305
G1 X57.154 Y183.436 E11.47424
G1 X56.402 Y183.998 E11.50546
G1 X55.606 Y184.493 E11.53664
G1 X54.771 Y184.919 E11.56782
G1 X53.902 Y185.272 E11.59901
G1 X53.006 Y185.55 E11.63022
G1 X52.09 Y185.751 E11.66141
G1 X51.16 Y185.873 E11.69261
G1 X50.197 Y185.915 E11.72467
G1 X50.049 Y185.915 E11.72959
G1 X49.112 Y185.875 E11.76078
G1 X48.182 Y185.755 E11.79197
G1 X47.265 Y185.557 E11.82317
G1 X46.369 Y185.281 E11.85435
G1 X45.499 Y184.93 E11.88556
G1 X44.663 Y184.506 E11.91673
G1 X43.865 Y184.012 E11.94795
G1 X43.113 Y183.452 E11.97913
G1 X42.564 Y182.976 E12.0033
G1 X42.424 Y182.846 E12.00966
G1 X42.207 Y182.639 E12.01963
G1 X41.875 Y182.313 E12.03511
G1 X38.445 Y178.886 E12.19637
G1 X37.834 Y178.259 E12.22549
G1 X37.21 Y177.56 E12.25666
G1 X36.647 Y176.81 E12.28785
G1 X36.15 Y176.014 E12.31906
G1 X35.723 Y175.179 E12.35025
G1 X35.368 Y174.311 E12.38144
G1 X35.088 Y173.416 E12.41263
G1 X34.886 Y172.5 E12.44383
G1 X34.763 Y171.57 E12.47503
G1 X34.719 Y170.589 E12.50769
G1 X34.719 Y170.44 E12.51265
G1 X34.759 Y169.503 E12.54384
G1 X34.879 Y168.573 E12.57503
G1 X35.077 Y167.656 E12.60623
G1 X35.353 Y166.76 E12.63742
G1 X35.704 Y165.89 E12.66862
G1 X36.128 Y165.054 E12.6998
G1 X36.622 Y164.256 E12.73101
G1 X37.182 Y163.504 E12.7622
G1 X37.654 Y162.959 E12.78618
G1 X37.795 Y162.807 E12.79307
G1 X37.997 Y162.595 E12.80281
G1 X38.178 Y162.41 E12.81142
G1 X44.596 Y155.991 E13.11333
G1 X46.162 Y154.434 E13.18678
G1 X46.629 Y153.96 E13.20891
G1 X49.823 Y150.766 E13.35914
G1 X50.081 Y150.516 E13.37109
G1 X52.044 Y148.545 E13.46361
G1 X55.329 Y145.263 E13.61806
G1 X56.496 Y144.128 E13.6722
G1 X58.664 Y141.954 E13.77432
G1 X59.736 Y140.844 E13.82565
G1 X59.878 Y140.7 E13.83237
G1 X61.725 Y138.857 E13.91916
G1 X62.193 Y138.402 E13.94087
G1 X62.929 Y137.748 E13.97361
G1 X63.221 Y137.512 E13.9861
G1 X64.883 Y136.19 E14.05673
G1 X66.798 Y134.578 E14.13999
G1 X68.698 Y132.883 E14.22468
G1 X70.521 Y131.162 E14.30806
G1 X71.525 Y130.175 E14.35489
G0 F6000 X71.805 Y130.461
G1 F1200 X162.371 Y39.893 E18.61488
G1 X162.894 Y39.385 E18.63913
G1 X163.582 Y38.773 E18.66976
G1 X164.32 Y38.223 E18.70037
G1 X165.055 Y37.766 E18.72916
G1 X165.258 Y37.651 E18.73692
G1 X166.078 Y37.233 E18.76753
G1 X166.931 Y36.887 E18.79814
G1 X167.811 Y36.616 E18.82877
G1 X168.712 Y36.423 E18.85942
G1 X169.449 Y36.325 E18.88415
G1 X169.653 Y36.305 E18.89096
G1 X170.572 Y36.255 E18.92157
G1 X171.492 Y36.285 E18.95219
G1 X172.406 Y36.394 E18.98281
G1 X173.307 Y36.583 E19.01342
G1 X174.189 Y36.849 E19.04407
G1 X175.044 Y37.191 E19.07469
G1 X175.488 Y37.404 E19.09107
G1 X175.738 Y37.531 E19.1004
G1 X176.54 Y37.983 E19.13102
G1 X177.299 Y38.503 E19.16162
G1 X177.77 Y38.877 E19.18162
G1 X177.821 Y38.92 E19.18384
G1 X178.372 Y39.419 E19.20857
G1 X178.923 Y39.955 E19.23413
G1 X180.598 Y41.627 E19.31285
G1 X181.252 Y42.299 E19.34404
G1 X181.864 Y42.987 E19.37466
G1 X182.414 Y43.725 E19.40528
G1 X182.908 Y44.524 E19.43652
G1 X183.02 Y44.725 E19.44417
G1 X183.432 Y45.548 E19.47478
G1 X183.772 Y46.404 E19.50542
G1 X184.036 Y47.286 E19.53604
G1 X184.223 Y48.187 E19.56665
G1 X184.304 Y48.8 E19.58721
G1 X184.325 Y49.004 E19.59403
G1 X184.38 Y49.923 E19.62465
G1 X184.354 Y50.843 E19.65527
G1 X184.249 Y51.758 E19.6859
G1 X184.065 Y52.66 E19.71652
G1 X183.803 Y53.542 E19.74712
G1 X183.465 Y54.399 E19.77776
G1 X183.24 Y54.874 E19.79524
G1 X183.111 Y55.129 E19.80475
G1 X182.66 Y55.932 E19.83538
G1 X182.141 Y56.692 E19.86599
G1 X181.724 Y57.214 E19.88821
G1 X181.684 Y57.261 E19.89026
G1 X181.211 Y57.782 E19.91367
G1 X180.785 Y58.22 E19.93399
G1 X87.869 Y151.137 E24.3045
G1 X85.982 Y153.077 E24.39451
G1 X84.3 Y154.908 E24.4772
G1 X82.626 Y156.839 E24.5622
G1 X81.845 Y157.785 E24.603
G1 X80.826 Y158.98 E24.65524
G1 X80.559 Y159.284 E24.6687
G1 X80.31 Y159.582 E24.68161
G1 X79.479 Y160.555 E24.72417
G1 X78.883 Y161.192 E24.75318
G1 X76.999 Y163.107 E24.84253
G1 X76.369 Y163.783 E24.87327
G1 X75.401 Y164.805 E24.92009
G1 X74.981 Y165.224 E24.93982
G1 X74.386 Y165.785 E24.96702
G1 X72.416 Y167.701 E25.05842
G1 X70.247 Y169.86 E25.16021
G1 X69.755 Y170.361 E25.18356
G1 X66.554 Y173.562 E25.33413
G1 X66.349 Y173.761 E25.34363
G1 X64.364 Y175.753 E25.43716
G1 X58.069 Y182.047 E25.73324
G1 X57.576 Y182.525 E25.75608
G1 X56.887 Y183.137 E25.78673
G1 X56.149 Y183.686 E25.81732
G1 X55.365 Y184.17 E25.84797
G1 X54.543 Y184.583 E25.87856
G1 X53.687 Y184.924 E25.90921
G1 X52.806 Y185.189 E25.93981
G1 X51.904 Y185.377 E25.97045
G1 X50.99 Y185.485 E26.00106
G1 X50.197 Y185.515 E26.02746
G1 X50.049 Y185.515 E26.03238
G1 X49.129 Y185.475 E26.06301
G1 X48.216 Y185.355 E26.09364
G1 X47.317 Y185.157 E26.12425
G1 X46.439 Y184.881 E26.15487
G1 X45.588 Y184.53 E26.18548
G1 X44.77 Y184.107 E26.21611
G1 X43.993 Y183.614 E26.24672
G1 X43.261 Y183.056 E26.27733
G1 X42.836 Y182.683 E26.29614
G1 X42.696 Y182.553 E26.30249
G1 X42.487 Y182.353 E26.31212
G1 X42.158 Y182.03 E26.32745
G1 X38.728 Y178.603 E26.48872
G1 X38.121 Y177.98 E26.51765
G1 X37.508 Y177.293 E26.54827
G1 X36.958 Y176.555 E26.57888
G1 X36.473 Y175.773 E26.60949
G1 X36.058 Y174.951 E26.64012
G1 X35.716 Y174.096 E26.67074
G1 X35.449 Y173.215 E26.70136
G1 X35.26 Y172.314 E26.73198
G1 X35.15 Y171.4 E26.7626
G1 X35.119 Y170.589 E26.78959
G1 X35.119 Y170.44 E26.79455
G1 X35.159 Y169.52 E26.82518
G1 X35.279 Y168.607 E26.85581
G1 X35.477 Y167.708 E26.88642
G1 X35.753 Y166.83 E26.91703
G1 X36.104 Y165.979 E26.94765
G1 X36.527 Y165.161 E26.97828
G1 X37.02 Y164.384 E27.00889
G1 X37.578 Y163.652 E27.0395
G1 X37.948 Y163.231 E27.05814
G1 X38.089 Y163.079 E27.06504
G1 X38.283 Y162.875 E27.0744
G1 X38.464 Y162.69 E27.08301
G1 X44.878 Y156.275 E27.38473
G1 X46.444 Y154.718 E27.45818
G1 X46.911 Y154.243 E27.48033
G1 X49.986 Y151.167 E27.62499
G1 X50.301 Y150.861 E27.6396
G1 X52.327 Y148.827 E27.73509
G1 X55.608 Y145.549 E27.88934
G1 X56.841 Y144.349 E27.94657
G1 X58.922 Y142.263 E28.04457
G1 X60.16 Y140.983 E28.1038
G1 X62.004 Y139.144 E28.19042
G1 X62.472 Y138.689 E28.21213
G1 X63.181 Y138.059 E28.24367
G1 X63.47 Y137.825 E28.25604
G1 X65.145 Y136.493 E28.32722
G1 X67.039 Y134.898 E28.40958
G1 X68.956 Y133.189 E28.49499
G1 X70.818 Y131.431 E28.58017
G1 X71.805 Y130.461 E28.62619
G0 F6000 X72.027 Y130.804
G1 F1200 X162.65 Y40.18 E32.88884
G1 X163.173 Y39.672 E32.9131
G1 X163.848 Y39.072 E32.94313
G1 X164.574 Y38.535 E32.97317
G1 X165.252 Y38.114 E32.99971
G1 X165.455 Y37.999 E33.00747
G1 X166.26 Y37.589 E33.03752
G1 X167.098 Y37.252 E33.06756
G1 X167.962 Y36.99 E33.09759
G1 X168.846 Y36.806 E33.12762
G1 X169.488 Y36.723 E33.14915
G1 X169.692 Y36.703 E33.15597
G1 X170.594 Y36.654 E33.18601
G1 X171.496 Y36.686 E33.21603
G1 X172.392 Y36.798 E33.24607
G1 X173.275 Y36.988 E33.27611
G1 X174.138 Y37.255 E33.30615
G1 X175.307 Y37.76 E33.34851
G1 X175.557 Y37.887 E33.35783
G1 X176.343 Y38.331 E33.38786
G1 X177.087 Y38.843 E33.4179
G1 X177.512 Y39.183 E33.436
G1 X177.563 Y39.226 E33.43822
G1 X178.093 Y39.706 E33.462
G1 X178.64 Y40.238 E33.48738
G1 X180.315 Y41.91 E33.5661
G1 X180.965 Y42.578 E33.5971
G1 X181.565 Y43.253 E33.62714
G1 X182.103 Y43.978 E33.65716
G1 X182.558 Y44.719 E33.68608
G1 X182.67 Y44.92 E33.69374
G1 X183.074 Y45.728 E33.72378
G1 X183.406 Y46.568 E33.75382
G1 X183.661 Y47.434 E33.78385
G1 X183.839 Y48.319 E33.81388
G1 X183.906 Y48.841 E33.83138
G1 X183.927 Y49.045 E33.8382
G1 X183.98 Y49.946 E33.86822
G1 X183.953 Y50.849 E33.89827
G1 X183.846 Y51.746 E33.92831
G1 X183.66 Y52.629 E33.95833
G1 X183.396 Y53.493 E33.98837
G1 X182.883 Y54.693 E34.03178
G1 X182.754 Y54.948 E34.04129
G1 X182.311 Y55.735 E34.07132
G1 X181.8 Y56.48 E34.10137
G1 X181.42 Y56.955 E34.1216
G1 X181.38 Y57.002 E34.12366
G1 X180.924 Y57.503 E34.14619
G1 X180.399 Y58.041 E34.17119
G1 X87.547 Y150.894 E38.53869
G1 X85.702 Y152.792 E38.62672
G1 X83.985 Y154.66 E38.71111
G1 X82.32 Y156.58 E38.79564
G1 X81.54 Y157.526 E38.83642
G1 X80.525 Y158.716 E38.88844
G1 X80.252 Y159.027 E38.90221
G1 X80.006 Y159.322 E38.91498
G1 X79.175 Y160.295 E38.95754
G1 X78.6 Y160.913 E38.98562
G1 X76.704 Y162.836 E39.07543
G1 X76.078 Y163.508 E39.10598
G1 X75.11 Y164.53 E39.1528
G1 X74.707 Y164.933 E39.17176
G1 X74.082 Y165.523 E39.20034
G1 X72.134 Y167.417 E39.29071
G1 X70.044 Y169.497 E39.38878
G1 X69.407 Y170.143 E39.41896
G1 X66.275 Y173.275 E39.56628
G1 X66.07 Y173.474 E39.57578
G1 X64.081 Y175.47 E39.6695
G1 X57.79 Y181.76 E39.96539
G1 X57.297 Y182.238 E39.98822
G1 X56.622 Y182.837 E40.01824
G1 X55.896 Y183.375 E40.0483
G1 X55.125 Y183.846 E40.07834
G1 X54.316 Y184.246 E40.10836
G1 X53.474 Y184.574 E40.13842
G1 X52.607 Y184.826 E40.16845
G1 X51.721 Y185.001 E40.19848
G1 X50.823 Y185.096 E40.22852
G1 X50.197 Y185.115 E40.24935
G1 X50.049 Y185.115 E40.25427
G1 X49.147 Y185.075 E40.2843
G1 X48.252 Y184.955 E40.31434
G1 X47.371 Y184.757 E40.34437
G1 X46.511 Y184.482 E40.3744
G1 X45.678 Y184.131 E40.40446
G1 X44.88 Y183.708 E40.4345
G1 X44.123 Y183.217 E40.46451
G1 X43.108 Y182.389 E40.50808
G1 X42.968 Y182.259 E40.51444
G1 X42.767 Y182.067 E40.52368
G1 X42.441 Y181.747 E40.53887
G1 X39.011 Y178.32 E40.70014
G1 X38.408 Y177.701 E40.72888
G1 X37.807 Y177.027 E40.75892
G1 X37.269 Y176.302 E40.78895
G1 X36.797 Y175.532 E40.81898
G1 X36.394 Y174.723 E40.84905
G1 X36.065 Y173.882 E40.87908
G1 X35.812 Y173.016 E40.90909
G1 X35.636 Y172.13 E40.93913
G1 X35.539 Y171.232 E40.96917
G1 X35.519 Y170.589 E40.99057
G1 X35.519 Y170.44 E40.99553
G1 X35.559 Y169.538 E41.02556
G1 X35.679 Y168.643 E41.05559
G1 X35.877 Y167.762 E41.08562
G1 X36.152 Y166.902 E41.11566
G1 X36.503 Y166.069 E41.14572
G1 X36.926 Y165.271 E41.17576
G1 X37.417 Y164.514 E41.20577
G1 X38.241 Y163.503 E41.24915
G1 X38.382 Y163.351 E41.25605
G1 X38.569 Y163.155 E41.26506
G1 X38.75 Y162.97 E41.27366
G1 X45.16 Y156.559 E41.57519
G1 X46.668 Y155.06 E41.64591
G1 X47.194 Y154.526 E41.67084
G1 X50.38 Y151.341 E41.82068
G1 X50.609 Y151.119 E41.83129
G1 X52.61 Y149.11 E41.9256
G1 X55.886 Y145.836 E42.07964
G1 X57.12 Y144.636 E42.13689
G1 X59.241 Y142.509 E42.2368
G1 X60.443 Y141.266 E42.29431
G1 X62.283 Y139.431 E42.38074
G1 X62.751 Y138.976 E42.40245
G1 X63.433 Y138.369 E42.43282
G1 X63.719 Y138.138 E42.44505
G1 X65.388 Y136.811 E42.51596
G1 X67.334 Y135.172 E42.60059
G1 X69.214 Y133.495 E42.68438
G1 X71.115 Y131.701 E42.77132
G1 X72.027 Y130.804 E42.81386
G1 F1500 E36.31386
G0 F6000 X66.831 Y148.869
G0 X66.823 Y149.196
G0 X67.128 Y153.129
G1 F1500 E42.81386
G1 F1200 X67.506 Y153.506 E42.83162
G1 X67.341 Y153.718 E42.84055
G1 X67.321 Y153.747 E42.84172
G1 X66.886 Y153.312 E42.86219
G1 X66.929 Y153.282 E42.86393
G1 X67.128 Y153.129 E42.87228
G0 F6000 X66.911 Y152.792
G1 F1200 X67.15 Y152.584 E42.88282
G1 X68.051 Y153.486 E42.92522
G1 X67.867 Y153.691 E42.93438
G1 X67.673 Y153.94 E42.94488
G1 X67.384 Y154.374 E42.96222
G1 X66.261 Y153.251 E43.01505
G1 X66.704 Y152.951 E43.03284
G1 X66.911 Y152.792 E43.04152
G0 F6000 X66.649 Y152.489
G1 F1200 X67.035 Y152.154 E43.05852
G1 X67.158 Y152.028 E43.06438
G1 X68.608 Y153.478 E43.13258
G1 X68.513 Y153.571 E43.137
G1 X68.165 Y153.958 E43.15431
G1 X68.006 Y154.162 E43.16292
G1 X67.625 Y154.732 E43.18572
G1 X67.607 Y154.744 E43.18644
G1 X67.374 Y154.93 E43.19636
G1 X65.697 Y153.253 E43.27524
G1 X65.863 Y153.039 E43.28424
G1 X66.48 Y152.62 E43.30905
G1 X66.649 Y152.489 E43.31616
G0 F6000 X66.387 Y152.187
G1 F1200 X66.773 Y151.852 E43.33316
G1 X66.934 Y151.687 E43.34083
G1 X67.138 Y151.441 E43.35146
G1 X69.193 Y153.497 E43.44814
G1 X68.945 Y153.708 E43.45897
G1 X68.81 Y153.839 E43.46523
G1 X68.462 Y154.226 E43.48254
G1 X68.339 Y154.385 E43.48923
G1 X67.913 Y155.023 E43.51474
G1 X67.823 Y155.081 E43.5183
G1 X67.565 Y155.293 E43.52941
G1 X67.392 Y155.514 E43.53874
G1 X65.118 Y153.24 E43.64571
G1 X65.145 Y153.221 E43.6468
G1 X65.394 Y152.998 E43.65792
G1 X65.574 Y152.751 E43.66809
G1 X66.255 Y152.289 E43.69546
G1 X66.387 Y152.187 E43.70101
G0 F6000 X66.124 Y151.885
G1 F1200 X66.51 Y151.55 E43.71801
G1 X66.626 Y151.432 E43.72351
G1 X66.875 Y151.131 E43.7365
G1 X66.94 Y151.042 E43.74017
G1 X67.085 Y150.821 E43.74896
G1 X69.805 Y153.543 E43.87695
G1 X69.554 Y153.716 E43.88709
G1 X69.204 Y154.013 E43.90235
G1 X69.107 Y154.106 E43.90682
G1 X68.759 Y154.493 E43.92413
G1 X68.671 Y154.607 E43.92892
G1 X68.198 Y155.315 E43.95724
G1 X68.039 Y155.417 E43.96353
G1 X67.755 Y155.693 E43.9767
G1 X67.45 Y156.138 E43.99464
G1 X64.497 Y153.185 E44.13354
G1 X64.916 Y152.893 E44.15053
G1 X65.173 Y152.631 E44.16273
G1 X65.286 Y152.463 E44.16947
G1 X66.03 Y151.958 E44.19937
G1 X66.124 Y151.885 E44.20333
G0 F6000 X65.862 Y151.583
G1 F1200 X66.248 Y151.248 E44.22033
G1 X66.317 Y151.177 E44.22363
G1 X66.566 Y150.876 E44.23662
G1 X66.606 Y150.823 E44.23883
G1 X67.074 Y150.109 E44.26722
G1 X67.108 Y150.173 E44.26963
G1 X67.261 Y150.406 E44.2789
G1 X67.378 Y150.549 E44.28505
G1 X70.086 Y153.258 E44.41245
G1 X70.279 Y153.406 E44.42054
G1 X70.529 Y153.547 E44.43008
G1 X69.873 Y153.976 E44.45615
G1 X69.813 Y154.021 E44.45865
G1 X69.463 Y154.318 E44.47392
G1 X69.405 Y154.374 E44.4766
G1 X69.057 Y154.761 E44.49391
G1 X69.004 Y154.829 E44.49677
